P3
400 225 
255
217 233 255
217 233 255
217 233 255
217 233 255
217 233 255
217 233 255
217 233 255
217 233 255
217 233 255
217 233 255
217 233 255
217 233 255
217 233 255
217 233 255
217 233 255
217 233 255
217 233 255
217 233 255
217 233 255
217 233 255
217 233 255
217 233 255
217 233 255
217 233 255
217 233 255
217 233 255
217 233 255
217 233 255
217 233 255
217 233 255
217 233 255
217 233 255
217 233 255
217 233 255
217 233 255
217 233 255
217 233 255
217 233 255
217 233 255
217 233 255
217 233 255
217 233 255
217 233 255
217 233 255
217 233 255
217 233 255
217 233 255
217 233 255
217 233 255
217 233 255
217 233 255
217 233 255
217 233 255
217 233 255
217 233 255
217 233 255
217 233 255
217 233 255
217 233 255
217 233 255
216 233 255
217 233 255
217 233 255
217 233 255
216 233 255
217 233 255
216 233 255
216 233 255
216 233 255
216 233 255
216 233 255
216 233 255
216 233 255
216 233 255
216 233 255
216 233 255
216 233 255
216 233 255
216 233 255
216 233 255
216 233 255
216 233 255
216 233 255
216 233 255
216 233 255
216 233 255
216 233 255
216 233 255
216 233 255
216 233 255
216 233 255
216 233 255
216 233 255
216 233 255
216 233 255
216 233 255
216 232 255
216 233 255
216 233 255
216 233 255
216 233 255
216 233 255
216 233 255
216 233 255
216 232 255
216 233 255
216 233 255
216 233 255
216 233 255
216 233 255
216 233 255
216 233 255
216 232 255
216 232 255
216 232 255
216 232 255
216 232 255
216 232 255
216 232 255
216 232 255
216 232 255
216 232 255
216 232 255
216 232 255
216 232 255
216 232 255
216 232 255
216 232 255
215 232 255
216 232 255
215 232 255
215 232 255
216 232 255
216 232 255
215 232 255
215 232 255
215 232 255
215 232 255
216 232 255
215 232 255
215 232 255
215 232 255
215 232 255
215 232 255
215 232 255
215 232 255
215 232 255
215 232 255
215 232 255
215 232 255
215 232 255
215 232 255
215 232 255
215 232 255
215 232 255
215 232 255
215 232 255
215 232 255
215 232 255
215 232 255
215 232 255
215 232 255
215 232 255
215 232 255
215 232 255
215 232 255
215 232 255
215 232 255
215 232 255
215 232 255
215 232 255
215 232 255
215 232 255
215 232 255
215 232 255
215 232 255
215 232 255
215 232 255
215 232 255
215 232 255
215 232 255
215 232 255
215 232 255
215 232 255
215 232 255
215 232 255
215 232 255
215 232 255
215 232 255
215 232 255
215 232 255
215 232 255
215 232 255
215 232 255
215 232 255
215 232 255
215 232 255
215 232 255
215 232 255
215 232 255
215 232 255
215 232 255
215 232 255
215 232 255
215 232 255
215 232 255
215 232 255
215 232 255
215 232 255
215 232 255
215 232 255
215 232 255
215 232 255
215 232 255
215 232 255
215 232 255
215 232 255
215 232 255
215 232 255
215 232 255
215 232 255
215 232 255
215 232 255
215 232 255
215 232 255
215 232 255
215 232 255
215 232 255
215 232 255
215 232 255
215 232 255
215 232 255
215 232 255
215 232 255
215 232 255
215 232 255
215 232 255
215 232 255
215 232 255
215 232 255
215 232 255
215 232 255
215 232 255
215 232 255
215 232 255
215 232 255
215 232 255
215 232 255
215 232 255
215 232 255
215 232 255
215 232 255
215 232 255
215 232 255
215 232 255
215 232 255
215 232 255
215 232 255
215 232 255
215 232 255
215 232 255
215 232 255
216 232 255
215 232 255
215 232 255
216 232 255
216 232 255
216 232 255
216 232 255
215 232 255
215 232 255
215 232 255
215 232 255
215 232 255
215 232 255
216 232 255
216 232 255
216 232 255
216 232 255
216 232 255
216 232 255
215 232 255
216 232 255
216 232 255
216 233 255
216 232 255
216 232 255
216 232 255
216 232 255
216 232 255
216 232 255
216 233 255
216 233 255
216 233 255
216 232 255
216 233 255
216 233 255
216 233 255
216 233 255
216 233 255
216 233 255
216 233 255
216 233 255
216 233 255
216 233 255
216 233 255
216 233 255
216 233 255
216 233 255
216 233 255
216 233 255
216 233 255
216 233 255
216 233 255
216 233 255
216 233 255
216 233 255
216 233 255
216 233 255
216 233 255
216 233 255
216 233 255
216 233 255
216 233 255
216 233 255
216 233 255
216 233 255
216 233 255
216 233 255
217 233 255
216 233 255
216 233 255
216 233 255
216 233 255
216 233 255
217 233 255
216 233 255
216 233 255
217 233 255
217 233 255
217 233 255
217 233 255
216 233 255
217 233 255
217 233 255
217 233 255
217 233 255
217 233 255
217 233 255
217 233 255
217 233 255
217 233 255
217 233 255
217 233 255
217 233 255
217 233 255
217 233 255
217 233 255
217 233 255
217 233 255
217 233 255
217 233 255
217 233 255
217 233 255
217 233 255
217 233 255
217 233 255
217 233 255
217 233 255
217 233 255
217 233 255
217 233 255
217 233 255
217 233 255
217 233 255
217 233 255
217 233 255
217 233 255
217 233 255
217 233 255
217 233 255
217 233 255
217 233 255
217 233 255
217 233 255
217 233 255
217 233 255
217 233 255
217 233 255
217 233 255
217 233 255
217 233 255
217 233 255
217 233 255
217 233 255
217 233 255
217 233 255
217 233 255
217 233 255
217 233 255
217 233 255
217 233 255
218 233 255
217 233 255
217 233 255
217 233 255
217 233 255
217 233 255
217 233 255
217 233 255
217 233 255
217 233 255
217 233 255
217 233 255
217 233 255
217 233 255
217 233 255
217 233 255
217 233 255
217 233 255
217 233 255
217 233 255
217 233 255
217 233 255
217 233 255
217 233 255
217 233 255
217 233 255
217 233 255
217 233 255
217 233 255
217 233 255
217 233 255
217 233 255
217 233 255
217 233 255
217 233 255
217 233 255
217 233 255
217 233 255
217 233 255
217 233 255
217 233 255
217 233 255
217 233 255
217 233 255
217 233 255
217 233 255
217 233 255
217 233 255
217 233 255
217 233 255
217 233 255
217 233 255
217 233 255
217 233 255
217 233 255
217 233 255
217 233 255
217 233 255
217 233 255
216 233 255
217 233 255
217 233 255
217 233 255
217 233 255
216 233 255
217 233 255
216 233 255
217 233 255
216 233 255
216 233 255
217 233 255
217 233 255
217 233 255
216 233 255
216 233 255
216 233 255
216 233 255
216 233 255
216 233 255
216 233 255
216 233 255
216 233 255
216 233 255
216 233 255
216 233 255
216 233 255
216 233 255
216 233 255
216 233 255
216 233 255
216 233 255
216 233 255
216 233 255
216 233 255
216 233 255
216 233 255
216 233 255
216 233 255
216 233 255
216 233 255
216 233 255
216 233 255
216 233 255
216 233 255
216 233 255
216 233 255
216 233 255
216 233 255
216 233 255
216 233 255
216 233 255
216 233 255
216 232 255
216 232 255
216 233 255
216 232 255
216 233 255
216 232 255
216 232 255
216 232 255
216 233 255
216 232 255
216 233 255
216 232 255
216 232 255
216 232 255
216 232 255
216 232 255
216 232 255
216 232 255
216 232 255
216 232 255
216 232 255
216 232 255
216 232 255
216 232 255
216 232 255
216 232 255
216 232 255
216 232 255
215 232 255
216 232 255
216 232 255
215 232 255
216 232 255
216 232 255
215 232 255
216 232 255
215 232 255
215 232 255
215 232 255
215 232 255
215 232 255
215 232 255
215 232 255
215 232 255
215 232 255
215 232 255
215 232 255
215 232 255
215 232 255
215 232 255
215 232 255
215 232 255
215 232 255
215 232 255
215 232 255
215 232 255
215 232 255
215 232 255
215 232 255
215 232 255
215 232 255
215 232 255
215 232 255
215 232 255
215 232 255
215 232 255
215 232 255
215 232 255
215 232 255
215 232 255
215 232 255
215 232 255
215 232 255
215 232 255
215 232 255
215 232 255
215 232 255
215 232 255
215 232 255
215 232 255
215 232 255
215 232 255
215 232 255
215 232 255
215 232 255
215 232 255
215 232 255
215 232 255
215 232 255
215 232 255
215 232 255
215 232 255
215 232 255
215 232 255
215 232 255
215 232 255
215 232 255
215 232 255
215 232 255
215 232 255
215 232 255
215 232 255
215 232 255
215 232 255
215 232 255
215 232 255
215 232 255
215 232 255
215 232 255
215 232 255
215 232 255
215 232 255
215 232 255
215 232 255
215 232 255
215 232 255
215 232 255
215 232 255
215 232 255
215 232 255
215 232 255
215 232 255
215 232 255
215 232 255
215 232 255
215 232 255
215 232 255
215 232 255
216 232 255
215 232 255
215 232 255
215 232 255
215 232 255
215 232 255
215 232 255
216 232 255
216 232 255
216 232 255
215 232 255
215 232 255
216 232 255
215 232 255
216 232 255
216 232 255
216 232 255
215 232 255
215 232 255
215 232 255
216 232 255
216 232 255
216 232 255
216 232 255
216 232 255
216 232 255
216 232 255
216 232 255
216 232 255
216 232 255
216 232 255
216 232 255
216 232 255
216 232 255
216 232 255
216 232 255
216 233 255
216 233 255
216 233 255
216 233 255
216 233 255
216 232 255
216 232 255
216 233 255
216 232 255
216 233 255
216 233 255
216 233 255
216 233 255
216 233 255
216 233 255
216 232 255
216 233 255
216 233 255
216 233 255
216 233 255
216 233 255
216 233 255
216 233 255
216 233 255
216 233 255
216 233 255
216 233 255
216 233 255
216 233 255
216 233 255
216 233 255
216 233 255
216 233 255
216 233 255
216 233 255
216 233 255
216 233 255
216 233 255
216 233 255
216 233 255
216 233 255
216 233 255
216 233 255
216 233 255
216 233 255
216 233 255
216 233 255
216 233 255
217 233 255
216 233 255
217 233 255
217 233 255
217 233 255
217 233 255
217 233 255
217 233 255
217 233 255
217 233 255
217 233 255
217 233 255
217 233 255
217 233 255
217 233 255
217 233 255
217 233 255
217 233 255
217 233 255
217 233 255
217 233 255
217 233 255
217 233 255
217 233 255
217 233 255
217 233 255
217 233 255
217 233 255
217 233 255
217 233 255
217 233 255
217 233 255
217 233 255
217 233 255
217 233 255
217 233 255
217 233 255
217 233 255
217 233 255
217 233 255
217 233 255
217 233 255
217 233 255
217 233 255
217 233 255
217 233 255
217 233 255
217 233 255
217 233 255
217 233 255
217 233 255
217 233 255
217 233 255
217 233 255
217 233 255
217 233 255
217 233 255
217 233 255
217 233 255
217 233 255
217 233 255
217 233 255
217 233 255
217 233 255
217 233 255
217 233 255
217 233 255
217 233 255
217 233 255
217 233 255
217 233 255
217 233 255
217 233 255
217 233 255
218 233 255
218 233 255
218 233 255
218 233 255
218 233 255
218 234 255
217 233 255
218 233 255
218 233 255
217 233 255
217 233 255
217 233 255
217 233 255
217 233 255
217 233 255
217 233 255
217 233 255
217 233 255
217 233 255
217 233 255
217 233 255
217 233 255
217 233 255
217 233 255
217 233 255
217 233 255
217 233 255
217 233 255
217 233 255
217 233 255
217 233 255
217 233 255
217 233 255
217 233 255
217 233 255
217 233 255
217 233 255
217 233 255
217 233 255
217 233 255
217 233 255
217 233 255
217 233 255
217 233 255
217 233 255
217 233 255
217 233 255
217 233 255
217 233 255
217 233 255
217 233 255
217 233 255
217 233 255
217 233 255
217 233 255
217 233 255
217 233 255
217 233 255
217 233 255
217 233 255
217 233 255
217 233 255
217 233 255
217 233 255
217 233 255
217 233 255
217 233 255
217 233 255
217 233 255
217 233 255
217 233 255
217 233 255
217 233 255
217 233 255
216 233 255
217 233 255
217 233 255
217 233 255
216 233 255
216 233 255
216 233 255
217 233 255
216 233 255
216 233 255
216 233 255
217 233 255
216 233 255
217 233 255
216 233 255
216 233 255
216 233 255
216 233 255
216 233 255
216 233 255
216 233 255
216 233 255
216 233 255
216 233 255
216 233 255
216 233 255
216 233 255
216 233 255
216 233 255
216 233 255
216 233 255
216 233 255
216 233 255
216 233 255
216 233 255
216 233 255
216 233 255
216 233 255
216 233 255
216 233 255
216 233 255
216 233 255
216 233 255
216 233 255
216 233 255
216 233 255
216 233 255
216 233 255
216 233 255
216 233 255
216 233 255
216 232 255
216 233 255
216 233 255
216 232 255
216 232 255
216 233 255
216 232 255
216 233 255
216 232 255
216 232 255
216 232 255
216 232 255
216 232 255
216 232 255
216 232 255
216 232 255
216 232 255
216 232 255
216 232 255
216 232 255
216 232 255
216 232 255
216 232 255
216 232 255
216 232 255
216 232 255
216 232 255
216 232 255
215 232 255
216 232 255
216 232 255
216 232 255
216 232 255
216 232 255
216 232 255
216 232 255
215 232 255
215 232 255
215 232 255
216 232 255
216 232 255
215 232 255
215 232 255
215 232 255
215 232 255
215 232 255
215 232 255
215 232 255
215 232 255
215 232 255
215 232 255
215 232 255
215 232 255
215 232 255
215 232 255
215 232 255
215 232 255
215 232 255
215 232 255
215 232 255
215 232 255
215 232 255
215 232 255
215 232 255
215 232 255
215 232 255
215 232 255
215 232 255
215 232 255
215 232 255
215 232 255
215 232 255
215 232 255
215 232 255
215 232 255
215 232 255
215 232 255
215 232 255
215 232 255
215 232 255
215 232 255
215 232 255
215 232 255
215 232 255
215 232 255
215 232 255
215 232 255
215 232 255
216 232 255
215 232 255
215 232 255
215 232 255
215 232 255
215 232 255
215 232 255
215 232 255
215 232 255
215 232 255
215 232 255
215 232 255
215 232 255
215 232 255
215 232 255
215 232 255
215 232 255
215 232 255
215 232 255
215 232 255
215 232 255
215 232 255
216 232 255
216 232 255
216 232 255
215 232 255
216 232 255
216 232 255
216 232 255
215 232 255
216 232 255
216 232 255
216 232 255
216 232 255
216 232 255
215 232 255
216 232 255
216 232 255
216 232 255
216 232 255
215 232 255
216 232 255
216 232 255
216 232 255
216 232 255
216 232 255
216 232 255
216 232 255
216 232 255
216 232 255
216 232 255
216 232 255
216 232 255
216 232 255
216 232 255
216 233 255
216 232 255
216 233 255
216 233 255
216 232 255
216 233 255
216 233 255
216 233 255
216 233 255
216 233 255
216 233 255
216 233 255
216 233 255
216 233 255
216 233 255
216 233 255
216 233 255
216 233 255
216 233 255
216 233 255
216 233 255
216 233 255
216 233 255
216 233 255
216 233 255
216 233 255
216 233 255
216 233 255
216 233 255
216 233 255
216 233 255
216 233 255
216 233 255
216 233 255
216 233 255
216 233 255
216 233 255
216 233 255
216 233 255
216 233 255
216 233 255
216 233 255
216 233 255
216 233 255
216 233 255
216 233 255
217 233 255
217 233 255
217 233 255
216 233 255
217 233 255
216 233 255
216 233 255
216 233 255
217 233 255
217 233 255
217 233 255
217 233 255
217 233 255
217 233 255
217 233 255
217 233 255
217 233 255
217 233 255
217 233 255
217 233 255
217 233 255
217 233 255
217 233 255
217 233 255
217 233 255
217 233 255
217 233 255
217 233 255
217 233 255
217 233 255
217 233 255
217 233 255
217 233 255
217 233 255
217 233 255
217 233 255
217 233 255
217 233 255
217 233 255
217 233 255
217 233 255
217 233 255
217 233 255
217 233 255
217 233 255
217 233 255
217 233 255
217 233 255
217 233 255
217 233 255
217 233 255
217 233 255
217 233 255
217 233 255
217 233 255
217 233 255
217 233 255
217 233 255
217 233 255
217 233 255
217 233 255
217 233 255
217 233 255
217 233 255
217 233 255
217 233 255
217 233 255
217 233 255
217 233 255
217 233 255
217 233 255
217 233 255
217 233 255
217 233 255
217 233 255
217 233 255
217 233 255
217 233 255
218 233 255
218 233 255
217 233 255
218 233 255
217 233 255
218 234 255
217 233 255
218 233 255
218 234 255
218 234 255
218 234 255
218 233 255
218 234 255
218 233 255
218 234 255
218 233 255
217 233 255
218 234 255
218 233 255
218 233 255
218 234 255
218 233 255
217 233 255
218 233 255
217 233 255
217 233 255
217 233 255
217 233 255
217 233 255
217 233 255
217 233 255
217 233 255
217 233 255
217 233 255
217 233 255
217 233 255
217 233 255
217 233 255
217 233 255
217 233 255
217 233 255
217 233 255
217 233 255
217 233 255
217 233 255
217 233 255
217 233 255
217 233 255
217 233 255
217 233 255
217 233 255
217 233 255
217 233 255
217 233 255
217 233 255
217 233 255
217 233 255
217 233 255
217 233 255
217 233 255
217 233 255
217 233 255
217 233 255
217 233 255
217 233 255
217 233 255
217 233 255
217 233 255
217 233 255
217 233 255
217 233 255
217 233 255
217 233 255
217 233 255
217 233 255
217 233 255
217 233 255
217 233 255
217 233 255
217 233 255
217 233 255
217 233 255
217 233 255
217 233 255
217 233 255
217 233 255
217 233 255
217 233 255
217 233 255
217 233 255
217 233 255
217 233 255
217 233 255
217 233 255
217 233 255
217 233 255
217 233 255
217 233 255
217 233 255
217 233 255
216 233 255
216 233 255
216 233 255
216 233 255
216 233 255
217 233 255
216 233 255
216 233 255
216 233 255
216 233 255
216 233 255
216 233 255
216 233 255
216 233 255
216 233 255
216 233 255
216 233 255
216 233 255
216 233 255
216 233 255
216 233 255
216 233 255
216 233 255
216 233 255
216 233 255
216 233 255
216 233 255
216 233 255
216 233 255
216 233 255
216 233 255
216 233 255
216 233 255
216 233 255
216 233 255
216 233 255
216 233 255
216 233 255
216 233 255
216 233 255
216 233 255
216 233 255
216 233 255
216 233 255
216 232 255
216 232 255
216 233 255
216 233 255
216 232 255
216 233 255
216 233 255
216 233 255
216 233 255
216 233 255
216 232 255
216 232 255
216 232 255
216 232 255
216 232 255
216 232 255
216 232 255
216 232 255
216 232 255
216 232 255
216 232 255
216 232 255
216 232 255
216 232 255
216 232 255
216 232 255
216 232 255
216 232 255
216 232 255
216 232 255
216 232 255
216 232 255
216 232 255
216 232 255
216 232 255
216 232 255
216 232 255
215 232 255
216 232 255
215 232 255
216 232 255
216 232 255
215 232 255
216 232 255
216 232 255
216 232 255
216 232 255
216 232 255
215 232 255
216 232 255
216 232 255
216 232 255
216 232 255
215 232 255
215 232 255
216 232 255
216 232 255
216 232 255
215 232 255
215 232 255
216 232 255
215 232 255
215 232 255
215 232 255
215 232 255
216 232 255
215 232 255
215 232 255
215 232 255
215 232 255
215 232 255
215 232 255
216 232 255
215 232 255
216 232 255
216 232 255
216 232 255
215 232 255
215 232 255
215 232 255
215 232 255
216 232 255
216 232 255
216 232 255
216 232 255
216 232 255
216 232 255
216 232 255
216 232 255
215 232 255
216 232 255
216 232 255
215 232 255
215 232 255
216 232 255
216 232 255
216 232 255
216 232 255
216 232 255
216 232 255
216 232 255
216 232 255
216 232 255
216 232 255
216 232 255
216 232 255
216 232 255
216 232 255
216 232 255
216 232 255
216 232 255
216 233 255
216 232 255
216 232 255
216 233 255
216 232 255
216 233 255
216 233 255
216 233 255
216 233 255
216 233 255
216 233 255
216 233 255
216 233 255
216 233 255
216 233 255
216 233 255
216 233 255
216 232 255
216 232 255
216 233 255
216 233 255
216 233 255
216 233 255
216 233 255
216 233 255
216 233 255
216 233 255
216 233 255
216 233 255
216 233 255
216 233 255
216 233 255
216 233 255
216 233 255
216 233 255
216 233 255
216 233 255
216 233 255
216 233 255
216 233 255
216 233 255
216 233 255
216 233 255
216 233 255
216 233 255
216 233 255
216 233 255
216 233 255
216 233 255
216 233 255
216 233 255
216 233 255
216 233 255
216 233 255
216 233 255
216 233 255
217 233 255
217 233 255
216 233 255
216 233 255
216 233 255
216 233 255
216 233 255
216 233 255
217 233 255
217 233 255
217 233 255
217 233 255
217 233 255
217 233 255
217 233 255
217 233 255
217 233 255
217 233 255
217 233 255
217 233 255
217 233 255
217 233 255
217 233 255
217 233 255
217 233 255
217 233 255
217 233 255
217 233 255
217 233 255
217 233 255
217 233 255
217 233 255
217 233 255
217 233 255
217 233 255
217 233 255
217 233 255
217 233 255
217 233 255
217 233 255
217 233 255
217 233 255
217 233 255
217 233 255
217 233 255
217 233 255
217 233 255
217 233 255
217 233 255
217 233 255
217 233 255
217 233 255
217 233 255
217 233 255
217 233 255
217 233 255
217 233 255
217 233 255
217 233 255
217 233 255
217 233 255
217 233 255
217 233 255
217 233 255
217 233 255
217 233 255
217 233 255
217 233 255
217 233 255
217 233 255
217 233 255
218 233 255
217 233 255
217 233 255
217 233 255
217 233 255
217 233 255
217 233 255
217 233 255
217 233 255
217 233 255
218 233 255
218 233 255
218 233 255
218 233 255
218 233 255
218 234 255
218 234 255
218 234 255
218 233 255
218 234 255
218 233 255
218 234 255
218 234 255
218 234 255
218 234 255
218 234 255
218 234 255
218 234 255
218 234 255
218 234 255
218 234 255
218 234 255
218 234 255
218 234 255
218 234 255
218 234 255
218 233 255
218 234 255
218 234 255
218 234 255
218 234 255
218 234 255
218 234 255
218 234 255
218 233 255
218 234 255
218 234 255
218 233 255
218 233 255
218 233 255
218 233 255
218 233 255
217 233 255
218 234 255
217 233 255
217 233 255
217 233 255
217 233 255
217 233 255
217 233 255
217 233 255
217 233 255
217 233 255
217 233 255
217 233 255
217 233 255
217 233 255
217 233 255
217 233 255
217 233 255
217 233 255
217 233 255
217 233 255
217 233 255
217 233 255
217 233 255
217 233 255
217 233 255
217 233 255
217 233 255
217 233 255
217 233 255
217 233 255
217 233 255
217 233 255
217 233 255
217 233 255
217 233 255
217 233 255
217 233 255
217 233 255
217 233 255
217 233 255
217 233 255
217 233 255
217 233 255
217 233 255
217 233 255
217 233 255
217 233 255
217 233 255
217 233 255
217 233 255
217 233 255
217 233 255
217 233 255
217 233 255
217 233 255
217 233 255
217 233 255
217 233 255
217 233 255
217 233 255
217 233 255
217 233 255
217 233 255
217 233 255
217 233 255
217 233 255
217 233 255
217 233 255
217 233 255
217 233 255
216 233 255
217 233 255
217 233 255
216 233 255
217 233 255
217 233 255
217 233 255
216 233 255
216 233 255
217 233 255
216 233 255
216 233 255
216 233 255
216 233 255
216 233 255
216 233 255
216 233 255
216 233 255
216 233 255
216 233 255
216 233 255
216 233 255
216 233 255
216 233 255
216 233 255
216 233 255
216 233 255
216 233 255
216 233 255
216 233 255
216 233 255
216 233 255
216 233 255
216 233 255
216 233 255
216 233 255
216 233 255
216 233 255
216 233 255
216 233 255
216 233 255
216 233 255
216 233 255
216 233 255
216 233 255
216 233 255
216 233 255
216 233 255
216 233 255
216 233 255
216 233 255
216 233 255
216 232 255
216 233 255
216 233 255
216 233 255
216 233 255
216 232 255
216 233 255
216 232 255
216 233 255
216 233 255
216 232 255
216 232 255
216 233 255
216 233 255
216 232 255
216 232 255
216 232 255
216 232 255
216 233 255
216 232 255
216 232 255
216 233 255
216 232 255
216 232 255
216 232 255
216 232 255
216 232 255
216 232 255
216 233 255
216 232 255
216 232 255
216 232 255
216 232 255
216 232 255
216 232 255
216 232 255
216 232 255
216 232 255
216 232 255
216 232 255
216 232 255
216 232 255
216 232 255
216 232 255
216 232 255
216 232 255
216 232 255
216 232 255
216 232 255
216 232 255
215 232 255
216 232 255
216 232 255
216 232 255
216 232 255
216 232 255
216 232 255
216 232 255
216 232 255
216 232 255
216 232 255
216 232 255
216 232 255
216 232 255
216 232 255
216 232 255
216 232 255
216 232 255
216 232 255
216 232 255
216 232 255
216 233 255
216 232 255
216 232 255
216 232 255
216 232 255
216 232 255
216 232 255
216 232 255
216 232 255
216 232 255
216 232 255
216 232 255
216 232 255
216 232 255
216 232 255
216 233 255
216 232 255
216 232 255
216 233 255
216 233 255
216 232 255
216 233 255
216 233 255
216 232 255
216 233 255
216 233 255
216 233 255
216 233 255
216 232 255
216 233 255
216 233 255
216 233 255
216 233 255
216 233 255
216 233 255
216 233 255
216 233 255
216 233 255
216 233 255
216 233 255
216 233 255
216 233 255
216 233 255
216 233 255
216 233 255
216 233 255
216 233 255
216 233 255
216 233 255
216 233 255
216 233 255
216 233 255
216 233 255
216 233 255
216 233 255
216 233 255
216 233 255
216 233 255
216 233 255
216 233 255
216 233 255
216 233 255
216 233 255
216 233 255
216 233 255
216 233 255
216 233 255
216 233 255
216 233 255
216 233 255
216 233 255
216 233 255
216 233 255
216 233 255
216 233 255
216 233 255
217 233 255
216 233 255
217 233 255
217 233 255
217 233 255
217 233 255
217 233 255
217 233 255
217 233 255
217 233 255
217 233 255
217 233 255
217 233 255
217 233 255
217 233 255
217 233 255
217 233 255
217 233 255
217 233 255
217 233 255
217 233 255
217 233 255
217 233 255
217 233 255
217 233 255
217 233 255
217 233 255
217 233 255
217 233 255
217 233 255
217 233 255
217 233 255
217 233 255
217 233 255
217 233 255
217 233 255
217 233 255
217 233 255
217 233 255
217 233 255
217 233 255
217 233 255
217 233 255
217 233 255
217 233 255
217 233 255
217 233 255
217 233 255
217 233 255
217 233 255
217 233 255
217 233 255
217 233 255
217 233 255
217 233 255
217 233 255
217 233 255
217 233 255
217 233 255
217 233 255
217 233 255
217 233 255
217 233 255
217 233 255
217 233 255
217 233 255
217 233 255
217 233 255
217 233 255
217 233 255
217 233 255
217 233 255
218 233 255
218 233 255
217 233 255
218 233 255
217 233 255
217 233 255
217 233 255
218 233 255
217 233 255
218 234 255
218 233 255
218 233 255
218 233 255
218 233 255
218 233 255
218 234 255
218 234 255
218 234 255
218 234 255
218 234 255
218 234 255
218 234 255
218 234 255
218 234 255
218 234 255
218 234 255
218 234 255
218 234 255
218 234 255
218 234 255
218 234 255
218 234 255
218 234 255
218 234 255
218 234 255
218 234 255
218 234 255
218 234 255
218 234 255
218 234 255
218 234 255
218 234 255
218 234 255
218 234 255
218 234 255
218 234 255
218 234 255
218 234 255
218 234 255
218 234 255
218 234 255
218 234 255
218 234 255
218 233 255
218 234 255
218 234 255
218 234 255
218 234 255
218 233 255
218 233 255
218 233 255
218 234 255
218 233 255
218 234 255
217 233 255
218 233 255
218 233 255
218 233 255
218 233 255
217 233 255
217 233 255
217 233 255
217 233 255
217 233 255
217 233 255
217 233 255
217 233 255
217 233 255
217 233 255
217 233 255
217 233 255
217 233 255
217 233 255
217 233 255
217 233 255
217 233 255
217 233 255
217 233 255
217 233 255
217 233 255
217 233 255
217 233 255
217 233 255
217 233 255
217 233 255
217 233 255
217 233 255
217 233 255
217 233 255
217 233 255
217 233 255
217 233 255
217 233 255
217 233 255
217 233 255
217 233 255
217 233 255
217 233 255
217 233 255
217 233 255
217 233 255
217 233 255
217 233 255
217 233 255
217 233 255
217 233 255
217 233 255
217 233 255
217 233 255
217 233 255
217 233 255
217 233 255
217 233 255
217 233 255
217 233 255
217 233 255
217 233 255
217 233 255
217 233 255
217 233 255
217 233 255
217 233 255
217 233 255
217 233 255
217 233 255
217 233 255
217 233 255
217 233 255
217 233 255
217 233 255
216 233 255
217 233 255
217 233 255
217 233 255
216 233 255
217 233 255
216 233 255
216 233 255
216 233 255
217 233 255
216 233 255
216 233 255
216 233 255
216 233 255
216 233 255
216 233 255
216 233 255
216 233 255
216 233 255
216 233 255
216 233 255
216 233 255
216 233 255
216 233 255
216 233 255
216 233 255
216 233 255
216 233 255
216 233 255
216 233 255
216 233 255
216 233 255
216 233 255
216 233 255
216 233 255
216 233 255
216 233 255
216 233 255
216 233 255
216 233 255
216 233 255
216 233 255
216 233 255
216 233 255
216 233 255
216 233 255
216 233 255
216 233 255
216 233 255
216 233 255
216 233 255
216 233 255
216 233 255
216 233 255
216 233 255
216 233 255
216 233 255
216 232 255
216 233 255
216 233 255
216 233 255
216 233 255
216 233 255
216 233 255
216 232 255
216 233 255
216 232 255
216 233 255
216 233 255
216 233 255
216 233 255
216 233 255
216 232 255
216 232 255
216 232 255
216 232 255
216 232 255
216 233 255
216 233 255
216 233 255
216 232 255
216 232 255
216 232 255
216 233 255
216 232 255
216 233 255
216 232 255
216 233 255
216 233 255
216 233 255
216 233 255
216 233 255
216 233 255
216 233 255
216 232 255
216 233 255
216 232 255
216 232 255
216 233 255
216 233 255
216 232 255
216 233 255
216 232 255
216 232 255
216 233 255
216 233 255
216 232 255
216 233 255
216 233 255
216 232 255
216 233 255
216 233 255
216 232 255
216 233 255
216 233 255
216 233 255
216 233 255
216 233 255
216 233 255
216 233 255
216 233 255
216 233 255
216 233 255
216 232 255
216 233 255
216 233 255
216 233 255
216 233 255
216 233 255
216 233 255
216 233 255
216 233 255
216 233 255
216 233 255
216 233 255
216 233 255
216 233 255
216 233 255
216 233 255
216 233 255
216 233 255
216 233 255
216 233 255
216 233 255
216 233 255
216 233 255
216 233 255
216 233 255
216 233 255
216 233 255
216 233 255
216 233 255
216 233 255
216 233 255
216 233 255
216 233 255
216 233 255
216 233 255
216 233 255
216 233 255
216 233 255
216 233 255
216 233 255
216 233 255
216 233 255
216 233 255
216 233 255
216 233 255
216 233 255
217 233 255
216 233 255
217 233 255
216 233 255
217 233 255
216 233 255
217 233 255
217 233 255
217 233 255
217 233 255
217 233 255
217 233 255
217 233 255
217 233 255
217 233 255
217 233 255
217 233 255
217 233 255
217 233 255
216 233 255
217 233 255
217 233 255
217 233 255
217 233 255
217 233 255
217 233 255
217 233 255
217 233 255
217 233 255
217 233 255
217 233 255
217 233 255
217 233 255
217 233 255
217 233 255
217 233 255
217 233 255
217 233 255
217 233 255
217 233 255
217 233 255
217 233 255
217 233 255
217 233 255
217 233 255
217 233 255
217 233 255
217 233 255
217 233 255
217 233 255
217 233 255
217 233 255
217 233 255
217 233 255
217 233 255
217 233 255
217 233 255
217 233 255
217 233 255
217 233 255
217 233 255
217 233 255
217 233 255
217 233 255
217 233 255
217 233 255
217 233 255
217 233 255
217 233 255
217 233 255
217 233 255
217 233 255
217 233 255
217 233 255
217 233 255
217 233 255
217 233 255
217 233 255
217 233 255
217 233 255
217 233 255
217 233 255
217 233 255
218 233 255
217 233 255
217 233 255
217 233 255
218 233 255
218 234 255
217 233 255
217 233 255
218 233 255
218 233 255
218 234 255
218 234 255
218 234 255
218 234 255
218 234 255
218 234 255
218 234 255
218 234 255
218 234 255
218 234 255
218 234 255
218 234 255
218 234 255
218 234 255
218 234 255
218 234 255
218 234 255
218 234 255
218 234 255
218 234 255
218 234 255
218 234 255
218 234 255
218 234 255
218 234 255
218 234 255
218 234 255
218 234 255
218 234 255
218 234 255
218 234 255
218 234 255
218 234 255
218 234 255
218 234 255
218 234 255
218 234 255
218 234 255
218 234 255
218 234 255
218 234 255
218 234 255
218 234 255
218 234 255
218 234 255
218 234 255
218 234 255
218 234 255
218 234 255
218 234 255
218 234 255
218 234 255
218 234 255
218 234 255
218 234 255
218 234 255
218 234 255
218 234 255
218 234 255
218 234 255
218 234 255
218 234 255
218 234 255
218 234 255
218 234 255
218 234 255
218 234 255
218 233 255
218 233 255
218 233 255
218 234 255
218 233 255
218 233 255
218 233 255
218 233 255
218 234 255
217 233 255
218 233 255
218 233 255
217 233 255
217 233 255
218 233 255
217 233 255
217 233 255
217 233 255
217 233 255
217 233 255
217 233 255
217 233 255
217 233 255
217 233 255
217 233 255
217 233 255
217 233 255
217 233 255
217 233 255
217 233 255
217 233 255
217 233 255
217 233 255
217 233 255
217 233 255
217 233 255
217 233 255
217 233 255
217 233 255
217 233 255
217 233 255
217 233 255
217 233 255
217 233 255
217 233 255
217 233 255
217 233 255
217 233 255
217 233 255
217 233 255
217 233 255
217 233 255
217 233 255
217 233 255
217 233 255
217 233 255
217 233 255
217 233 255
217 233 255
217 233 255
217 233 255
217 233 255
217 233 255
217 233 255
217 233 255
217 233 255
217 233 255
217 233 255
217 233 255
217 233 255
217 233 255
217 233 255
217 233 255
217 233 255
217 233 255
217 233 255
217 233 255
217 233 255
216 233 255
216 233 255
217 233 255
217 233 255
217 233 255
217 233 255
216 233 255
217 233 255
217 233 255
216 233 255
217 233 255
217 233 255
216 233 255
216 233 255
216 233 255
217 233 255
216 233 255
217 233 255
216 233 255
216 233 255
217 233 255
216 233 255
216 233 255
217 233 255
216 233 255
216 233 255
216 233 255
216 233 255
216 233 255
216 233 255
216 233 255
216 233 255
216 233 255
216 233 255
216 233 255
216 233 255
216 233 255
216 233 255
216 233 255
216 233 255
216 233 255
216 233 255
216 233 255
216 233 255
216 233 255
216 233 255
216 233 255
216 233 255
216 233 255
216 233 255
216 233 255
216 233 255
216 233 255
216 233 255
216 233 255
216 233 255
216 233 255
216 233 255
216 233 255
216 233 255
216 233 255
216 233 255
216 233 255
216 233 255
216 233 255
216 233 255
216 233 255
216 233 255
216 233 255
216 233 255
216 233 255
216 233 255
216 233 255
216 233 255
216 233 255
216 233 255
216 233 255
216 233 255
216 233 255
216 233 255
216 233 255
216 233 255
216 233 255
216 233 255
216 233 255
216 233 255
216 233 255
216 233 255
216 233 255
216 233 255
216 233 255
216 233 255
216 233 255
216 233 255
216 233 255
216 233 255
216 233 255
216 233 255
216 233 255
216 233 255
216 233 255
216 233 255
216 233 255
216 233 255
216 233 255
216 233 255
216 233 255
216 233 255
216 233 255
216 233 255
216 233 255
216 233 255
216 233 255
216 233 255
216 233 255
216 233 255
216 233 255
216 233 255
216 233 255
216 233 255
216 233 255
216 233 255
216 233 255
216 233 255
216 233 255
216 233 255
216 233 255
216 233 255
216 233 255
216 233 255
216 233 255
216 233 255
216 233 255
216 233 255
216 233 255
216 233 255
216 233 255
216 233 255
216 233 255
216 233 255
216 233 255
216 233 255
216 233 255
216 233 255
216 233 255
216 233 255
216 233 255
216 233 255
216 233 255
216 233 255
216 233 255
217 233 255
217 233 255
216 233 255
216 233 255
216 233 255
217 233 255
216 233 255
216 233 255
217 233 255
217 233 255
216 233 255
217 233 255
217 233 255
217 233 255
217 233 255
217 233 255
217 233 255
217 233 255
217 233 255
217 233 255
217 233 255
217 233 255
217 233 255
217 233 255
217 233 255
217 233 255
217 233 255
217 233 255
217 233 255
217 233 255
217 233 255
217 233 255
217 233 255
217 233 255
217 233 255
217 233 255
217 233 255
217 233 255
217 233 255
217 233 255
217 233 255
217 233 255
217 233 255
217 233 255
217 233 255
217 233 255
217 233 255
217 233 255
217 233 255
217 233 255
217 233 255
217 233 255
217 233 255
217 233 255
217 233 255
217 233 255
217 233 255
217 233 255
217 233 255
217 233 255
217 233 255
217 233 255
217 233 255
217 233 255
217 233 255
217 233 255
217 233 255
217 233 255
217 233 255
217 233 255
217 233 255
217 233 255
217 233 255
217 233 255
217 233 255
217 233 255
217 233 255
217 233 255
217 233 255
217 233 255
217 233 255
217 233 255
218 233 255
217 233 255
218 233 255
217 233 255
218 233 255
217 233 255
218 233 255
218 234 255
217 233 255
218 233 255
218 234 255
218 234 255
218 233 255
218 233 255
218 234 255
218 234 255
218 233 255
218 234 255
218 234 255
218 234 255
218 234 255
218 234 255
218 234 255
218 234 255
218 234 255
218 234 255
218 234 255
218 234 255
218 234 255
218 234 255
218 234 255
218 234 255
218 234 255
218 234 255
218 234 255
218 234 255
218 234 255
218 234 255
218 234 255
218 234 255
218 234 255
218 234 255
218 234 255
218 234 255
218 234 255
218 234 255
218 234 255
218 234 255
218 234 255
218 234 255
218 234 255
218 234 255
218 234 255
218 234 255
218 234 255
218 234 255
218 234 255
218 234 255
218 234 255
218 234 255
218 234 255
218 234 255
218 234 255
218 234 255
218 234 255
218 234 255
218 234 255
218 234 255
218 234 255
218 234 255
218 234 255
218 234 255
218 234 255
218 234 255
218 234 255
218 234 255
218 234 255
218 234 255
218 234 255
218 234 255
218 234 255
218 234 255
218 234 255
218 234 255
218 234 255
218 234 255
218 234 255
218 234 255
218 234 255
218 234 255
218 234 255
218 234 255
218 234 255
218 234 255
218 234 255
218 234 255
218 234 255
218 233 255
218 233 255
218 233 255
218 233 255
218 234 255
218 234 255
218 233 255
218 233 255
218 233 255
218 233 255
217 233 255
217 233 255
218 233 255
218 233 255
218 233 255
217 233 255
218 233 255
217 233 255
217 233 255
217 233 255
217 233 255
217 233 255
217 233 255
217 233 255
217 233 255
217 233 255
217 233 255
217 233 255
217 233 255
217 233 255
217 233 255
217 233 255
217 233 255
217 233 255
217 233 255
217 233 255
217 233 255
217 233 255
217 233 255
217 233 255
217 233 255
217 233 255
217 233 255
217 233 255
217 233 255
217 233 255
217 233 255
217 233 255
217 233 255
217 233 255
217 233 255
217 233 255
217 233 255
217 233 255
217 233 255
217 233 255
217 233 255
217 233 255
217 233 255
217 233 255
217 233 255
217 233 255
217 233 255
217 233 255
217 233 255
217 233 255
217 233 255
217 233 255
217 233 255
217 233 255
217 233 255
217 233 255
217 233 255
217 233 255
217 233 255
217 233 255
217 233 255
217 233 255
217 233 255
217 233 255
217 233 255
217 233 255
217 233 255
217 233 255
216 233 255
217 233 255
217 233 255
217 233 255
217 233 255
217 233 255
217 233 255
216 233 255
217 233 255
217 233 255
217 233 255
217 233 255
217 233 255
217 233 255
217 233 255
217 233 255
216 233 255
217 233 255
216 233 255
216 233 255
216 233 255
217 233 255
216 233 255
217 233 255
216 233 255
216 233 255
216 233 255
216 233 255
216 233 255
216 233 255
216 233 255
216 233 255
216 233 255
216 233 255
216 233 255
216 233 255
216 233 255
216 233 255
216 233 255
216 233 255
216 233 255
216 233 255
216 233 255
216 233 255
216 233 255
216 233 255
216 233 255
216 233 255
216 233 255
216 233 255
216 233 255
216 233 255
216 233 255
216 233 255
216 233 255
216 233 255
216 233 255
216 233 255
216 233 255
216 233 255
216 233 255
216 233 255
216 233 255
216 233 255
216 233 255
216 233 255
216 233 255
216 233 255
216 233 255
216 233 255
216 233 255
216 233 255
216 233 255
216 233 255
216 233 255
216 233 255
216 233 255
216 233 255
216 233 255
216 233 255
216 233 255
216 233 255
216 233 255
216 233 255
216 233 255
216 233 255
216 233 255
216 233 255
216 233 255
216 233 255
216 233 255
216 233 255
216 233 255
216 233 255
216 233 255
216 233 255
216 233 255
216 233 255
216 233 255
216 233 255
216 233 255
216 233 255
216 233 255
216 233 255
216 233 255
216 233 255
216 233 255
216 233 255
216 233 255
216 233 255
216 233 255
216 233 255
216 233 255
216 233 255
216 233 255
216 233 255
216 233 255
216 233 255
216 233 255
216 233 255
216 233 255
216 233 255
216 233 255
216 233 255
216 233 255
216 233 255
216 233 255
216 233 255
216 233 255
216 233 255
217 233 255
217 233 255
217 233 255
217 233 255
216 233 255
217 233 255
217 233 255
217 233 255
217 233 255
217 233 255
217 233 255
217 233 255
217 233 255
217 233 255
217 233 255
217 233 255
217 233 255
217 233 255
217 233 255
217 233 255
217 233 255
217 233 255
217 233 255
217 233 255
217 233 255
217 233 255
217 233 255
217 233 255
217 233 255
217 233 255
217 233 255
217 233 255
217 233 255
217 233 255
217 233 255
217 233 255
217 233 255
217 233 255
217 233 255
217 233 255
217 233 255
217 233 255
217 233 255
217 233 255
217 233 255
217 233 255
217 233 255
217 233 255
217 233 255
217 233 255
217 233 255
217 233 255
217 233 255
217 233 255
217 233 255
217 233 255
217 233 255
217 233 255
217 233 255
217 233 255
217 233 255
217 233 255
217 233 255
217 233 255
217 233 255
217 233 255
217 233 255
217 233 255
217 233 255
217 233 255
217 233 255
217 233 255
217 233 255
217 233 255
217 233 255
217 233 255
217 233 255
217 233 255
217 233 255
217 233 255
217 233 255
217 233 255
217 233 255
218 233 255
217 233 255
218 233 255
218 233 255
218 233 255
218 234 255
218 233 255
218 233 255
218 234 255
218 234 255
218 233 255
218 234 255
218 234 255
218 233 255
218 234 255
218 234 255
218 234 255
218 234 255
218 234 255
218 234 255
218 234 255
218 234 255
218 234 255
218 234 255
218 234 255
218 234 255
218 234 255
218 234 255
218 234 255
218 234 255
218 234 255
218 234 255
218 234 255
218 234 255
218 234 255
218 234 255
218 234 255
218 234 255
218 234 255
218 234 255
218 234 255
218 234 255
218 234 255
218 234 255
218 234 255
218 234 255
218 234 255
218 234 255
218 234 255
218 234 255
218 234 255
218 234 255
218 234 255
218 234 255
218 234 255
218 234 255
218 234 255
218 234 255
218 234 255
218 234 255
218 234 255
218 234 255
218 234 255
218 234 255
218 234 255
218 234 255
218 234 255
218 234 255
218 234 255
218 234 255
218 234 255
218 234 255
218 234 255
218 234 255
218 234 255
218 234 255
218 234 255
218 234 255
218 234 255
218 234 255
218 234 255
218 234 255
218 234 255
218 234 255
218 234 255
218 234 255
218 234 255
218 234 255
218 234 255
218 234 255
218 234 255
218 234 255
218 234 255
218 234 255
218 234 255
218 234 255
218 234 255
218 234 255
218 234 255
218 234 255
218 234 255
218 234 255
218 234 255
218 234 255
218 234 255
218 234 255
218 234 255
218 234 255
218 234 255
218 234 255
218 234 255
218 234 255
218 234 255
218 234 255
218 233 255
218 234 255
218 233 255
218 234 255
218 234 255
218 233 255
218 233 255
218 233 255
218 233 255
218 233 255
218 234 255
217 233 255
218 233 255
218 234 255
218 233 255
218 233 255
217 233 255
217 233 255
217 233 255
217 233 255
217 233 255
217 233 255
217 233 255
217 233 255
217 233 255
217 233 255
217 233 255
217 233 255
217 233 255
217 233 255
217 233 255
217 233 255
217 233 255
217 233 255
217 233 255
217 233 255
217 233 255
217 233 255
217 233 255
217 233 255
217 233 255
217 233 255
217 233 255
217 233 255
217 233 255
217 233 255
217 233 255
217 233 255
217 233 255
217 233 255
217 233 255
217 233 255
217 233 255
217 233 255
217 233 255
217 233 255
217 233 255
217 233 255
217 233 255
217 233 255
217 233 255
217 233 255
217 233 255
217 233 255
217 233 255
217 233 255
217 233 255
217 233 255
217 233 255
217 233 255
217 233 255
217 233 255
217 233 255
217 233 255
217 233 255
217 233 255
217 233 255
217 233 255
217 233 255
217 233 255
217 233 255
217 233 255
217 233 255
217 233 255
217 233 255
217 233 255
217 233 255
217 233 255
217 233 255
217 233 255
217 233 255
217 233 255
217 233 255
217 233 255
217 233 255
217 233 255
217 233 255
217 233 255
217 233 255
217 233 255
217 233 255
217 233 255
217 233 255
217 233 255
216 233 255
217 233 255
216 233 255
216 233 255
217 233 255
216 233 255
217 233 255
217 233 255
216 233 255
216 233 255
216 233 255
216 233 255
216 233 255
216 233 255
216 233 255
216 233 255
216 233 255
216 233 255
216 233 255
216 233 255
216 233 255
216 233 255
216 233 255
216 233 255
216 233 255
216 233 255
216 233 255
216 233 255
216 233 255
216 233 255
216 233 255
216 233 255
216 233 255
216 233 255
216 233 255
217 233 255
216 233 255
216 233 255
216 233 255
216 233 255
216 233 255
216 233 255
216 233 255
216 233 255
216 233 255
216 233 255
216 233 255
216 233 255
216 233 255
216 233 255
216 233 255
216 233 255
216 233 255
216 233 255
216 233 255
216 233 255
217 233 255
216 233 255
216 233 255
216 233 255
216 233 255
217 233 255
216 233 255
216 233 255
216 233 255
216 233 255
216 233 255
216 233 255
216 233 255
216 233 255
216 233 255
216 233 255
216 233 255
216 233 255
216 233 255
217 233 255
217 233 255
216 233 255
217 233 255
216 233 255
216 233 255
217 233 255
217 233 255
217 233 255
217 233 255
216 233 255
216 233 255
217 233 255
217 233 255
217 233 255
216 233 255
217 233 255
217 233 255
217 233 255
217 233 255
217 233 255
217 233 255
217 233 255
217 233 255
217 233 255
217 233 255
217 233 255
217 233 255
217 233 255
217 233 255
217 233 255
217 233 255
217 233 255
217 233 255
217 233 255
217 233 255
217 233 255
217 233 255
217 233 255
217 233 255
217 233 255
217 233 255
217 233 255
217 233 255
217 233 255
217 233 255
217 233 255
217 233 255
217 233 255
217 233 255
217 233 255
217 233 255
217 233 255
217 233 255
217 233 255
217 233 255
217 233 255
217 233 255
217 233 255
217 233 255
217 233 255
217 233 255
217 233 255
217 233 255
217 233 255
217 233 255
217 233 255
217 233 255
217 233 255
217 233 255
217 233 255
217 233 255
217 233 255
217 233 255
217 233 255
217 233 255
217 233 255
217 233 255
217 233 255
217 233 255
217 233 255
217 233 255
217 233 255
217 233 255
217 233 255
217 233 255
218 233 255
217 233 255
218 233 255
217 233 255
217 233 255
218 233 255
218 233 255
218 233 255
218 233 255
218 233 255
218 233 255
217 233 255
217 233 255
218 234 255
218 233 255
218 234 255
218 233 255
218 234 255
218 234 255
218 234 255
218 234 255
218 234 255
218 233 255
218 234 255
218 234 255
218 234 255
218 234 255
218 234 255
218 234 255
218 234 255
218 234 255
218 234 255
218 234 255
218 234 255
218 234 255
218 234 255
218 234 255
218 234 255
218 234 255
218 234 255
218 234 255
218 234 255
218 234 255
218 234 255
218 234 255
218 234 255
218 234 255
218 234 255
218 234 255
218 234 255
218 234 255
218 234 255
218 234 255
218 234 255
218 234 255
218 234 255
218 234 255
218 234 255
218 234 255
218 234 255
218 234 255
218 234 255
218 234 255
218 234 255
218 234 255
218 234 255
218 234 255
218 234 255
218 234 255
218 234 255
218 234 255
218 234 255
218 234 255
218 234 255
218 234 255
218 234 255
218 234 255
218 234 255
218 234 255
218 234 255
218 234 255
218 234 255
218 234 255
218 234 255
218 234 255
218 234 255
218 234 255
218 234 255
218 234 255
218 234 255
218 234 255
218 234 255
218 234 255
218 234 255
218 234 255
218 234 255
218 234 255
218 234 255
218 234 255
218 234 255
218 234 255
218 234 255
218 234 255
218 234 255
218 234 255
218 234 255
218 234 255
218 234 255
218 234 255
218 234 255
218 234 255
218 234 255
218 234 255
218 234 255
218 234 255
218 234 255
218 234 255
218 234 255
218 234 255
218 234 255
218 234 255
218 234 255
218 234 255
218 234 255
218 234 255
218 234 255
218 234 255
218 234 255
218 234 255
218 234 255
218 234 255
218 234 255
218 234 255
218 234 255
218 234 255
218 234 255
218 234 255
218 234 255
218 234 255
218 234 255
218 234 255
218 234 255
218 234 255
218 234 255
218 234 255
218 234 255
218 234 255
218 234 255
218 233 255
218 234 255
218 234 255
218 233 255
218 233 255
218 233 255
217 233 255
217 233 255
218 233 255
218 233 255
218 233 255
218 233 255
217 233 255
218 233 255
217 233 255
218 233 255
217 233 255
218 233 255
217 233 255
217 233 255
217 233 255
218 233 255
217 233 255
217 233 255
217 233 255
217 233 255
217 233 255
217 233 255
217 233 255
217 233 255
217 233 255
217 233 255
217 233 255
217 233 255
217 233 255
217 233 255
217 233 255
217 233 255
217 233 255
217 233 255
217 233 255
217 233 255
217 233 255
217 233 255
217 233 255
217 233 255
217 233 255
217 233 255
217 233 255
217 233 255
217 233 255
217 233 255
217 233 255
217 233 255
217 233 255
217 233 255
217 233 255
217 233 255
217 233 255
217 233 255
217 233 255
217 233 255
217 233 255
217 233 255
217 233 255
217 233 255
217 233 255
217 233 255
217 233 255
217 233 255
217 233 255
217 233 255
217 233 255
217 233 255
217 233 255
217 233 255
217 233 255
217 233 255
217 233 255
217 233 255
217 233 255
217 233 255
217 233 255
217 233 255
217 233 255
217 233 255
217 233 255
217 233 255
217 233 255
217 233 255
217 233 255
217 233 255
217 233 255
217 233 255
217 233 255
217 233 255
217 233 255
217 233 255
217 233 255
217 233 255
217 233 255
217 233 255
217 233 255
217 233 255
217 233 255
217 233 255
217 233 255
217 233 255
216 233 255
217 233 255
217 233 255
217 233 255
217 233 255
217 233 255
217 233 255
216 233 255
217 233 255
216 233 255
217 233 255
216 233 255
217 233 255
217 233 255
216 233 255
217 233 255
217 233 255
217 233 255
217 233 255
217 233 255
216 233 255
216 233 255
216 233 255
216 233 255
216 233 255
217 233 255
217 233 255
217 233 255
217 233 255
216 233 255
217 233 255
217 233 255
216 233 255
217 233 255
216 233 255
217 233 255
217 233 255
217 233 255
217 233 255
217 233 255
217 233 255
217 233 255
217 233 255
217 233 255
217 233 255
217 233 255
217 233 255
217 233 255
216 233 255
217 233 255
217 233 255
217 233 255
217 233 255
217 233 255
217 233 255
217 233 255
217 233 255
217 233 255
217 233 255
217 233 255
217 233 255
217 233 255
217 233 255
217 233 255
217 233 255
217 233 255
217 233 255
217 233 255
217 233 255
217 233 255
217 233 255
217 233 255
217 233 255
217 233 255
217 233 255
217 233 255
217 233 255
217 233 255
217 233 255
217 233 255
217 233 255
217 233 255
217 233 255
217 233 255
217 233 255
217 233 255
217 233 255
217 233 255
217 233 255
217 233 255
217 233 255
217 233 255
217 233 255
217 233 255
217 233 255
217 233 255
217 233 255
217 233 255
217 233 255
217 233 255
217 233 255
217 233 255
217 233 255
217 233 255
217 233 255
217 233 255
217 233 255
217 233 255
217 233 255
217 233 255
217 233 255
217 233 255
217 233 255
217 233 255
217 233 255
217 233 255
217 233 255
217 233 255
217 233 255
217 233 255
217 233 255
217 233 255
217 233 255
217 233 255
217 233 255
217 233 255
217 233 255
217 233 255
217 233 255
217 233 255
217 233 255
217 233 255
217 233 255
217 233 255
217 233 255
217 233 255
217 233 255
217 233 255
218 233 255
217 233 255
217 233 255
218 233 255
218 233 255
217 233 255
217 233 255
218 234 255
218 234 255
218 233 255
217 233 255
218 234 255
218 234 255
218 234 255
218 234 255
218 233 255
218 234 255
218 234 255
218 234 255
218 234 255
218 234 255
218 234 255
218 234 255
218 234 255
218 234 255
218 234 255
218 234 255
218 234 255
218 234 255
218 234 255
218 234 255
218 234 255
218 234 255
218 234 255
218 234 255
218 234 255
218 234 255
218 234 255
218 234 255
218 234 255
218 234 255
218 234 255
218 234 255
218 234 255
218 234 255
218 234 255
218 234 255
218 234 255
218 234 255
218 234 255
218 234 255
218 234 255
218 234 255
218 234 255
218 234 255
218 234 255
218 234 255
218 234 255
218 234 255
218 234 255
218 234 255
218 234 255
218 234 255
218 234 255
218 234 255
218 234 255
218 234 255
218 234 255
218 234 255
218 234 255
218 234 255
218 234 255
218 234 255
218 234 255
218 234 255
218 234 255
218 234 255
218 234 255
218 234 255
218 234 255
218 234 255
218 234 255
218 234 255
218 234 255
218 234 255
219 234 255
219 234 255
219 234 255
218 234 255
219 234 255
218 234 255
218 234 255
218 234 255
218 234 255
218 234 255
218 234 255
218 234 255
218 234 255
218 234 255
218 234 255
218 234 255
218 234 255
218 234 255
218 234 255
218 234 255
218 234 255
218 234 255
218 234 255
218 234 255
218 234 255
218 234 255
218 234 255
218 234 255
218 234 255
218 234 255
218 234 255
218 234 255
218 234 255
218 234 255
218 234 255
218 234 255
218 234 255
218 234 255
218 234 255
218 234 255
218 234 255
218 234 255
218 234 255
218 234 255
218 234 255
218 234 255
218 234 255
218 234 255
218 234 255
218 234 255
218 234 255
218 234 255
218 234 255
218 234 255
218 234 255
218 234 255
218 234 255
218 234 255
218 234 255
218 234 255
218 234 255
218 234 255
218 234 255
218 234 255
218 234 255
218 234 255
218 234 255
218 234 255
218 234 255
218 234 255
218 234 255
218 234 255
218 234 255
218 234 255
218 234 255
218 234 255
218 234 255
218 234 255
218 234 255
218 234 255
218 234 255
218 234 255
218 234 255
218 233 255
218 234 255
218 233 255
218 233 255
218 233 255
218 233 255
218 233 255
218 233 255
217 233 255
218 233 255
217 233 255
218 233 255
218 234 255
217 233 255
217 233 255
218 234 255
217 233 255
217 233 255
217 233 255
217 233 255
217 233 255
217 233 255
218 233 255
218 233 255
217 233 255
217 233 255
217 233 255
217 233 255
217 233 255
217 233 255
217 233 255
217 233 255
217 233 255
217 233 255
217 233 255
217 233 255
217 233 255
217 233 255
217 233 255
217 233 255
217 233 255
217 233 255
217 233 255
217 233 255
217 233 255
217 233 255
217 233 255
217 233 255
217 233 255
217 233 255
217 233 255
217 233 255
217 233 255
217 233 255
217 233 255
217 233 255
217 233 255
217 233 255
217 233 255
217 233 255
217 233 255
217 233 255
217 233 255
217 233 255
217 233 255
217 233 255
217 233 255
217 233 255
217 233 255
217 233 255
217 233 255
217 233 255
217 233 255
217 233 255
217 233 255
217 233 255
217 233 255
217 233 255
217 233 255
217 233 255
217 233 255
217 233 255
217 233 255
217 233 255
217 233 255
217 233 255
217 233 255
217 233 255
217 233 255
217 233 255
217 233 255
217 233 255
217 233 255
217 233 255
217 233 255
217 233 255
217 233 255
217 233 255
217 233 255
217 233 255
217 233 255
217 233 255
217 233 255
217 233 255
217 233 255
217 233 255
217 233 255
217 233 255
217 233 255
217 233 255
217 233 255
217 233 255
217 233 255
217 233 255
217 233 255
217 233 255
217 233 255
217 233 255
217 233 255
217 233 255
217 233 255
217 233 255
217 233 255
217 233 255
217 233 255
217 233 255
217 233 255
217 233 255
217 233 255
217 233 255
217 233 255
217 233 255
217 233 255
217 233 255
217 233 255
217 233 255
217 233 255
217 233 255
217 233 255
217 233 255
217 233 255
217 233 255
217 233 255
217 233 255
217 233 255
217 233 255
217 233 255
217 233 255
217 233 255
217 233 255
217 233 255
217 233 255
217 233 255
217 233 255
217 233 255
217 233 255
217 233 255
217 233 255
217 233 255
217 233 255
217 233 255
217 233 255
217 233 255
217 233 255
217 233 255
217 233 255
217 233 255
217 233 255
217 233 255
217 233 255
217 233 255
217 233 255
217 233 255
217 233 255
217 233 255
217 233 255
217 233 255
217 233 255
217 233 255
217 233 255
217 233 255
217 233 255
217 233 255
217 233 255
217 233 255
217 233 255
217 233 255
217 233 255
217 233 255
217 233 255
217 233 255
217 233 255
217 233 255
217 233 255
217 233 255
217 233 255
217 233 255
217 233 255
217 233 255
217 233 255
217 233 255
217 233 255
217 233 255
217 233 255
217 233 255
217 233 255
217 233 255
217 233 255
217 233 255
217 233 255
217 233 255
217 233 255
217 233 255
217 233 255
218 233 255
217 233 255
217 233 255
218 234 255
218 233 255
217 233 255
217 233 255
217 233 255
218 233 255
217 233 255
218 234 255
217 233 255
217 233 255
218 233 255
217 233 255
218 233 255
218 234 255
218 233 255
218 234 255
218 234 255
218 234 255
218 234 255
218 234 255
218 234 255
218 234 255
218 234 255
218 234 255
218 234 255
218 234 255
218 234 255
218 234 255
218 234 255
218 234 255
218 234 255
218 234 255
218 234 255
218 234 255
218 234 255
218 234 255
218 234 255
218 234 255
218 234 255
218 234 255
218 234 255
218 234 255
218 234 255
218 234 255
218 234 255
218 234 255
218 234 255
218 234 255
218 234 255
218 234 255
218 234 255
218 234 255
218 234 255
218 234 255
218 234 255
218 234 255
218 234 255
218 234 255
218 234 255
218 234 255
218 234 255
218 234 255
218 234 255
218 234 255
218 234 255
218 234 255
218 234 255
218 234 255
218 234 255
218 234 255
218 234 255
218 234 255
218 234 255
218 234 255
218 234 255
218 234 255
218 234 255
218 234 255
218 234 255
218 234 255
218 234 255
218 234 255
218 234 255
218 234 255
218 234 255
218 234 255
218 234 255
218 234 255
218 234 255
218 234 255
218 234 255
219 234 255
218 234 255
218 234 255
218 234 255
218 234 255
219 234 255
218 234 255
219 234 255
219 234 255
219 234 255
219 234 255
219 234 255
219 234 255
219 234 255
219 234 255
219 234 255
218 234 255
219 234 255
219 234 255
219 234 255
219 234 255
218 234 255
218 234 255
218 234 255
218 234 255
218 234 255
218 234 255
218 234 255
218 234 255
218 234 255
218 234 255
218 234 255
218 234 255
218 234 255
218 234 255
218 234 255
218 234 255
218 234 255
218 234 255
218 234 255
218 234 255
218 234 255
218 234 255
218 234 255
218 234 255
218 234 255
218 234 255
218 234 255
218 234 255
218 234 255
218 234 255
218 234 255
218 234 255
218 234 255
218 234 255
218 234 255
218 234 255
218 234 255
218 234 255
218 234 255
218 234 255
218 234 255
218 234 255
218 234 255
218 234 255
218 234 255
218 234 255
218 234 255
218 234 255
218 234 255
218 234 255
218 234 255
218 234 255
218 234 255
218 234 255
218 234 255
218 234 255
218 234 255
218 234 255
218 234 255
218 234 255
218 234 255
218 234 255
218 234 255
218 234 255
218 234 255
218 234 255
218 234 255
218 234 255
218 234 255
218 234 255
218 234 255
218 234 255
218 234 255
218 234 255
218 234 255
218 234 255
218 234 255
218 234 255
218 234 255
218 234 255
218 234 255
218 234 255
218 233 255
218 233 255
218 233 255
218 234 255
218 234 255
218 234 255
217 233 255
218 234 255
217 233 255
218 234 255
218 234 255
218 234 255
218 233 255
218 234 255
218 233 255
217 233 255
218 233 255
217 233 255
217 233 255
217 233 255
218 234 255
218 233 255
217 233 255
217 233 255
217 233 255
217 233 255
217 233 255
217 233 255
217 233 255
217 233 255
218 233 255
217 233 255
217 233 255
217 233 255
217 233 255
217 233 255
217 233 255
217 233 255
217 233 255
217 233 255
217 233 255
217 233 255
217 233 255
217 233 255
217 233 255
217 233 255
217 233 255
217 233 255
217 233 255
217 233 255
217 233 255
217 233 255
217 233 255
217 233 255
217 233 255
217 233 255
217 233 255
217 233 255
217 233 255
217 233 255
217 233 255
217 233 255
217 233 255
217 233 255
217 233 255
217 233 255
217 233 255
217 233 255
217 233 255
217 233 255
217 233 255
217 233 255
217 233 255
217 233 255
217 233 255
217 233 255
217 233 255
217 233 255
217 233 255
217 233 255
217 233 255
217 233 255
217 233 255
217 233 255
217 233 255
217 233 255
217 233 255
217 233 255
217 233 255
217 233 255
217 233 255
217 233 255
217 233 255
217 233 255
217 233 255
217 233 255
217 233 255
217 233 255
217 233 255
217 233 255
217 233 255
217 233 255
217 233 255
217 233 255
217 233 255
217 233 255
217 233 255
217 233 255
217 233 255
217 233 255
217 233 255
217 233 255
217 233 255
217 233 255
217 233 255
217 233 255
217 233 255
217 233 255
217 233 255
217 233 255
217 233 255
217 233 255
217 233 255
217 233 255
217 233 255
217 233 255
217 233 255
217 233 255
217 233 255
217 233 255
217 233 255
217 233 255
217 233 255
217 233 255
217 233 255
217 233 255
217 233 255
217 233 255
217 233 255
217 233 255
217 233 255
217 233 255
217 233 255
217 233 255
217 233 255
217 233 255
217 233 255
217 233 255
217 233 255
217 233 255
217 233 255
217 233 255
217 233 255
217 233 255
217 233 255
217 233 255
217 233 255
217 233 255
217 233 255
217 233 255
217 233 255
217 233 255
217 233 255
217 233 255
217 233 255
217 233 255
217 233 255
217 233 255
217 233 255
217 233 255
217 233 255
217 233 255
217 233 255
217 233 255
217 233 255
217 233 255
217 233 255
217 233 255
217 233 255
217 233 255
217 233 255
217 233 255
217 233 255
217 233 255
217 233 255
217 233 255
217 233 255
218 233 255
217 233 255
218 233 255
217 233 255
218 233 255
218 233 255
218 233 255
217 233 255
218 234 255
218 234 255
217 233 255
217 233 255
218 233 255
218 234 255
217 233 255
218 233 255
218 233 255
218 233 255
218 233 255
218 234 255
218 234 255
218 234 255
218 233 255
218 234 255
218 234 255
218 233 255
218 234 255
218 234 255
218 234 255
218 234 255
218 234 255
218 234 255
218 234 255
218 234 255
218 234 255
218 234 255
218 234 255
218 234 255
218 234 255
218 234 255
218 234 255
218 234 255
218 234 255
218 234 255
218 234 255
218 234 255
218 234 255
218 234 255
218 234 255
218 234 255
218 234 255
218 234 255
218 234 255
218 234 255
218 234 255
218 234 255
218 234 255
218 234 255
218 234 255
218 234 255
218 234 255
218 234 255
218 234 255
218 234 255
218 234 255
218 234 255
218 234 255
218 234 255
218 234 255
218 234 255
218 234 255
218 234 255
218 234 255
218 234 255
218 234 255
218 234 255
218 234 255
218 234 255
218 234 255
218 234 255
218 234 255
218 234 255
218 234 255
218 234 255
218 234 255
218 234 255
218 234 255
218 234 255
218 234 255
218 234 255
218 234 255
218 234 255
218 234 255
218 234 255
218 234 255
219 234 255
218 234 255
218 234 255
218 234 255
218 234 255
218 234 255
218 234 255
218 234 255
218 234 255
218 234 255
219 234 255
219 234 255
219 234 255
219 234 255
218 234 255
219 234 255
219 234 255
219 234 255
219 234 255
219 234 255
219 234 255
219 234 255
219 234 255
219 234 255
219 234 255
219 234 255
219 234 255
219 234 255
219 234 255
219 234 255
219 234 255
219 234 255
219 234 255
219 234 255
219 234 255
219 234 255
219 234 255
219 234 255
219 234 255
219 234 255
219 234 255
219 234 255
219 234 255
219 234 255
219 234 255
219 234 255
219 234 255
219 234 255
219 234 255
219 234 255
218 234 255
219 234 255
218 234 255
219 234 255
218 234 255
218 234 255
218 234 255
218 234 255
218 234 255
218 234 255
218 234 255
218 234 255
218 234 255
218 234 255
218 234 255
218 234 255
218 234 255
218 234 255
218 234 255
218 234 255
218 234 255
218 234 255
218 234 255
218 234 255
218 234 255
218 234 255
218 234 255
218 234 255
218 234 255
218 234 255
218 234 255
218 234 255
218 234 255
218 234 255
218 234 255
218 234 255
218 234 255
218 234 255
218 234 255
218 234 255
218 234 255
218 234 255
218 234 255
218 234 255
218 234 255
218 234 255
218 234 255
218 234 255
218 234 255
218 234 255
218 234 255
218 234 255
218 234 255
218 234 255
218 234 255
218 234 255
218 234 255
218 234 255
218 234 255
218 234 255
218 234 255
218 234 255
218 234 255
218 234 255
218 234 255
218 234 255
218 234 255
218 234 255
218 234 255
218 234 255
218 234 255
218 234 255
218 234 255
218 234 255
218 234 255
218 234 255
218 233 255
218 234 255
218 234 255
218 234 255
218 234 255
218 234 255
218 234 255
218 233 255
218 234 255
218 234 255
218 234 255
218 234 255
218 234 255
218 234 255
218 233 255
218 234 255
218 233 255
218 234 255
217 233 255
217 233 255
218 233 255
217 233 255
217 233 255
218 233 255
218 233 255
218 233 255
217 233 255
218 233 255
218 233 255
218 234 255
218 233 255
217 233 255
217 233 255
217 233 255
217 233 255
217 233 255
217 233 255
217 233 255
217 233 255
217 233 255
217 233 255
217 233 255
217 233 255
217 233 255
217 233 255
217 233 255
217 233 255
217 233 255
217 233 255
217 233 255
217 233 255
217 233 255
217 233 255
217 233 255
217 233 255
217 233 255
217 233 255
217 233 255
217 233 255
217 233 255
217 233 255
217 233 255
217 233 255
217 233 255
217 233 255
217 233 255
217 233 255
217 233 255
217 233 255
217 233 255
217 233 255
217 233 255
217 233 255
217 233 255
217 233 255
217 233 255
217 233 255
217 233 255
217 233 255
217 233 255
217 233 255
217 233 255
217 233 255
217 233 255
217 233 255
217 233 255
217 233 255
217 233 255
217 233 255
217 233 255
217 233 255
217 233 255
217 233 255
217 233 255
217 233 255
217 233 255
217 233 255
217 233 255
217 233 255
217 233 255
217 233 255
217 233 255
217 233 255
217 233 255
217 233 255
217 233 255
217 233 255
217 233 255
217 233 255
217 233 255
217 233 255
217 233 255
217 233 255
217 233 255
217 233 255
217 233 255
217 233 255
217 233 255
217 233 255
217 233 255
217 233 255
217 233 255
217 233 255
217 233 255
217 233 255
217 233 255
217 233 255
217 233 255
217 233 255
217 233 255
217 233 255
217 233 255
217 233 255
217 233 255
217 233 255
217 233 255
217 233 255
217 233 255
217 233 255
217 233 255
217 233 255
217 233 255
217 233 255
217 233 255
217 233 255
217 233 255
217 233 255
217 233 255
217 233 255
217 233 255
217 233 255
217 233 255
217 233 255
217 233 255
217 233 255
217 233 255
217 233 255
217 233 255
217 233 255
217 233 255
217 233 255
217 233 255
217 233 255
217 233 255
217 233 255
218 233 255
218 233 255
217 233 255
217 233 255
217 233 255
218 234 255
217 233 255
218 233 255
218 233 255
218 233 255
217 233 255
218 233 255
218 233 255
218 233 255
218 233 255
218 233 255
218 234 255
218 233 255
218 234 255
218 234 255
218 234 255
218 233 255
218 233 255
218 234 255
218 234 255
218 234 255
218 234 255
218 234 255
218 234 255
218 234 255
218 233 255
218 234 255
218 234 255
218 234 255
218 234 255
218 234 255
218 234 255
218 234 255
218 234 255
218 234 255
218 234 255
218 234 255
218 234 255
218 234 255
218 234 255
218 234 255
218 234 255
218 234 255
218 234 255
218 234 255
218 234 255
218 234 255
218 234 255
218 234 255
218 234 255
218 234 255
218 234 255
218 234 255
218 234 255
218 234 255
218 234 255
218 234 255
218 234 255
218 234 255
218 234 255
218 234 255
218 234 255
218 234 255
218 234 255
218 234 255
218 234 255
218 234 255
218 234 255
218 234 255
218 234 255
218 234 255
218 234 255
218 234 255
218 234 255
218 234 255
218 234 255
218 234 255
218 234 255
218 234 255
218 234 255
218 234 255
218 234 255
218 234 255
218 234 255
218 234 255
218 234 255
218 234 255
218 234 255
218 234 255
218 234 255
218 234 255
218 234 255
218 234 255
218 234 255
218 234 255
218 234 255
218 234 255
219 234 255
218 234 255
218 234 255
218 234 255
218 234 255
219 234 255
219 234 255
219 234 255
219 234 255
219 234 255
219 234 255
218 234 255
219 234 255
219 234 255
219 234 255
219 234 255
218 234 255
219 234 255
219 234 255
219 234 255
219 234 255
219 234 255
219 234 255
219 234 255
219 234 255
219 234 255
219 234 255
219 234 255
219 234 255
219 234 255
219 234 255
219 234 255
219 234 255
219 234 255
219 234 255
219 234 255
219 234 255
219 234 255
219 234 255
219 234 255
219 234 255
219 234 255
219 234 255
219 234 255
219 234 255
219 234 255
219 234 255
219 234 255
219 234 255
219 234 255
219 234 255
219 234 255
219 234 255
219 234 255
219 234 255
219 234 255
219 234 255
219 234 255
219 234 255
219 234 255
219 234 255
219 234 255
219 234 255
218 234 255
219 234 255
219 234 255
218 234 255
219 234 255
219 234 255
219 234 255
218 234 255
218 234 255
218 234 255
219 234 255
218 234 255
218 234 255
218 234 255
218 234 255
218 234 255
218 234 255
218 234 255
218 234 255
218 234 255
218 234 255
218 234 255
218 234 255
218 234 255
219 234 255
218 234 255
218 234 255
218 234 255
218 234 255
218 234 255
218 234 255
218 234 255
218 234 255
218 234 255
218 234 255
218 234 255
218 234 255
218 234 255
218 234 255
218 234 255
218 234 255
218 234 255
218 234 255
218 234 255
218 234 255
218 234 255
218 234 255
218 234 255
218 234 255
218 234 255
218 234 255
218 234 255
218 234 255
218 234 255
218 234 255
218 234 255
218 234 255
218 234 255
218 234 255
218 234 255
218 234 255
218 234 255
218 234 255
218 234 255
218 234 255
218 234 255
218 234 255
218 234 255
218 234 255
218 234 255
218 234 255
218 234 255
218 234 255
218 234 255
218 234 255
218 234 255
218 234 255
218 234 255
218 234 255
218 234 255
218 234 255
218 234 255
218 234 255
218 234 255
218 234 255
218 234 255
218 234 255
218 234 255
218 234 255
218 233 255
218 234 255
218 234 255
218 233 255
218 234 255
218 233 255
218 233 255
218 234 255
218 234 255
218 234 255
217 233 255
218 234 255
217 233 255
218 234 255
218 233 255
218 233 255
218 233 255
218 233 255
218 234 255
217 233 255
217 233 255
218 233 255
217 233 255
217 233 255
218 234 255
217 233 255
218 234 255
218 233 255
218 233 255
218 233 255
217 233 255
217 233 255
218 233 255
217 233 255
217 233 255
217 233 255
217 233 255
217 233 255
217 233 255
217 233 255
217 233 255
217 233 255
217 233 255
217 233 255
217 233 255
217 233 255
217 233 255
217 233 255
217 233 255
217 233 255
217 233 255
217 233 255
217 233 255
217 233 255
217 233 255
217 233 255
217 233 255
217 233 255
217 233 255
217 233 255
217 233 255
217 233 255
217 233 255
217 233 255
217 233 255
217 233 255
217 233 255
217 233 255
217 233 255
217 233 255
217 233 255
217 233 255
217 233 255
217 233 255
217 233 255
217 233 255
217 233 255
217 233 255
217 233 255
217 233 255
217 233 255
217 233 255
217 233 255
217 233 255
217 233 255
217 233 255
217 233 255
217 233 255
217 233 255
217 233 255
217 233 255
217 233 255
217 233 255
217 233 255
217 233 255
217 233 255
217 233 255
217 233 255
217 233 255
217 233 255
217 233 255
217 233 255
218 233 255
217 233 255
217 233 255
217 233 255
217 233 255
217 233 255
217 233 255
217 233 255
217 233 255
217 233 255
217 233 255
217 233 255
217 233 255
217 233 255
217 233 255
217 233 255
217 233 255
218 234 255
217 233 255
218 233 255
217 233 255
217 233 255
217 233 255
218 233 255
217 233 255
218 233 255
217 233 255
218 233 255
217 233 255
217 233 255
217 233 255
218 233 255
218 233 255
218 233 255
217 233 255
218 233 255
218 233 255
218 233 255
218 234 255
217 233 255
218 233 255
218 233 255
218 233 255
218 234 255
218 233 255
218 234 255
218 234 255
218 234 255
218 234 255
218 234 255
218 234 255
218 234 255
218 234 255
218 234 255
218 234 255
218 234 255
218 234 255
218 234 255
218 234 255
218 234 255
218 234 255
218 234 255
218 234 255
218 234 255
218 234 255
218 234 255
218 234 255
218 234 255
218 234 255
218 234 255
218 234 255
218 234 255
218 234 255
218 234 255
218 234 255
218 234 255
218 234 255
218 234 255
218 234 255
218 234 255
218 234 255
218 234 255
218 234 255
218 234 255
218 234 255
218 234 255
218 234 255
218 234 255
218 234 255
218 234 255
218 234 255
218 234 255
218 234 255
218 234 255
218 234 255
218 234 255
218 234 255
218 234 255
218 234 255
218 234 255
218 234 255
218 234 255
218 234 255
218 234 255
218 234 255
218 234 255
218 234 255
218 234 255
218 234 255
218 234 255
218 234 255
218 234 255
218 234 255
218 234 255
218 234 255
218 234 255
218 234 255
218 234 255
218 234 255
218 234 255
218 234 255
218 234 255
218 234 255
218 234 255
218 234 255
218 234 255
219 234 255
218 234 255
218 234 255
218 234 255
218 234 255
219 234 255
219 234 255
218 234 255
218 234 255
218 234 255
218 234 255
218 234 255
218 234 255
219 234 255
219 234 255
219 234 255
219 234 255
219 234 255
219 234 255
219 234 255
219 234 255
219 234 255
219 234 255
219 234 255
219 234 255
219 234 255
219 234 255
219 234 255
219 234 255
219 234 255
219 234 255
219 234 255
219 234 255
219 234 255
219 234 255
219 234 255
219 234 255
219 234 255
219 234 255
219 234 255
219 234 255
219 234 255
219 234 255
219 234 255
219 234 255
219 234 255
219 234 255
219 234 255
219 234 255
219 234 255
219 234 255
219 234 255
219 234 255
219 234 255
219 234 255
219 234 255
219 234 255
219 234 255
219 234 255
219 234 255
219 234 255
219 234 255
219 234 255
219 234 255
219 234 255
219 234 255
219 234 255
219 234 255
219 234 255
219 234 255
219 234 255
219 234 255
219 234 255
219 234 255
219 234 255
219 234 255
219 234 255
219 234 255
219 234 255
219 234 255
219 234 255
219 234 255
219 234 255
219 234 255
219 234 255
219 234 255
219 234 255
219 234 255
219 234 255
219 234 255
219 234 255
219 234 255
219 234 255
219 234 255
219 234 255
219 234 255
219 234 255
219 234 255
219 234 255
219 234 255
219 234 255
219 234 255
219 234 255
219 234 255
219 234 255
219 234 255
218 234 255
218 234 255
219 234 255
219 234 255
218 234 255
218 234 255
218 234 255
218 234 255
218 234 255
218 234 255
219 234 255
218 234 255
218 234 255
218 234 255
218 234 255
218 234 255
218 234 255
218 234 255
218 234 255
218 234 255
218 234 255
218 234 255
218 234 255
218 234 255
218 234 255
218 234 255
218 234 255
218 234 255
218 234 255
218 234 255
218 234 255
218 234 255
218 234 255
218 234 255
218 234 255
218 234 255
218 234 255
218 234 255
218 234 255
218 234 255
218 234 255
218 234 255
218 234 255
218 234 255
218 234 255
218 234 255
218 234 255
218 234 255
218 234 255
218 234 255
218 234 255
218 234 255
218 234 255
218 234 255
218 234 255
218 234 255
218 234 255
218 234 255
218 234 255
218 234 255
218 234 255
218 234 255
218 234 255
218 234 255
218 234 255
218 234 255
218 234 255
218 234 255
218 234 255
218 234 255
218 234 255
218 234 255
218 234 255
218 234 255
218 234 255
218 234 255
218 234 255
218 234 255
218 234 255
218 234 255
218 234 255
218 234 255
218 234 255
218 233 255
218 234 255
218 234 255
218 234 255
218 234 255
218 234 255
218 234 255
218 234 255
218 234 255
218 233 255
218 234 255
218 234 255
218 234 255
217 233 255
218 233 255
218 233 255
218 234 255
218 234 255
218 233 255
218 233 255
218 234 255
218 233 255
218 234 255
218 233 255
218 233 255
218 234 255
218 233 255
218 233 255
218 233 255
218 234 255
217 233 255
217 233 255
217 233 255
217 233 255
218 233 255
217 233 255
218 233 255
218 233 255
217 233 255
217 233 255
217 233 255
218 233 255
217 233 255
218 233 255
218 234 255
217 233 255
217 233 255
218 233 255
217 233 255
217 233 255
217 233 255
217 233 255
217 233 255
217 233 255
217 233 255
217 233 255
217 233 255
217 233 255
217 233 255
217 233 255
217 233 255
218 233 255
217 233 255
217 233 255
217 233 255
218 233 255
217 233 255
218 233 255
217 233 255
217 233 255
218 233 255
217 233 255
217 233 255
217 233 255
217 233 255
217 233 255
217 233 255
218 233 255
218 234 255
218 234 255
217 233 255
218 233 255
218 233 255
218 233 255
218 233 255
217 233 255
218 233 255
218 233 255
218 233 255
218 233 255
217 233 255
218 233 255
218 233 255
218 233 255
217 233 255
218 233 255
217 233 255
218 233 255
218 234 255
218 233 255
218 234 255
218 233 255
218 234 255
218 233 255
218 234 255
218 234 255
218 234 255
218 234 255
218 233 255
218 233 255
218 234 255
218 233 255
218 233 255
218 234 255
218 234 255
218 234 255
218 233 255
218 234 255
218 234 255
218 234 255
218 234 255
218 234 255
218 234 255
218 234 255
218 234 255
218 234 255
218 234 255
218 234 255
218 234 255
218 234 255
218 234 255
218 234 255
218 234 255
218 234 255
218 234 255
218 234 255
218 234 255
218 234 255
218 234 255
218 234 255
218 234 255
218 234 255
218 234 255
218 234 255
218 234 255
218 234 255
218 234 255
218 234 255
218 234 255
218 234 255
218 234 255
218 234 255
218 234 255
218 234 255
218 234 255
218 234 255
218 234 255
218 234 255
218 234 255
218 234 255
218 234 255
218 234 255
218 234 255
218 234 255
218 234 255
218 234 255
218 234 255
218 234 255
218 234 255
218 234 255
218 234 255
218 234 255
218 234 255
218 234 255
218 234 255
218 234 255
218 234 255
218 234 255
218 234 255
219 234 255
218 234 255
218 234 255
218 234 255
218 234 255
218 234 255
218 234 255
218 234 255
218 234 255
218 234 255
218 234 255
218 234 255
218 234 255
218 234 255
218 234 255
218 234 255
219 234 255
218 234 255
218 234 255
219 234 255
218 234 255
218 234 255
219 234 255
219 234 255
218 234 255
218 234 255
218 234 255
219 234 255
219 234 255
219 234 255
218 234 255
218 234 255
219 234 255
219 234 255
219 234 255
219 234 255
218 234 255
219 234 255
218 234 255
219 234 255
219 234 255
219 234 255
219 234 255
219 234 255
219 234 255
219 234 255
219 234 255
219 234 255
219 234 255
219 234 255
219 234 255
219 234 255
219 234 255
219 234 255
219 234 255
219 234 255
219 234 255
219 234 255
219 234 255
219 234 255
219 234 255
219 234 255
219 234 255
219 234 255
219 234 255
219 234 255
219 234 255
219 234 255
219 234 255
219 234 255
219 234 255
219 234 255
219 234 255
219 234 255
219 234 255
219 234 255
219 234 255
219 234 255
219 234 255
219 234 255
219 234 255
219 234 255
219 234 255
219 234 255
219 234 255
219 234 255
219 234 255
219 234 255
219 234 255
219 234 255
219 234 255
219 234 255
219 234 255
219 234 255
219 234 255
219 234 255
219 234 255
219 234 255
219 234 255
219 234 255
219 234 255
219 234 255
219 234 255
219 234 255
219 234 255
219 234 255
219 234 255
219 234 255
219 234 255
219 234 255
219 234 255
219 234 255
219 234 255
219 234 255
219 234 255
219 234 255
219 234 255
219 234 255
219 234 255
219 234 255
219 234 255
219 234 255
219 234 255
219 234 255
219 234 255
219 234 255
219 234 255
219 234 255
219 234 255
219 234 255
219 234 255
219 234 255
219 234 255
219 234 255
219 234 255
219 234 255
219 234 255
219 234 255
219 234 255
219 234 255
219 234 255
219 234 255
219 234 255
219 234 255
219 234 255
219 234 255
219 234 255
219 234 255
218 234 255
218 234 255
219 234 255
219 234 255
218 234 255
219 234 255
218 234 255
218 234 255
218 234 255
219 234 255
218 234 255
218 234 255
219 234 255
218 234 255
218 234 255
219 234 255
218 234 255
218 234 255
218 234 255
219 234 255
218 234 255
218 234 255
218 234 255
218 234 255
218 234 255
218 234 255
218 234 255
218 234 255
218 234 255
218 234 255
218 234 255
218 234 255
218 234 255
218 234 255
218 234 255
218 234 255
218 234 255
218 234 255
218 234 255
218 234 255
218 234 255
218 234 255
218 234 255
218 234 255
218 234 255
218 234 255
218 234 255
218 234 255
218 234 255
218 234 255
218 234 255
218 234 255
218 234 255
218 234 255
218 234 255
218 234 255
218 234 255
218 234 255
218 234 255
218 234 255
218 234 255
218 234 255
218 234 255
218 234 255
218 234 255
218 234 255
218 234 255
218 234 255
218 234 255
218 234 255
218 234 255
218 234 255
218 234 255
218 234 255
218 234 255
218 234 255
218 234 255
218 234 255
218 234 255
218 234 255
218 234 255
218 234 255
218 234 255
218 234 255
218 234 255
218 234 255
218 234 255
218 234 255
218 234 255
218 234 255
218 234 255
218 234 255
218 234 255
218 234 255
218 234 255
218 234 255
218 234 255
218 234 255
218 234 255
218 234 255
218 234 255
218 234 255
218 234 255
218 234 255
218 234 255
218 234 255
218 234 255
218 234 255
218 234 255
218 234 255
218 234 255
217 233 255
218 234 255
218 234 255
218 233 255
218 233 255
218 234 255
218 234 255
218 233 255
218 234 255
218 234 255
218 234 255
218 233 255
218 234 255
218 233 255
218 234 255
218 234 255
218 234 255
218 233 255
218 234 255
218 234 255
218 233 255
218 234 255
218 234 255
218 234 255
218 234 255
218 234 255
218 234 255
218 233 255
218 234 255
218 234 255
218 234 255
218 234 255
218 233 255
218 234 255
218 234 255
218 234 255
218 234 255
218 234 255
218 234 255
218 234 255
218 234 255
218 233 255
218 234 255
218 234 255
218 234 255
218 234 255
218 234 255
218 234 255
218 234 255
218 234 255
218 234 255
218 233 255
218 234 255
218 234 255
218 234 255
218 234 255
218 234 255
218 234 255
218 234 255
218 234 255
218 234 255
218 234 255
218 234 255
218 234 255
218 234 255
218 234 255
218 234 255
218 234 255
218 234 255
218 234 255
218 234 255
218 234 255
218 234 255
218 234 255
218 234 255
218 234 255
218 234 255
218 234 255
218 234 255
218 234 255
218 234 255
218 234 255
218 234 255
218 234 255
218 234 255
218 234 255
218 234 255
218 234 255
218 234 255
218 234 255
218 234 255
218 234 255
218 234 255
218 234 255
218 234 255
218 234 255
218 234 255
218 234 255
218 234 255
218 234 255
218 234 255
218 234 255
218 234 255
218 234 255
218 234 255
218 234 255
218 234 255
218 234 255
218 234 255
218 234 255
218 234 255
218 234 255
218 234 255
218 234 255
218 234 255
218 234 255
218 234 255
218 234 255
218 234 255
218 234 255
218 234 255
218 234 255
218 234 255
218 234 255
218 234 255
218 234 255
218 234 255
218 234 255
218 234 255
218 234 255
218 234 255
218 234 255
218 234 255
218 234 255
218 234 255
218 234 255
218 234 255
218 234 255
218 234 255
218 234 255
218 234 255
219 234 255
218 234 255
218 234 255
218 234 255
219 234 255
218 234 255
218 234 255
219 234 255
219 234 255
218 234 255
218 234 255
218 234 255
219 234 255
219 234 255
218 234 255
219 234 255
219 234 255
219 234 255
219 234 255
219 234 255
219 234 255
219 234 255
219 234 255
219 234 255
219 234 255
219 234 255
219 234 255
219 234 255
219 234 255
219 234 255
219 234 255
219 234 255
219 234 255
219 234 255
219 234 255
219 234 255
219 234 255
219 234 255
219 234 255
219 234 255
219 234 255
219 234 255
219 234 255
219 234 255
219 234 255
219 234 255
219 234 255
219 234 255
219 234 255
219 234 255
219 234 255
219 234 255
219 234 255
219 234 255
219 234 255
219 234 255
219 234 255
219 234 255
219 234 255
219 234 255
219 234 255
219 234 255
219 234 255
219 234 255
219 234 255
219 234 255
219 234 255
219 234 255
219 234 255
219 234 255
219 234 255
219 234 255
219 234 255
219 234 255
219 234 255
219 234 255
219 234 255
219 234 255
219 234 255
219 234 255
219 234 255
219 234 255
219 234 255
219 234 255
219 234 255
219 234 255
219 234 255
219 234 255
219 234 255
219 234 255
219 234 255
219 234 255
219 234 255
219 234 255
219 234 255
219 234 255
219 234 255
219 234 255
219 234 255
219 234 255
219 234 255
219 234 255
219 234 255
219 234 255
219 234 255
219 234 255
219 234 255
219 234 255
219 234 255
219 234 255
219 234 255
219 234 255
219 234 255
219 234 255
219 234 255
219 234 255
219 234 255
219 234 255
219 234 255
219 234 255
219 234 255
219 234 255
219 234 255
219 234 255
219 234 255
219 234 255
219 234 255
219 234 255
219 234 255
219 234 255
219 234 255
219 234 255
219 234 255
219 234 255
219 234 255
219 234 255
219 234 255
219 234 255
219 234 255
219 234 255
219 234 255
219 234 255
219 234 255
219 234 255
219 234 255
219 234 255
219 234 255
219 234 255
219 234 255
219 234 255
219 234 255
219 234 255
219 234 255
219 234 255
219 234 255
219 234 255
219 234 255
219 234 255
219 234 255
219 234 255
219 234 255
219 234 255
219 234 255
219 234 255
219 234 255
219 234 255
219 234 255
219 234 255
218 234 255
218 234 255
219 234 255
219 234 255
218 234 255
219 234 255
219 234 255
219 234 255
218 234 255
218 234 255
218 234 255
218 234 255
218 234 255
218 234 255
218 234 255
218 234 255
218 234 255
218 234 255
218 234 255
218 234 255
218 234 255
218 234 255
218 234 255
218 234 255
218 234 255
218 234 255
218 234 255
218 234 255
218 234 255
218 234 255
218 234 255
218 234 255
218 234 255
218 234 255
218 234 255
218 234 255
218 234 255
218 234 255
218 234 255
218 234 255
218 234 255
218 234 255
218 234 255
218 234 255
218 234 255
218 234 255
218 234 255
218 234 255
218 234 255
218 234 255
218 234 255
218 234 255
218 234 255
218 234 255
218 234 255
218 234 255
218 234 255
218 234 255
218 234 255
218 234 255
218 234 255
218 234 255
218 234 255
218 234 255
218 234 255
218 234 255
218 234 255
218 234 255
218 234 255
218 234 255
218 234 255
218 234 255
218 234 255
218 234 255
218 234 255
218 234 255
218 234 255
218 234 255
218 234 255
218 234 255
218 234 255
218 234 255
218 234 255
218 234 255
218 234 255
218 234 255
218 234 255
218 234 255
218 234 255
218 234 255
218 234 255
218 234 255
218 234 255
218 234 255
218 234 255
218 234 255
218 234 255
218 234 255
218 234 255
218 234 255
218 234 255
218 234 255
218 234 255
218 234 255
218 234 255
218 234 255
218 234 255
218 234 255
218 234 255
218 234 255
218 234 255
218 234 255
218 234 255
218 234 255
218 234 255
218 234 255
218 234 255
218 234 255
218 234 255
218 234 255
218 234 255
218 234 255
218 234 255
218 234 255
218 234 255
218 234 255
218 234 255
218 234 255
218 234 255
218 234 255
218 234 255
218 234 255
218 234 255
218 234 255
218 234 255
218 234 255
218 234 255
218 234 255
218 234 255
218 234 255
218 234 255
218 234 255
218 234 255
218 234 255
218 234 255
218 234 255
218 234 255
218 234 255
218 234 255
218 234 255
218 234 255
218 234 255
218 234 255
218 234 255
218 234 255
218 234 255
218 234 255
218 234 255
218 234 255
218 234 255
218 234 255
218 234 255
218 234 255
218 234 255
218 234 255
218 234 255
218 234 255
218 234 255
218 234 255
218 234 255
218 234 255
218 234 255
218 234 255
218 234 255
218 234 255
218 234 255
218 234 255
218 234 255
218 234 255
218 234 255
218 234 255
218 234 255
218 234 255
218 234 255
218 234 255
218 234 255
218 234 255
218 234 255
218 234 255
218 234 255
218 234 255
218 234 255
218 234 255
218 234 255
218 234 255
218 234 255
218 234 255
218 234 255
218 234 255
218 234 255
218 234 255
218 234 255
218 234 255
218 234 255
218 234 255
218 234 255
218 234 255
218 234 255
218 234 255
219 234 255
218 234 255
218 234 255
218 234 255
218 234 255
218 234 255
218 234 255
218 234 255
218 234 255
219 234 255
219 234 255
218 234 255
218 234 255
219 234 255
218 234 255
218 234 255
219 234 255
219 234 255
219 234 255
219 234 255
219 234 255
219 234 255
219 234 255
219 234 255
219 234 255
218 234 255
219 234 255
219 234 255
219 234 255
219 234 255
219 234 255
219 234 255
219 234 255
219 234 255
219 234 255
219 234 255
219 234 255
219 234 255
219 234 255
219 234 255
219 234 255
219 234 255
219 234 255
219 234 255
219 234 255
219 234 255
219 234 255
219 234 255
219 234 255
219 234 255
219 234 255
219 234 255
219 234 255
219 234 255
219 234 255
219 234 255
219 234 255
219 234 255
219 234 255
219 234 255
219 234 255
219 234 255
219 234 255
219 234 255
219 234 255
219 234 255
219 234 255
219 234 255
219 234 255
219 234 255
219 234 255
219 234 255
219 234 255
219 234 255
219 234 255
219 234 255
219 234 255
219 234 255
219 234 255
219 234 255
219 234 255
219 234 255
219 234 255
219 234 255
219 234 255
219 234 255
219 234 255
219 234 255
219 234 255
219 234 255
219 234 255
219 234 255
219 234 255
219 234 255
219 234 255
219 234 255
219 234 255
219 234 255
219 234 255
219 234 255
219 234 255
219 234 255
219 234 255
219 234 255
219 234 255
219 234 255
219 234 255
219 234 255
219 234 255
219 234 255
219 235 255
219 234 255
219 234 255
219 234 255
219 234 255
219 234 255
219 234 255
219 234 255
219 234 255
219 234 255
219 234 255
219 234 255
219 234 255
219 234 255
219 234 255
219 234 255
219 234 255
219 234 255
219 234 255
219 234 255
219 234 255
219 234 255
219 234 255
219 234 255
219 234 255
219 234 255
219 234 255
219 234 255
219 234 255
219 234 255
219 234 255
219 234 255
219 234 255
219 234 255
219 234 255
219 234 255
219 234 255
219 234 255
219 234 255
219 234 255
219 234 255
219 234 255
219 234 255
219 234 255
219 234 255
219 234 255
219 234 255
219 234 255
219 234 255
219 234 255
219 234 255
219 234 255
219 234 255
219 234 255
219 234 255
219 234 255
219 234 255
219 234 255
219 234 255
219 234 255
219 234 255
219 234 255
219 234 255
219 234 255
219 234 255
219 234 255
219 234 255
219 234 255
219 234 255
219 234 255
219 234 255
219 234 255
219 234 255
219 234 255
219 234 255
219 234 255
219 234 255
219 234 255
219 234 255
219 234 255
219 234 255
219 234 255
219 234 255
219 234 255
219 234 255
219 234 255
219 234 255
219 234 255
219 234 255
219 234 255
219 234 255
219 234 255
219 234 255
219 234 255
218 234 255
219 234 255
218 234 255
218 234 255
218 234 255
218 234 255
219 234 255
219 234 255
219 234 255
218 234 255
219 234 255
218 234 255
218 234 255
218 234 255
219 234 255
218 234 255
218 234 255
218 234 255
218 234 255
219 234 255
218 234 255
218 234 255
218 234 255
218 234 255
218 234 255
218 234 255
218 234 255
218 234 255
218 234 255
218 234 255
218 234 255
218 234 255
218 234 255
218 234 255
218 234 255
218 234 255
218 234 255
218 234 255
218 234 255
218 234 255
218 234 255
218 234 255
218 234 255
218 234 255
218 234 255
218 234 255
218 234 255
218 234 255
218 234 255
218 234 255
218 234 255
218 234 255
218 234 255
218 234 255
218 234 255
218 234 255
218 234 255
218 234 255
218 234 255
218 234 255
218 234 255
218 234 255
218 234 255
218 234 255
218 234 255
218 234 255
218 234 255
218 234 255
218 234 255
218 234 255
218 234 255
218 234 255
218 234 255
218 234 255
218 234 255
218 234 255
218 234 255
218 234 255
218 234 255
218 234 255
218 234 255
218 234 255
218 234 255
218 234 255
218 234 255
218 234 255
218 234 255
218 234 255
218 234 255
218 234 255
218 234 255
218 234 255
218 234 255
218 234 255
218 234 255
218 234 255
218 234 255
218 234 255
218 234 255
218 234 255
218 234 255
218 234 255
218 234 255
218 234 255
218 234 255
218 234 255
218 234 255
218 234 255
218 234 255
218 234 255
218 234 255
218 234 255
218 234 255
218 234 255
218 234 255
218 234 255
218 234 255
218 234 255
218 234 255
218 234 255
218 234 255
218 234 255
218 234 255
218 234 255
218 234 255
218 234 255
218 234 255
218 234 255
218 234 255
218 234 255
218 234 255
218 234 255
218 234 255
218 234 255
218 234 255
218 234 255
218 234 255
218 234 255
218 234 255
218 234 255
218 234 255
218 234 255
218 234 255
218 234 255
218 234 255
218 234 255
218 234 255
218 234 255
218 234 255
218 234 255
218 234 255
218 234 255
218 234 255
218 234 255
218 234 255
218 234 255
218 234 255
218 234 255
218 234 255
218 234 255
218 234 255
218 234 255
218 234 255
218 234 255
218 234 255
218 234 255
218 234 255
218 234 255
218 234 255
218 234 255
218 234 255
218 234 255
218 234 255
218 234 255
218 234 255
218 234 255
218 234 255
218 234 255
218 234 255
218 234 255
218 234 255
218 234 255
218 234 255
218 234 255
218 234 255
218 234 255
219 234 255
219 234 255
218 234 255
218 234 255
219 234 255
219 234 255
218 234 255
219 234 255
219 234 255
219 234 255
219 234 255
219 234 255
219 234 255
219 234 255
218 234 255
219 234 255
219 234 255
219 234 255
219 234 255
219 234 255
219 234 255
219 234 255
219 234 255
219 234 255
219 234 255
219 234 255
219 234 255
219 234 255
219 234 255
219 234 255
219 234 255
219 234 255
219 234 255
219 234 255
219 234 255
219 234 255
219 234 255
219 234 255
219 234 255
219 234 255
219 234 255
219 234 255
219 234 255
219 234 255
219 234 255
219 234 255
219 234 255
219 234 255
219 234 255
219 234 255
219 234 255
219 234 255
219 234 255
219 234 255
219 234 255
219 234 255
219 234 255
219 234 255
219 234 255
219 234 255
219 234 255
219 234 255
219 234 255
219 234 255
219 234 255
219 234 255
219 234 255
219 234 255
219 234 255
219 234 255
219 234 255
219 234 255
219 234 255
219 234 255
219 234 255
219 234 255
219 234 255
219 234 255
219 234 255
219 234 255
219 234 255
219 234 255
219 234 255
219 234 255
219 234 255
219 234 255
219 234 255
219 234 255
219 234 255
219 234 255
219 234 255
219 234 255
219 234 255
219 234 255
219 234 255
219 234 255
219 234 255
219 234 255
219 234 255
219 234 255
219 234 255
219 234 255
219 234 255
219 235 255
219 234 255
219 234 255
219 234 255
219 234 255
219 234 255
219 234 255
219 234 255
219 234 255
219 234 255
219 234 255
219 234 255
219 234 255
219 235 255
219 235 255
219 235 255
219 234 255
219 234 255
219 235 255
219 235 255
219 235 255
220 235 255
219 234 255
219 235 255
219 235 255
219 235 255
219 234 255
219 234 255
219 234 255
219 234 255
219 234 255
219 234 255
219 234 255
219 234 255
219 234 255
219 234 255
219 234 255
219 234 255
219 234 255
219 234 255
219 234 255
219 234 255
219 234 255
219 234 255
219 234 255
219 234 255
219 234 255
219 234 255
219 234 255
219 234 255
219 234 255
219 234 255
219 234 255
219 234 255
219 234 255
219 234 255
219 234 255
219 234 255
219 234 255
219 234 255
219 234 255
219 234 255
219 234 255
219 234 255
219 234 255
219 234 255
219 234 255
219 234 255
219 234 255
219 234 255
219 234 255
219 234 255
219 234 255
219 234 255
219 234 255
219 234 255
219 234 255
219 234 255
219 234 255
219 234 255
219 234 255
219 234 255
219 234 255
219 234 255
219 234 255
219 234 255
219 234 255
219 234 255
219 234 255
219 234 255
219 234 255
219 234 255
219 234 255
219 234 255
219 234 255
219 234 255
219 234 255
219 234 255
219 234 255
219 234 255
219 234 255
219 234 255
219 234 255
219 234 255
219 234 255
219 234 255
219 234 255
219 234 255
219 234 255
219 234 255
219 234 255
219 234 255
219 234 255
219 234 255
219 234 255
219 234 255
219 234 255
219 234 255
219 234 255
219 234 255
219 234 255
219 234 255
219 234 255
219 234 255
219 234 255
219 234 255
219 234 255
219 234 255
219 234 255
219 234 255
219 234 255
219 234 255
219 234 255
218 234 255
218 234 255
219 234 255
219 234 255
218 234 255
219 234 255
218 234 255
219 234 255
219 234 255
218 234 255
219 234 255
219 234 255
219 234 255
219 234 255
219 234 255
218 234 255
218 234 255
219 234 255
218 234 255
218 234 255
218 234 255
219 234 255
218 234 255
218 234 255
219 234 255
219 234 255
218 234 255
218 234 255
218 234 255
218 234 255
218 234 255
218 234 255
218 234 255
218 234 255
218 234 255
219 234 255
218 234 255
218 234 255
218 234 255
218 234 255
218 234 255
218 234 255
218 234 255
218 234 255
218 234 255
218 234 255
218 234 255
218 234 255
219 234 255
218 234 255
218 234 255
218 234 255
218 234 255
218 234 255
218 234 255
218 234 255
218 234 255
218 234 255
218 234 255
218 234 255
218 234 255
218 234 255
218 234 255
218 234 255
218 234 255
218 234 255
218 234 255
218 234 255
218 234 255
218 234 255
218 234 255
218 234 255
218 234 255
218 234 255
218 234 255
218 234 255
218 234 255
218 234 255
218 234 255
218 234 255
218 234 255
218 234 255
218 234 255
218 234 255
218 234 255
218 234 255
218 234 255
218 234 255
218 234 255
218 234 255
218 234 255
218 234 255
218 234 255
218 234 255
218 234 255
218 234 255
218 234 255
218 234 255
218 234 255
218 234 255
218 234 255
218 234 255
218 234 255
218 234 255
218 234 255
218 234 255
218 234 255
218 234 255
218 234 255
218 234 255
218 234 255
218 234 255
218 234 255
218 234 255
218 234 255
218 234 255
218 234 255
218 234 255
218 234 255
218 234 255
218 234 255
218 234 255
218 234 255
218 234 255
219 234 255
218 234 255
218 234 255
218 234 255
218 234 255
218 234 255
218 234 255
218 234 255
218 234 255
218 234 255
218 234 255
219 234 255
218 234 255
218 234 255
219 234 255
218 234 255
218 234 255
218 234 255
218 234 255
219 234 255
219 234 255
218 234 255
219 234 255
219 234 255
218 234 255
219 234 255
219 234 255
219 234 255
218 234 255
219 234 255
219 234 255
218 234 255
219 234 255
219 234 255
218 234 255
219 234 255
218 234 255
219 234 255
219 234 255
219 234 255
219 234 255
219 234 255
219 234 255
219 234 255
219 234 255
219 234 255
219 234 255
219 234 255
219 234 255
219 234 255
219 234 255
219 234 255
219 234 255
219 234 255
219 234 255
219 234 255
219 234 255
219 234 255
219 234 255
219 234 255
219 234 255
219 234 255
219 234 255
219 234 255
219 234 255
219 234 255
219 234 255
219 234 255
219 234 255
219 234 255
219 234 255
219 234 255
219 234 255
219 234 255
219 234 255
219 234 255
219 234 255
219 234 255
219 234 255
219 234 255
219 234 255
219 234 255
219 234 255
219 234 255
219 234 255
219 234 255
219 234 255
219 234 255
219 234 255
219 234 255
219 234 255
219 234 255
219 234 255
219 234 255
219 234 255
219 234 255
219 234 255
219 234 255
219 234 255
219 234 255
219 234 255
219 234 255
219 234 255
219 234 255
219 234 255
219 234 255
219 234 255
219 234 255
219 234 255
219 234 255
219 234 255
219 234 255
219 234 255
219 234 255
219 234 255
219 234 255
219 234 255
219 234 255
219 234 255
219 234 255
219 234 255
219 234 255
219 234 255
219 234 255
219 234 255
219 234 255
219 234 255
219 234 255
219 234 255
219 234 255
219 234 255
219 234 255
219 234 255
219 235 255
219 234 255
219 234 255
219 234 255
219 234 255
219 235 255
219 235 255
219 235 255
219 234 255
219 235 255
219 234 255
219 234 255
219 234 255
219 234 255
219 235 255
219 235 255
219 234 255
219 235 255
219 235 255
219 235 255
219 234 255
219 234 255
219 234 255
219 235 255
219 235 255
220 235 255
220 235 255
220 235 255
220 235 255
220 235 255
219 235 255
219 235 255
219 235 255
219 235 255
220 235 255
219 235 255
220 235 255
219 235 255
219 235 255
219 235 255
219 235 255
219 235 255
219 235 255
219 234 255
219 235 255
219 234 255
219 234 255
219 234 255
219 235 255
219 235 255
219 235 255
219 234 255
219 234 255
220 235 255
219 234 255
219 234 255
219 235 255
219 234 255
219 234 255
219 235 255
219 234 255
219 234 255
219 234 255
219 234 255
219 234 255
219 234 255
219 234 255
219 234 255
219 234 255
219 234 255
219 234 255
219 234 255
219 234 255
219 234 255
219 234 255
219 234 255
219 234 255
219 234 255
219 234 255
219 234 255
219 234 255
219 234 255
219 234 255
219 234 255
219 234 255
219 234 255
219 234 255
219 234 255
219 234 255
219 234 255
219 234 255
219 234 255
219 234 255
219 234 255
219 234 255
219 234 255
219 234 255
219 234 255
219 234 255
219 234 255
219 234 255
219 234 255
219 234 255
219 234 255
219 234 255
219 234 255
219 234 255
219 234 255
219 234 255
219 234 255
219 234 255
219 234 255
219 234 255
219 234 255
219 234 255
219 234 255
219 234 255
219 234 255
219 234 255
219 234 255
219 234 255
219 234 255
219 234 255
219 234 255
219 234 255
219 234 255
219 234 255
219 234 255
219 234 255
219 234 255
219 234 255
219 234 255
219 234 255
219 234 255
219 234 255
219 234 255
219 234 255
219 234 255
219 234 255
219 234 255
219 234 255
219 234 255
219 234 255
219 234 255
219 234 255
219 234 255
219 234 255
219 234 255
219 234 255
219 234 255
219 234 255
219 234 255
219 234 255
219 234 255
219 234 255
219 234 255
219 234 255
219 234 255
218 234 255
219 234 255
219 234 255
219 234 255
219 234 255
219 234 255
219 234 255
219 234 255
219 234 255
219 234 255
219 234 255
219 234 255
219 234 255
219 234 255
219 234 255
219 234 255
218 234 255
219 234 255
218 234 255
219 234 255
219 234 255
218 234 255
219 234 255
219 234 255
218 234 255
219 234 255
218 234 255
218 234 255
219 234 255
218 234 255
218 234 255
218 234 255
218 234 255
218 234 255
219 234 255
218 234 255
218 234 255
219 234 255
219 234 255
219 234 255
219 234 255
219 234 255
218 234 255
218 234 255
218 234 255
218 234 255
218 234 255
218 234 255
219 234 255
219 234 255
219 234 255
219 234 255
219 234 255
219 234 255
218 234 255
218 234 255
218 234 255
218 234 255
219 234 255
218 234 255
218 234 255
218 234 255
219 234 255
219 234 255
219 234 255
219 234 255
218 234 255
219 234 255
218 234 255
219 234 255
218 234 255
218 234 255
218 234 255
219 234 255
218 234 255
219 234 255
218 234 255
219 234 255
219 234 255
218 234 255
219 234 255
218 234 255
219 234 255
218 234 255
219 234 255
218 234 255
219 234 255
218 234 255
218 234 255
219 234 255
219 234 255
219 234 255
219 234 255
218 234 255
218 234 255
219 234 255
218 234 255
219 234 255
219 234 255
219 234 255
218 234 255
219 234 255
219 234 255
218 234 255
219 234 255
219 234 255
219 234 255
219 234 255
219 234 255
218 234 255
219 234 255
218 234 255
218 234 255
219 234 255
219 234 255
218 234 255
218 234 255
219 234 255
219 234 255
218 234 255
219 234 255
219 234 255
219 234 255
219 234 255
219 234 255
219 234 255
219 234 255
219 234 255
219 234 255
219 234 255
219 234 255
219 234 255
219 234 255
219 234 255
219 234 255
219 234 255
219 234 255
219 234 255
219 234 255
219 234 255
219 234 255
219 234 255
219 234 255
219 234 255
219 234 255
219 234 255
219 234 255
219 234 255
219 234 255
219 234 255
219 234 255
219 234 255
219 234 255
219 234 255
219 234 255
219 234 255
219 234 255
219 234 255
219 234 255
219 234 255
219 234 255
219 234 255
219 234 255
219 234 255
219 234 255
219 234 255
219 234 255
219 234 255
219 234 255
219 234 255
219 234 255
219 234 255
219 234 255
219 234 255
219 234 255
219 234 255
219 234 255
219 234 255
219 234 255
219 234 255
219 234 255
219 234 255
219 234 255
219 234 255
219 234 255
219 234 255
219 234 255
219 234 255
219 234 255
219 234 255
219 234 255
219 234 255
219 234 255
219 234 255
219 234 255
219 234 255
219 234 255
219 234 255
219 234 255
219 234 255
219 234 255
219 234 255
219 234 255
219 234 255
219 234 255
219 234 255
219 234 255
219 234 255
219 234 255
219 234 255
219 235 255
219 234 255
219 234 255
219 234 255
219 234 255
219 234 255
219 234 255
219 234 255
219 234 255
219 234 255
219 234 255
219 234 255
219 234 255
219 234 255
219 234 255
219 234 255
219 234 255
219 234 255
219 234 255
219 234 255
219 234 255
219 234 255
219 235 255
219 234 255
219 235 255
219 235 255
219 235 255
219 235 255
219 235 255
219 235 255
219 235 255
219 234 255
219 235 255
219 235 255
219 235 255
219 235 255
219 235 255
219 235 255
219 235 255
220 235 255
219 234 255
219 235 255
220 235 255
220 235 255
220 235 255
219 235 255
220 235 255
219 235 255
220 235 255
219 235 255
220 235 255
220 235 255
220 235 255
220 235 255
220 235 255
220 235 255
220 235 255
220 235 255
220 235 255
220 235 255
220 235 255
220 235 255
220 235 255
220 235 255
220 235 255
220 235 255
220 235 255
220 235 255
220 235 255
220 235 255
220 235 255
220 235 255
220 235 255
220 235 255
220 235 255
220 235 255
220 235 255
219 235 255
220 235 255
220 235 255
219 235 255
220 235 255
220 235 255
220 235 255
219 235 255
220 235 255
219 235 255
219 235 255
219 235 255
220 235 255
219 235 255
220 235 255
219 235 255
220 235 255
220 235 255
219 235 255
219 235 255
219 234 255
219 235 255
219 235 255
219 235 255
219 234 255
219 235 255
219 234 255
219 235 255
219 235 255
219 235 255
219 235 255
219 235 255
219 234 255
219 234 255
219 234 255
219 234 255
219 234 255
219 234 255
219 234 255
219 234 255
219 235 255
219 234 255
219 234 255
219 234 255
219 234 255
219 234 255
219 234 255
219 234 255
219 234 255
219 234 255
219 234 255
219 234 255
219 234 255
219 234 255
219 234 255
219 234 255
219 234 255
219 234 255
219 234 255
219 234 255
219 234 255
219 234 255
219 234 255
219 234 255
219 234 255
219 234 255
219 234 255
219 234 255
219 234 255
219 234 255
219 234 255
219 234 255
219 234 255
219 234 255
219 234 255
219 234 255
219 234 255
219 234 255
219 234 255
219 234 255
219 234 255
219 234 255
219 234 255
219 234 255
219 234 255
219 234 255
219 234 255
219 234 255
219 234 255
219 234 255
219 234 255
219 234 255
219 234 255
219 234 255
219 234 255
219 234 255
219 234 255
219 234 255
219 234 255
219 234 255
219 234 255
219 234 255
219 234 255
219 234 255
219 234 255
219 234 255
219 234 255
219 234 255
219 234 255
219 234 255
219 234 255
219 234 255
219 234 255
219 234 255
219 234 255
219 234 255
219 234 255
219 234 255
219 234 255
219 234 255
219 234 255
219 234 255
219 234 255
219 234 255
219 234 255
219 234 255
219 234 255
219 234 255
219 234 255
219 234 255
219 234 255
219 234 255
219 234 255
219 234 255
219 234 255
219 234 255
219 234 255
219 234 255
219 234 255
219 234 255
219 234 255
219 234 255
219 234 255
219 234 255
219 234 255
219 234 255
219 234 255
219 234 255
219 234 255
219 234 255
219 234 255
219 234 255
219 234 255
219 234 255
219 234 255
219 234 255
219 234 255
219 234 255
219 234 255
219 234 255
219 234 255
219 234 255
219 234 255
219 234 255
219 234 255
219 234 255
219 234 255
219 234 255
219 234 255
219 234 255
219 234 255
219 234 255
219 234 255
219 234 255
218 234 255
219 234 255
219 234 255
219 234 255
218 234 255
219 234 255
219 234 255
219 234 255
219 234 255
219 234 255
219 234 255
219 234 255
219 234 255
219 234 255
219 234 255
218 234 255
219 234 255
219 234 255
219 234 255
219 234 255
219 234 255
218 234 255
219 234 255
219 234 255
219 234 255
219 234 255
219 234 255
218 234 255
219 234 255
219 234 255
219 234 255
219 234 255
219 234 255
219 234 255
219 234 255
219 234 255
219 234 255
219 234 255
219 234 255
219 234 255
219 234 255
219 234 255
219 234 255
219 234 255
219 234 255
219 234 255
219 234 255
219 234 255
219 234 255
219 234 255
219 234 255
219 234 255
219 234 255
219 234 255
219 234 255
219 234 255
219 234 255
219 234 255
219 234 255
219 234 255
219 234 255
219 234 255
219 234 255
219 234 255
219 234 255
219 234 255
219 234 255
219 234 255
219 234 255
219 234 255
219 234 255
219 234 255
219 234 255
219 234 255
219 234 255
219 234 255
219 234 255
219 234 255
219 234 255
219 234 255
219 234 255
219 234 255
219 234 255
219 234 255
219 234 255
219 234 255
219 234 255
219 234 255
219 234 255
219 234 255
219 234 255
219 234 255
219 234 255
219 234 255
219 234 255
219 234 255
219 234 255
219 234 255
219 234 255
219 234 255
219 234 255
219 234 255
219 234 255
219 234 255
219 234 255
219 234 255
219 234 255
219 234 255
219 234 255
219 234 255
219 234 255
219 234 255
219 234 255
219 234 255
219 234 255
219 234 255
219 234 255
219 234 255
219 234 255
219 234 255
219 234 255
219 234 255
219 234 255
219 234 255
219 234 255
219 234 255
219 234 255
219 234 255
219 234 255
219 234 255
219 234 255
219 234 255
219 234 255
219 234 255
219 234 255
219 234 255
219 234 255
219 234 255
219 234 255
219 234 255
219 235 255
220 235 255
219 234 255
219 235 255
219 234 255
219 235 255
219 234 255
219 234 255
219 235 255
219 234 255
219 234 255
219 234 255
219 235 255
219 234 255
219 235 255
219 235 255
219 234 255
220 235 255
219 235 255
219 235 255
219 235 255
219 235 255
219 235 255
219 234 255
219 235 255
220 235 255
219 235 255
219 235 255
219 235 255
220 235 255
220 235 255
220 235 255
220 235 255
220 235 255
220 235 255
220 235 255
220 235 255
220 235 255
220 235 255
220 235 255
220 235 255
220 235 255
220 235 255
220 235 255
220 235 255
220 235 255
220 235 255
220 235 255
220 235 255
220 235 255
220 235 255
220 235 255
220 235 255
220 235 255
220 235 255
220 235 255
220 235 255
220 235 255
220 235 255
220 235 255
220 235 255
220 235 255
220 235 255
220 235 255
220 235 255
220 235 255
220 235 255
220 235 255
220 235 255
220 235 255
220 235 255
220 235 255
220 235 255
220 235 255
220 235 255
220 235 255
220 235 255
220 235 255
220 235 255
220 235 255
220 235 255
220 235 255
220 235 255
220 235 255
220 235 255
220 235 255
220 235 255
220 235 255
220 235 255
220 235 255
220 235 255
220 235 255
220 235 255
220 235 255
220 235 255
220 235 255
220 235 255
220 235 255
220 235 255
220 235 255
220 235 255
220 235 255
220 235 255
220 235 255
220 235 255
220 235 255
220 235 255
220 235 255
220 235 255
219 235 255
220 235 255
219 235 255
220 235 255
220 235 255
220 235 255
220 235 255
219 235 255
220 235 255
219 235 255
219 234 255
219 235 255
220 235 255
219 235 255
219 235 255
220 235 255
219 235 255
220 235 255
220 235 255
220 235 255
219 235 255
220 235 255
219 234 255
219 235 255
219 235 255
219 235 255
219 234 255
220 235 255
219 234 255
219 235 255
220 235 255
219 234 255
219 234 255
219 234 255
219 235 255
219 235 255
219 235 255
219 234 255
219 235 255
220 235 255
219 234 255
219 234 255
219 235 255
219 235 255
219 235 255
219 234 255
219 234 255
219 234 255
219 234 255
219 235 255
219 234 255
219 234 255
219 234 255
219 235 255
219 234 255
219 234 255
219 234 255
219 234 255
219 234 255
219 234 255
219 234 255
219 234 255
219 234 255
219 234 255
219 234 255
219 234 255
219 234 255
219 234 255
219 234 255
219 234 255
219 234 255
219 234 255
219 234 255
219 234 255
219 234 255
219 234 255
219 234 255
219 234 255
219 234 255
219 234 255
219 234 255
219 234 255
219 234 255
219 234 255
219 234 255
219 234 255
219 234 255
219 234 255
219 234 255
219 234 255
219 234 255
219 234 255
219 234 255
219 234 255
219 234 255
219 234 255
219 234 255
219 234 255
219 234 255
219 234 255
219 234 255
219 234 255
219 234 255
219 234 255
219 234 255
219 234 255
219 234 255
219 234 255
219 234 255
219 234 255
219 234 255
219 234 255
219 234 255
219 234 255
219 234 255
219 234 255
219 234 255
219 234 255
219 234 255
219 234 255
219 234 255
219 234 255
219 234 255
219 234 255
219 234 255
219 234 255
219 234 255
219 234 255
219 234 255
219 234 255
219 234 255
219 234 255
219 234 255
219 234 255
219 234 255
219 234 255
219 234 255
219 234 255
219 234 255
219 234 255
219 234 255
219 234 255
219 234 255
219 234 255
219 234 255
219 234 255
219 234 255
219 234 255
219 234 255
219 234 255
219 234 255
219 234 255
219 234 255
219 234 255
219 234 255
219 234 255
219 234 255
219 234 255
219 234 255
219 234 255
219 234 255
219 234 255
219 234 255
219 234 255
219 234 255
219 234 255
219 234 255
219 234 255
219 234 255
219 234 255
219 234 255
219 234 255
219 234 255
219 234 255
219 234 255
219 234 255
219 234 255
219 234 255
219 234 255
219 234 255
219 234 255
219 234 255
219 234 255
219 234 255
219 234 255
219 234 255
219 234 255
219 234 255
219 234 255
219 234 255
219 234 255
219 234 255
219 234 255
219 234 255
219 234 255
219 234 255
219 234 255
219 234 255
219 234 255
219 234 255
219 234 255
219 234 255
219 234 255
219 234 255
219 234 255
219 234 255
219 234 255
219 234 255
219 234 255
219 234 255
219 234 255
219 234 255
219 234 255
219 234 255
219 234 255
219 234 255
219 234 255
219 234 255
219 234 255
219 234 255
219 234 255
219 234 255
219 234 255
219 234 255
219 234 255
219 234 255
219 234 255
219 234 255
219 234 255
219 234 255
219 234 255
219 234 255
219 234 255
219 234 255
219 234 255
219 234 255
219 234 255
219 234 255
219 234 255
219 234 255
219 234 255
219 234 255
219 234 255
219 234 255
219 234 255
219 234 255
219 234 255
219 234 255
219 234 255
219 234 255
219 234 255
219 234 255
219 234 255
219 234 255
219 234 255
219 234 255
219 234 255
219 235 255
219 234 255
219 234 255
219 234 255
219 234 255
219 234 255
219 234 255
219 234 255
219 234 255
219 234 255
219 234 255
219 234 255
219 234 255
219 234 255
219 234 255
219 234 255
219 234 255
219 235 255
219 235 255
219 234 255
219 234 255
219 235 255
219 235 255
219 234 255
219 235 255
219 235 255
219 235 255
220 235 255
219 235 255
219 234 255
219 235 255
219 235 255
220 235 255
219 235 255
220 235 255
219 235 255
219 235 255
219 234 255
219 235 255
219 235 255
220 235 255
220 235 255
220 235 255
220 235 255
220 235 255
219 235 255
220 235 255
220 235 255
220 235 255
219 235 255
220 235 255
220 235 255
220 235 255
220 235 255
220 235 255
220 235 255
220 235 255
220 235 255
220 235 255
220 235 255
220 235 255
220 235 255
220 235 255
220 235 255
220 235 255
220 235 255
220 235 255
220 235 255
220 235 255
220 235 255
220 235 255
220 235 255
220 235 255
220 235 255
220 235 255
220 235 255
220 235 255
220 235 255
220 235 255
220 235 255
220 235 255
220 235 255
220 235 255
220 235 255
220 235 255
220 235 255
220 235 255
220 235 255
220 235 255
220 235 255
220 235 255
220 235 255
220 235 255
220 235 255
220 235 255
220 235 255
220 235 255
220 235 255
220 235 255
220 235 255
220 235 255
220 235 255
220 235 255
220 235 255
220 235 255
220 235 255
220 235 255
220 235 255
220 235 255
220 235 255
220 235 255
220 235 255
220 235 255
220 235 255
220 235 255
220 235 255
220 235 255
220 235 255
220 235 255
220 235 255
220 235 255
220 235 255
220 235 255
220 235 255
220 235 255
220 235 255
220 235 255
220 235 255
220 235 255
220 235 255
220 235 255
220 235 255
220 235 255
220 235 255
220 235 255
220 235 255
220 235 255
220 235 255
220 235 255
220 235 255
220 235 255
220 235 255
220 235 255
220 235 255
220 235 255
220 235 255
220 235 255
220 235 255
220 235 255
220 235 255
220 235 255
220 235 255
220 235 255
220 235 255
220 235 255
220 235 255
220 235 255
220 235 255
220 235 255
220 235 255
220 235 255
220 235 255
220 235 255
220 235 255
220 235 255
220 235 255
220 235 255
220 235 255
220 235 255
219 235 255
220 235 255
220 235 255
220 235 255
220 235 255
219 235 255
220 235 255
220 235 255
220 235 255
219 235 255
219 235 255
220 235 255
219 235 255
220 235 255
220 235 255
219 235 255
220 235 255
219 235 255
220 235 255
220 235 255
219 235 255
219 235 255
219 235 255
219 234 255
219 234 255
219 235 255
219 234 255
220 235 255
219 234 255
219 234 255
219 234 255
219 235 255
219 234 255
219 234 255
220 235 255
219 235 255
219 235 255
219 235 255
219 235 255
219 235 255
219 234 255
219 235 255
219 234 255
219 235 255
219 234 255
219 234 255
219 234 255
219 234 255
219 234 255
219 234 255
219 234 255
219 234 255
219 234 255
219 234 255
219 234 255
219 234 255
219 234 255
219 234 255
219 234 255
219 234 255
219 234 255
219 234 255
219 234 255
219 234 255
219 234 255
219 234 255
219 234 255
219 234 255
219 234 255
219 234 255
219 234 255
219 234 255
219 234 255
219 234 255
219 234 255
219 234 255
219 234 255
219 234 255
219 234 255
219 234 255
219 234 255
219 234 255
219 234 255
219 234 255
219 234 255
219 234 255
219 234 255
219 234 255
219 234 255
219 234 255
219 234 255
219 234 255
219 234 255
219 234 255
219 234 255
219 234 255
219 234 255
219 234 255
219 234 255
219 234 255
219 234 255
219 234 255
219 234 255
219 234 255
219 234 255
219 234 255
219 234 255
219 234 255
219 234 255
219 234 255
219 234 255
219 234 255
219 234 255
219 234 255
219 234 255
219 234 255
219 234 255
219 234 255
219 234 255
219 234 255
219 234 255
219 234 255
219 234 255
219 234 255
219 234 255
219 234 255
219 234 255
219 234 255
219 234 255
219 234 255
219 234 255
219 234 255
219 234 255
219 234 255
219 234 255
219 234 255
219 234 255
219 234 255
219 234 255
219 234 255
219 234 255
219 234 255
219 234 255
219 234 255
219 234 255
219 234 255
219 234 255
219 234 255
219 234 255
219 234 255
219 234 255
219 234 255
219 234 255
219 234 255
219 234 255
219 234 255
219 234 255
219 234 255
219 234 255
219 234 255
219 234 255
219 234 255
219 234 255
219 234 255
219 234 255
219 234 255
219 234 255
219 234 255
219 234 255
219 234 255
219 234 255
219 234 255
219 234 255
219 234 255
219 234 255
219 234 255
219 234 255
219 234 255
219 234 255
219 234 255
219 234 255
219 234 255
219 234 255
219 234 255
219 234 255
219 234 255
219 234 255
219 234 255
219 234 255
219 235 255
219 234 255
219 234 255
219 234 255
219 234 255
219 234 255
219 234 255
219 234 255
219 234 255
219 234 255
219 234 255
219 234 255
219 234 255
219 234 255
219 234 255
219 234 255
219 234 255
219 234 255
219 234 255
219 234 255
219 234 255
219 234 255
219 235 255
219 234 255
219 235 255
219 235 255
219 234 255
219 234 255
219 234 255
219 234 255
219 235 255
219 235 255
219 235 255
219 234 255
219 234 255
219 235 255
219 234 255
219 234 255
219 235 255
219 235 255
219 235 255
219 235 255
219 235 255
219 235 255
219 235 255
219 234 255
219 235 255
219 234 255
220 235 255
219 234 255
219 235 255
219 235 255
220 235 255
220 235 255
219 234 255
220 235 255
220 235 255
220 235 255
219 235 255
219 235 255
220 235 255
220 235 255
220 235 255
220 235 255
219 235 255
220 235 255
219 235 255
220 235 255
220 235 255
220 235 255
220 235 255
220 235 255
220 235 255
219 235 255
219 235 255
220 235 255
220 235 255
220 235 255
220 235 255
220 235 255
220 235 255
220 235 255
220 235 255
220 235 255
220 235 255
220 235 255
220 235 255
220 235 255
220 235 255
220 235 255
220 235 255
220 235 255
220 235 255
220 235 255
220 235 255
220 235 255
220 235 255
220 235 255
220 235 255
220 235 255
220 235 255
220 235 255
220 235 255
220 235 255
220 235 255
220 235 255
220 235 255
220 235 255
220 235 255
220 235 255
220 235 255
220 235 255
220 235 255
220 235 255
220 235 255
220 235 255
220 235 255
220 235 255
220 235 255
220 235 255
220 235 255
220 235 255
220 235 255
220 235 255
220 235 255
220 235 255
220 235 255
220 235 255
220 235 255
220 235 255
220 235 255
220 235 255
220 235 255
220 235 255
220 235 255
220 235 255
220 235 255
220 235 255
220 235 255
220 235 255
220 235 255
220 235 255
220 235 255
220 235 255
220 235 255
220 235 255
220 235 255
220 235 255
220 235 255
220 235 255
220 235 255
220 235 255
220 235 255
220 235 255
220 235 255
220 235 255
220 235 255
220 235 255
220 235 255
220 235 255
220 235 255
220 235 255
220 235 255
220 235 255
220 235 255
220 235 255
220 235 255
220 235 255
220 235 255
220 235 255
220 235 255
220 235 255
220 235 255
220 235 255
220 235 255
220 235 255
220 235 255
220 235 255
220 235 255
220 235 255
220 235 255
220 235 255
220 235 255
220 235 255
220 235 255
220 235 255
220 235 255
220 235 255
220 235 255
220 235 255
220 235 255
220 235 255
220 235 255
220 235 255
220 235 255
220 235 255
220 235 255
220 235 255
220 235 255
220 235 255
220 235 255
220 235 255
220 235 255
220 235 255
220 235 255
220 235 255
220 235 255
220 235 255
220 235 255
220 235 255
220 235 255
220 235 255
220 235 255
220 235 255
220 235 255
220 235 255
220 235 255
220 235 255
220 235 255
220 235 255
220 235 255
220 235 255
220 235 255
220 235 255
220 235 255
220 235 255
220 235 255
220 235 255
220 235 255
220 235 255
220 235 255
220 235 255
220 235 255
220 235 255
220 235 255
219 235 255
219 235 255
220 235 255
220 235 255
220 235 255
219 235 255
220 235 255
220 235 255
219 235 255
219 235 255
219 235 255
220 235 255
220 235 255
220 235 255
220 235 255
220 235 255
220 235 255
220 235 255
219 234 255
220 235 255
220 235 255
220 235 255
219 235 255
220 235 255
219 234 255
219 234 255
219 235 255
219 235 255
220 235 255
219 234 255
220 235 255
219 235 255
219 234 255
220 235 255
219 235 255
220 235 255
219 234 255
219 234 255
220 235 255
219 235 255
219 234 255
219 235 255
219 234 255
219 234 255
219 234 255
219 235 255
219 234 255
219 235 255
219 234 255
219 234 255
219 234 255
219 234 255
219 234 255
219 234 255
219 234 255
219 234 255
219 234 255
219 235 255
219 235 255
219 234 255
219 234 255
219 234 255
219 235 255
219 234 255
219 235 255
219 234 255
219 234 255
219 234 255
219 234 255
219 234 255
219 235 255
219 234 255
219 234 255
219 234 255
219 234 255
219 234 255
219 234 255
219 235 255
219 234 255
219 234 255
219 234 255
219 234 255
219 234 255
219 234 255
219 234 255
219 234 255
219 234 255
219 234 255
219 234 255
219 234 255
219 234 255
219 234 255
219 234 255
219 234 255
219 234 255
219 234 255
219 234 255
219 234 255
219 234 255
219 234 255
219 234 255
219 234 255
219 234 255
219 234 255
219 234 255
219 234 255
219 234 255
219 234 255
219 234 255
219 234 255
219 234 255
219 234 255
219 234 255
219 234 255
219 234 255
219 234 255
219 234 255
219 234 255
219 234 255
219 234 255
219 234 255
219 234 255
219 234 255
219 234 255
219 234 255
219 234 255
219 234 255
219 234 255
219 234 255
219 234 255
219 234 255
220 235 255
219 234 255
219 234 255
219 235 255
219 234 255
219 234 255
219 234 255
219 234 255
219 234 255
219 234 255
219 234 255
219 234 255
219 234 255
219 234 255
219 234 255
219 234 255
219 234 255
219 234 255
219 234 255
219 234 255
219 234 255
219 234 255
219 234 255
219 234 255
219 234 255
219 234 255
219 235 255
219 234 255
220 235 255
219 234 255
219 234 255
219 235 255
220 235 255
219 234 255
219 234 255
219 234 255
219 235 255
219 234 255
219 234 255
219 235 255
220 235 255
220 235 255
219 234 255
219 234 255
219 234 255
219 234 255
219 235 255
219 235 255
219 235 255
220 235 255
219 235 255
219 234 255
219 235 255
220 235 255
219 235 255
220 235 255
219 235 255
219 235 255
220 235 255
220 235 255
220 235 255
220 235 255
219 235 255
220 235 255
219 235 255
220 235 255
220 235 255
220 235 255
220 235 255
219 235 255
220 235 255
220 235 255
220 235 255
220 235 255
220 235 255
219 235 255
220 235 255
219 235 255
220 235 255
220 235 255
220 235 255
220 235 255
220 235 255
220 235 255
220 235 255
220 235 255
220 235 255
220 235 255
220 235 255
220 235 255
220 235 255
220 235 255
220 235 255
220 235 255
220 235 255
220 235 255
220 235 255
220 235 255
220 235 255
220 235 255
220 235 255
220 235 255
220 235 255
220 235 255
220 235 255
220 235 255
220 235 255
220 235 255
220 235 255
220 235 255
220 235 255
220 235 255
220 235 255
220 235 255
220 235 255
220 235 255
220 235 255
220 235 255
220 235 255
220 235 255
220 235 255
220 235 255
220 235 255
220 235 255
220 235 255
220 235 255
220 235 255
220 235 255
220 235 255
220 235 255
220 235 255
220 235 255
220 235 255
220 235 255
220 235 255
220 235 255
220 235 255
220 235 255
220 235 255
220 235 255
220 235 255
220 235 255
220 235 255
220 235 255
220 235 255
220 235 255
220 235 255
220 235 255
220 235 255
220 235 255
220 235 255
220 235 255
220 235 255
220 235 255
220 235 255
220 235 255
220 235 255
220 235 255
220 235 255
220 235 255
220 235 255
220 235 255
220 235 255
220 235 255
220 235 255
220 235 255
220 235 255
220 235 255
220 235 255
220 235 255
220 235 255
220 235 255
220 235 255
220 235 255
220 235 255
220 235 255
220 235 255
220 235 255
220 235 255
220 235 255
220 235 255
220 235 255
220 235 255
220 235 255
220 235 255
220 235 255
220 235 255
220 235 255
220 235 255
220 235 255
220 235 255
220 235 255
220 235 255
220 235 255
220 235 255
220 235 255
220 235 255
220 235 255
220 235 255
220 235 255
220 235 255
220 235 255
220 235 255
220 235 255
220 235 255
220 235 255
220 235 255
220 235 255
220 235 255
220 235 255
220 235 255
220 235 255
220 235 255
220 235 255
220 235 255
220 235 255
220 235 255
220 235 255
220 235 255
220 235 255
220 235 255
220 235 255
220 235 255
220 235 255
220 235 255
220 235 255
220 235 255
220 235 255
220 235 255
220 235 255
220 235 255
220 235 255
220 235 255
220 235 255
220 235 255
220 235 255
220 235 255
220 235 255
220 235 255
220 235 255
220 235 255
220 235 255
220 235 255
220 235 255
220 235 255
220 235 255
220 235 255
220 235 255
220 235 255
220 235 255
220 235 255
220 235 255
220 235 255
220 235 255
220 235 255
220 235 255
220 235 255
220 235 255
220 235 255
220 235 255
220 235 255
220 235 255
220 235 255
220 235 255
220 235 255
220 235 255
220 235 255
220 235 255
220 235 255
220 235 255
220 235 255
220 235 255
220 235 255
220 235 255
220 235 255
220 235 255
220 235 255
220 235 255
220 235 255
220 235 255
220 235 255
220 235 255
220 235 255
220 235 255
220 235 255
220 235 255
220 235 255
220 235 255
220 235 255
220 235 255
220 235 255
220 235 255
220 235 255
220 235 255
220 235 255
219 235 255
220 235 255
220 235 255
220 235 255
220 235 255
219 235 255
220 235 255
220 235 255
220 235 255
220 235 255
220 235 255
220 235 255
220 235 255
220 235 255
220 235 255
220 235 255
220 235 255
219 235 255
220 235 255
220 235 255
220 235 255
220 235 255
220 235 255
220 235 255
220 235 255
220 235 255
220 235 255
220 235 255
220 235 255
220 235 255
219 235 255
220 235 255
219 235 255
219 235 255
220 235 255
219 234 255
220 235 255
220 235 255
220 235 255
220 235 255
220 235 255
220 235 255
220 235 255
220 235 255
220 235 255
219 235 255
220 235 255
219 235 255
219 235 255
219 234 255
220 235 255
220 235 255
219 234 255
220 235 255
219 234 255
219 234 255
219 235 255
219 234 255
220 235 255
220 235 255
219 235 255
220 235 255
220 235 255
220 235 255
219 235 255
219 235 255
219 235 255
219 234 255
219 235 255
219 235 255
219 235 255
219 234 255
219 235 255
219 235 255
219 235 255
219 235 255
219 235 255
219 234 255
219 234 255
219 234 255
220 235 255
219 235 255
219 234 255
220 235 255
220 235 255
220 235 255
219 234 255
219 235 255
219 235 255
219 235 255
219 235 255
219 234 255
219 234 255
220 235 255
220 235 255
219 234 255
220 235 255
219 235 255
219 235 255
219 234 255
219 235 255
220 235 255
219 234 255
219 234 255
220 235 255
220 235 255
220 235 255
219 235 255
219 235 255
220 235 255
219 234 255
220 235 255
220 235 255
219 234 255
220 235 255
219 235 255
220 235 255
219 234 255
219 235 255
220 235 255
219 235 255
219 235 255
220 235 255
219 235 255
219 235 255
220 235 255
219 235 255
219 234 255
220 235 255
220 235 255
220 235 255
220 235 255
219 235 255
220 235 255
220 235 255
220 235 255
219 235 255
219 235 255
220 235 255
220 235 255
220 235 255
220 235 255
219 235 255
219 235 255
219 235 255
220 235 255
220 235 255
220 235 255
220 235 255
219 235 255
220 235 255
220 235 255
220 235 255
220 235 255
220 235 255
220 235 255
220 235 255
220 235 255
220 235 255
220 235 255
220 235 255
220 235 255
220 235 255
220 235 255
220 235 255
220 235 255
220 235 255
220 235 255
220 235 255
220 235 255
220 235 255
220 235 255
219 235 255
220 235 255
220 235 255
220 235 255
220 235 255
220 235 255
220 235 255
220 235 255
220 235 255
220 235 255
220 235 255
220 235 255
220 235 255
220 235 255
220 235 255
220 235 255
220 235 255
220 235 255
220 235 255
220 235 255
220 235 255
220 235 255
220 235 255
220 235 255
220 235 255
220 235 255
220 235 255
220 235 255
220 235 255
220 235 255
220 235 255
220 235 255
220 235 255
220 235 255
220 235 255
220 235 255
220 235 255
220 235 255
220 235 255
220 235 255
220 235 255
220 235 255
220 235 255
220 235 255
220 235 255
220 235 255
220 235 255
220 235 255
220 235 255
220 235 255
220 235 255
220 235 255
220 235 255
220 235 255
220 235 255
220 235 255
220 235 255
220 235 255
220 235 255
220 235 255
220 235 255
220 235 255
220 235 255
220 235 255
220 235 255
220 235 255
220 235 255
220 235 255
220 235 255
220 235 255
220 235 255
220 235 255
220 235 255
220 235 255
220 235 255
220 235 255
220 235 255
220 235 255
220 235 255
220 235 255
220 235 255
220 235 255
220 235 255
220 235 255
220 235 255
220 235 255
220 235 255
220 235 255
220 235 255
220 235 255
220 235 255
220 235 255
220 235 255
220 235 255
220 235 255
220 235 255
220 235 255
220 235 255
220 235 255
220 235 255
220 235 255
220 235 255
220 235 255
220 235 255
220 235 255
220 235 255
220 235 255
220 235 255
220 235 255
220 235 255
220 235 255
220 235 255
220 235 255
220 235 255
220 235 255
220 235 255
220 235 255
220 235 255
220 235 255
220 235 255
220 235 255
220 235 255
220 235 255
220 235 255
220 235 255
220 235 255
220 235 255
220 235 255
220 235 255
220 235 255
220 235 255
220 235 255
220 235 255
220 235 255
220 235 255
220 235 255
220 235 255
220 235 255
220 235 255
220 235 255
220 235 255
220 235 255
220 235 255
220 235 255
220 235 255
220 235 255
220 235 255
220 235 255
220 235 255
220 235 255
220 235 255
220 235 255
220 235 255
220 235 255
220 235 255
220 235 255
220 235 255
220 235 255
220 235 255
220 235 255
220 235 255
220 235 255
220 235 255
220 235 255
220 235 255
220 235 255
220 235 255
220 235 255
220 235 255
220 235 255
220 235 255
220 235 255
220 235 255
220 235 255
220 235 255
220 235 255
220 235 255
220 235 255
220 235 255
220 235 255
220 235 255
220 235 255
220 235 255
220 235 255
220 235 255
220 235 255
220 235 255
220 235 255
220 235 255
220 235 255
220 235 255
220 235 255
220 235 255
220 235 255
220 235 255
220 235 255
220 235 255
220 235 255
220 235 255
220 235 255
220 235 255
220 235 255
220 235 255
220 235 255
220 235 255
220 235 255
220 235 255
220 235 255
220 235 255
220 235 255
220 235 255
220 235 255
220 235 255
220 235 255
220 235 255
220 235 255
220 235 255
220 235 255
220 235 255
220 235 255
220 235 255
220 235 255
220 235 255
220 235 255
220 235 255
220 235 255
220 235 255
220 235 255
220 235 255
220 235 255
220 235 255
220 235 255
220 235 255
220 235 255
220 235 255
220 235 255
220 235 255
220 235 255
220 235 255
220 235 255
220 235 255
220 235 255
220 235 255
220 235 255
220 235 255
220 235 255
220 235 255
220 235 255
220 235 255
220 235 255
220 235 255
220 235 255
220 235 255
220 235 255
220 235 255
220 235 255
220 235 255
220 235 255
220 235 255
220 235 255
220 235 255
220 235 255
220 235 255
220 235 255
220 235 255
220 235 255
220 235 255
220 235 255
220 235 255
220 235 255
220 235 255
220 235 255
220 235 255
220 235 255
220 235 255
220 235 255
220 235 255
220 235 255
220 235 255
220 235 255
220 235 255
220 235 255
220 235 255
220 235 255
220 235 255
220 235 255
220 235 255
220 235 255
220 235 255
220 235 255
220 235 255
220 235 255
220 235 255
220 235 255
220 235 255
220 235 255
220 235 255
220 235 255
220 235 255
220 235 255
220 235 255
220 235 255
219 235 255
220 235 255
220 235 255
220 235 255
220 235 255
220 235 255
220 235 255
220 235 255
220 235 255
219 235 255
220 235 255
220 235 255
220 235 255
220 235 255
220 235 255
220 235 255
220 235 255
220 235 255
220 235 255
220 235 255
220 235 255
220 235 255
220 235 255
220 235 255
220 235 255
220 235 255
220 235 255
220 235 255
220 235 255
220 235 255
220 235 255
220 235 255
220 235 255
220 235 255
220 235 255
220 235 255
220 235 255
220 235 255
220 235 255
220 235 255
220 235 255
220 235 255
220 235 255
220 235 255
220 235 255
220 235 255
220 235 255
220 235 255
220 235 255
220 235 255
220 235 255
220 235 255
220 235 255
220 235 255
220 235 255
220 235 255
220 235 255
220 235 255
220 235 255
220 235 255
220 235 255
220 235 255
220 235 255
220 235 255
220 235 255
220 235 255
220 235 255
220 235 255
220 235 255
220 235 255
220 235 255
220 235 255
220 235 255
220 235 255
220 235 255
220 235 255
220 235 255
220 235 255
220 235 255
220 235 255
220 235 255
220 235 255
220 235 255
220 235 255
220 235 255
220 235 255
220 235 255
220 235 255
220 235 255
220 235 255
220 235 255
220 235 255
220 235 255
220 235 255
220 235 255
220 235 255
220 235 255
220 235 255
220 235 255
220 235 255
220 235 255
220 235 255
220 235 255
220 235 255
220 235 255
220 235 255
220 235 255
220 235 255
220 235 255
220 235 255
220 235 255
220 235 255
220 235 255
220 235 255
220 235 255
220 235 255
220 235 255
220 235 255
220 235 255
220 235 255
220 235 255
220 235 255
220 235 255
220 235 255
220 235 255
220 235 255
220 235 255
220 235 255
220 235 255
220 235 255
220 235 255
220 235 255
220 235 255
220 235 255
220 235 255
220 235 255
220 235 255
220 235 255
220 235 255
220 235 255
220 235 255
220 235 255
220 235 255
220 235 255
220 235 255
220 235 255
220 235 255
220 235 255
220 235 255
220 235 255
220 235 255
220 235 255
220 235 255
220 235 255
220 235 255
220 235 255
220 235 255
220 235 255
220 235 255
220 235 255
220 235 255
220 235 255
220 235 255
220 235 255
220 235 255
220 235 255
220 235 255
220 235 255
220 235 255
220 235 255
220 235 255
220 235 255
220 235 255
220 235 255
220 235 255
220 235 255
220 235 255
220 235 255
220 235 255
220 235 255
220 235 255
220 235 255
220 235 255
220 235 255
220 235 255
220 235 255
220 235 255
220 235 255
220 235 255
220 235 255
220 235 255
220 235 255
220 235 255
220 235 255
220 235 255
220 235 255
220 235 255
220 235 255
220 235 255
220 235 255
220 235 255
220 235 255
220 235 255
220 235 255
220 235 255
220 235 255
220 235 255
220 235 255
220 235 255
220 235 255
220 235 255
220 235 255
220 235 255
221 235 255
220 235 255
220 235 255
220 235 255
220 235 255
220 235 255
220 235 255
220 235 255
220 235 255
220 235 255
220 235 255
220 235 255
220 235 255
220 235 255
220 235 255
220 235 255
220 235 255
220 235 255
220 235 255
220 235 255
220 235 255
220 235 255
220 235 255
220 235 255
220 235 255
220 235 255
220 235 255
220 235 255
220 235 255
220 235 255
220 235 255
220 235 255
220 235 255
220 235 255
220 235 255
220 235 255
220 235 255
220 235 255
220 235 255
220 235 255
220 235 255
220 235 255
220 235 255
220 235 255
220 235 255
220 235 255
220 235 255
220 235 255
220 235 255
220 235 255
220 235 255
220 235 255
220 235 255
220 235 255
220 235 255
220 235 255
220 235 255
220 235 255
220 235 255
220 235 255
220 235 255
220 235 255
220 235 255
220 235 255
220 235 255
220 235 255
220 235 255
220 235 255
220 235 255
220 235 255
220 235 255
220 235 255
220 235 255
220 235 255
220 235 255
220 235 255
220 235 255
220 235 255
220 235 255
220 235 255
220 235 255
220 235 255
220 235 255
220 235 255
220 235 255
220 235 255
220 235 255
220 235 255
220 235 255
220 235 255
220 235 255
220 235 255
220 235 255
220 235 255
220 235 255
220 235 255
220 235 255
220 235 255
220 235 255
220 235 255
220 235 255
220 235 255
220 235 255
220 235 255
220 235 255
220 235 255
220 235 255
220 235 255
220 235 255
220 235 255
220 235 255
220 235 255
220 235 255
220 235 255
220 235 255
220 235 255
220 235 255
220 235 255
220 235 255
220 235 255
220 235 255
220 235 255
220 235 255
220 235 255
220 235 255
220 235 255
220 235 255
220 235 255
220 235 255
220 235 255
220 235 255
220 235 255
220 235 255
220 235 255
220 235 255
220 235 255
220 235 255
220 235 255
220 235 255
220 235 255
220 235 255
220 235 255
220 235 255
220 235 255
220 235 255
220 235 255
220 235 255
220 235 255
220 235 255
220 235 255
220 235 255
220 235 255
220 235 255
220 235 255
220 235 255
220 235 255
220 235 255
220 235 255
220 235 255
220 235 255
220 235 255
220 235 255
220 235 255
220 235 255
220 235 255
220 235 255
220 235 255
220 235 255
220 235 255
220 235 255
220 235 255
220 235 255
220 235 255
220 235 255
220 235 255
220 235 255
220 235 255
220 235 255
220 235 255
220 235 255
220 235 255
220 235 255
220 235 255
220 235 255
220 235 255
220 235 255
220 235 255
220 235 255
220 235 255
220 235 255
220 235 255
220 235 255
220 235 255
220 235 255
220 235 255
220 235 255
220 235 255
220 235 255
220 235 255
220 235 255
220 235 255
220 235 255
220 235 255
220 235 255
220 235 255
220 235 255
220 235 255
220 235 255
220 235 255
220 235 255
220 235 255
220 235 255
220 235 255
220 235 255
220 235 255
220 235 255
220 235 255
220 235 255
220 235 255
220 235 255
220 235 255
220 235 255
220 235 255
220 235 255
220 235 255
220 235 255
220 235 255
220 235 255
220 235 255
220 235 255
220 235 255
220 235 255
220 235 255
220 235 255
220 235 255
220 235 255
220 235 255
220 235 255
220 235 255
220 235 255
220 235 255
220 235 255
220 235 255
220 235 255
220 235 255
220 235 255
220 235 255
220 235 255
220 235 255
220 235 255
220 235 255
220 235 255
220 235 255
220 235 255
220 235 255
220 235 255
220 235 255
220 235 255
220 235 255
220 235 255
220 235 255
220 235 255
220 235 255
220 235 255
220 235 255
220 235 255
220 235 255
220 235 255
220 235 255
220 235 255
220 235 255
220 235 255
220 235 255
220 235 255
220 235 255
220 235 255
220 235 255
220 235 255
220 235 255
220 235 255
220 235 255
220 235 255
220 235 255
220 235 255
220 235 255
220 235 255
220 235 255
220 235 255
220 235 255
220 235 255
220 235 255
220 235 255
220 235 255
220 235 255
220 235 255
220 235 255
220 235 255
220 235 255
220 235 255
220 235 255
220 235 255
220 235 255
220 235 255
220 235 255
220 235 255
220 235 255
220 235 255
220 235 255
220 235 255
220 235 255
220 235 255
220 235 255
220 235 255
220 235 255
220 235 255
220 235 255
220 235 255
220 235 255
220 235 255
220 235 255
220 235 255
220 235 255
220 235 255
220 235 255
220 235 255
220 235 255
220 235 255
220 235 255
220 235 255
220 235 255
220 235 255
220 235 255
220 235 255
220 235 255
220 235 255
220 235 255
220 235 255
220 235 255
220 235 255
220 235 255
220 235 255
220 235 255
220 235 255
220 235 255
220 235 255
220 235 255
220 235 255
220 235 255
220 235 255
220 235 255
220 235 255
220 235 255
220 235 255
220 235 255
220 235 255
220 235 255
220 235 255
220 235 255
220 235 255
220 235 255
220 235 255
220 235 255
220 235 255
220 235 255
220 235 255
220 235 255
220 235 255
220 235 255
220 235 255
220 235 255
220 235 255
220 235 255
220 235 255
220 235 255
220 235 255
220 235 255
220 235 255
220 235 255
220 235 255
220 235 255
220 235 255
220 235 255
220 235 255
220 235 255
220 235 255
220 235 255
220 235 255
220 235 255
220 235 255
220 235 255
220 235 255
220 235 255
220 235 255
220 235 255
221 235 255
221 235 255
221 235 255
220 235 255
221 235 255
221 235 255
220 235 255
221 235 255
221 235 255
220 235 255
221 235 255
221 235 255
220 235 255
220 235 255
220 235 255
220 235 255
221 235 255
221 235 255
220 235 255
221 235 255
221 235 255
220 235 255
221 235 255
221 235 255
220 235 255
220 235 255
221 235 255
220 235 255
220 235 255
220 235 255
221 235 255
220 235 255
220 235 255
220 235 255
220 235 255
220 235 255
220 235 255
220 235 255
220 235 255
220 235 255
220 235 255
221 235 255
221 235 255
220 235 255
220 235 255
221 235 255
221 235 255
220 235 255
220 235 255
220 235 255
220 235 255
220 235 255
220 235 255
220 235 255
220 235 255
220 235 255
220 235 255
220 235 255
220 235 255
220 235 255
220 235 255
220 235 255
220 235 255
220 235 255
220 235 255
220 235 255
220 235 255
220 235 255
220 235 255
220 235 255
220 235 255
220 235 255
220 235 255
220 235 255
220 235 255
220 235 255
220 235 255
220 235 255
220 235 255
220 235 255
220 235 255
220 235 255
220 235 255
220 235 255
220 235 255
220 235 255
220 235 255
220 235 255
220 235 255
220 235 255
220 235 255
220 235 255
220 235 255
220 235 255
220 235 255
220 235 255
220 235 255
220 235 255
220 235 255
220 235 255
220 235 255
220 235 255
220 235 255
220 235 255
220 235 255
220 235 255
220 235 255
220 235 255
220 235 255
220 235 255
220 235 255
220 235 255
220 235 255
220 235 255
220 235 255
220 235 255
220 235 255
220 235 255
220 235 255
220 235 255
220 235 255
220 235 255
220 235 255
220 235 255
220 235 255
220 235 255
220 235 255
220 235 255
220 235 255
220 235 255
220 235 255
220 235 255
220 235 255
220 235 255
220 235 255
220 235 255
220 235 255
220 235 255
220 235 255
220 235 255
220 235 255
220 235 255
220 235 255
220 235 255
220 235 255
220 235 255
220 235 255
220 235 255
220 235 255
220 235 255
220 235 255
220 235 255
220 235 255
220 235 255
220 235 255
220 235 255
220 235 255
220 235 255
220 235 255
220 235 255
220 235 255
220 235 255
220 235 255
220 235 255
220 235 255
220 235 255
220 235 255
220 235 255
220 235 255
220 235 255
220 235 255
220 235 255
220 235 255
220 235 255
220 235 255
220 235 255
220 235 255
220 235 255
220 235 255
220 235 255
220 235 255
220 235 255
220 235 255
220 235 255
220 235 255
220 235 255
220 235 255
220 235 255
220 235 255
220 235 255
220 235 255
220 235 255
220 235 255
220 235 255
220 235 255
220 235 255
220 235 255
220 235 255
220 235 255
220 235 255
220 235 255
220 235 255
220 235 255
220 235 255
220 235 255
220 235 255
220 235 255
220 235 255
220 235 255
220 235 255
220 235 255
220 235 255
220 235 255
220 235 255
220 235 255
220 235 255
220 235 255
220 235 255
220 235 255
220 235 255
220 235 255
220 235 255
220 235 255
220 235 255
220 235 255
220 235 255
220 235 255
220 235 255
220 235 255
220 235 255
220 235 255
220 235 255
220 235 255
220 235 255
220 235 255
220 235 255
220 235 255
220 235 255
220 235 255
220 235 255
220 235 255
220 235 255
220 235 255
220 235 255
220 235 255
220 235 255
220 235 255
220 235 255
220 235 255
220 235 255
220 235 255
220 235 255
220 235 255
220 235 255
220 235 255
220 235 255
220 235 255
220 235 255
220 235 255
220 235 255
220 235 255
220 235 255
220 235 255
220 235 255
220 235 255
220 235 255
220 235 255
220 235 255
220 235 255
220 235 255
220 235 255
220 235 255
220 235 255
220 235 255
220 235 255
220 235 255
220 235 255
220 235 255
220 235 255
220 235 255
220 235 255
220 235 255
220 235 255
220 235 255
220 235 255
220 235 255
220 235 255
220 235 255
220 235 255
220 235 255
220 235 255
220 235 255
220 235 255
220 235 255
220 235 255
220 235 255
220 235 255
220 235 255
220 235 255
220 235 255
220 235 255
220 235 255
220 235 255
220 235 255
220 235 255
220 235 255
220 235 255
220 235 255
220 235 255
220 235 255
220 235 255
220 235 255
220 235 255
220 235 255
220 235 255
220 235 255
220 235 255
220 235 255
220 235 255
220 235 255
220 235 255
220 235 255
221 235 255
220 235 255
220 235 255
220 235 255
220 235 255
220 235 255
220 235 255
220 235 255
220 235 255
220 235 255
220 235 255
220 235 255
220 235 255
220 235 255
220 235 255
220 235 255
221 235 255
221 235 255
220 235 255
220 235 255
220 235 255
220 235 255
220 235 255
220 235 255
220 235 255
220 235 255
220 235 255
220 235 255
220 235 255
220 235 255
220 235 255
221 235 255
220 235 255
220 235 255
220 235 255
220 235 255
220 235 255
220 235 255
220 235 255
220 235 255
220 235 255
220 235 255
221 235 255
220 235 255
221 235 255
220 235 255
220 235 255
220 235 255
221 235 255
220 235 255
220 235 255
221 235 255
220 235 255
220 235 255
220 235 255
221 235 255
220 235 255
220 235 255
221 235 255
220 235 255
221 235 255
220 235 255
220 235 255
221 235 255
220 235 255
220 235 255
221 235 255
221 235 255
221 235 255
220 235 255
220 235 255
220 235 255
221 235 255
220 235 255
221 235 255
221 235 255
221 235 255
221 235 255
221 235 255
221 235 255
221 235 255
221 235 255
221 235 255
221 235 255
221 235 255
221 235 255
221 235 255
221 235 255
221 235 255
221 235 255
221 235 255
221 235 255
221 235 255
220 235 255
221 235 255
221 235 255
220 235 255
221 235 255
221 235 255
221 235 255
221 235 255
221 235 255
221 235 255
221 235 255
221 235 255
221 235 255
221 235 255
220 235 255
221 235 255
221 235 255
221 235 255
221 235 255
221 235 255
221 235 255
221 235 255
220 235 255
221 235 255
221 235 255
221 235 255
221 235 255
221 235 255
220 235 255
221 235 255
221 235 255
220 235 255
220 235 255
221 235 255
221 235 255
221 235 255
221 235 255
221 235 255
221 235 255
221 235 255
221 235 255
221 235 255
221 235 255
220 235 255
220 235 255
220 235 255
220 235 255
221 235 255
221 235 255
221 235 255
220 235 255
221 235 255
220 235 255
220 235 255
221 235 255
220 235 255
220 235 255
221 235 255
221 235 255
221 235 255
221 235 255
220 235 255
220 235 255
220 235 255
220 235 255
221 235 255
221 235 255
220 235 255
220 235 255
220 235 255
221 235 255
220 235 255
221 235 255
220 235 255
220 235 255
221 235 255
221 235 255
220 235 255
220 235 255
220 235 255
220 235 255
221 235 255
220 235 255
221 235 255
220 235 255
221 235 255
221 235 255
221 235 255
221 235 255
220 235 255
221 235 255
221 235 255
221 235 255
220 235 255
220 235 255
220 235 255
220 235 255
220 235 255
221 235 255
221 235 255
220 235 255
220 235 255
220 235 255
220 235 255
220 235 255
220 235 255
220 235 255
220 235 255
220 235 255
220 235 255
220 235 255
220 235 255
220 235 255
220 235 255
220 235 255
220 235 255
220 235 255
220 235 255
220 235 255
220 235 255
220 235 255
220 235 255
220 235 255
220 235 255
220 235 255
220 235 255
220 235 255
220 235 255
220 235 255
220 235 255
220 235 255
220 235 255
220 235 255
220 235 255
220 235 255
220 235 255
220 235 255
220 235 255
220 235 255
220 235 255
220 235 255
220 235 255
220 235 255
220 235 255
220 235 255
220 235 255
220 235 255
220 235 255
220 235 255
220 235 255
220 235 255
220 235 255
220 235 255
220 235 255
220 235 255
220 235 255
220 235 255
220 235 255
220 235 255
220 235 255
220 235 255
220 235 255
220 235 255
220 235 255
220 235 255
220 235 255
220 235 255
220 235 255
220 235 255
220 235 255
220 235 255
220 235 255
220 235 255
220 235 255
220 235 255
220 235 255
220 235 255
221 235 255
220 235 255
220 235 255
220 235 255
220 235 255
220 235 255
220 235 255
220 235 255
220 235 255
220 235 255
220 235 255
220 235 255
220 235 255
220 235 255
220 235 255
220 235 255
220 235 255
220 235 255
220 235 255
220 235 255
220 235 255
220 235 255
220 235 255
220 235 255
220 235 255
220 235 255
220 235 255
220 235 255
220 235 255
220 235 255
220 235 255
220 235 255
220 235 255
220 235 255
220 235 255
220 235 255
220 235 255
220 235 255
220 235 255
220 235 255
220 235 255
220 235 255
220 235 255
220 235 255
220 235 255
220 235 255
220 235 255
220 235 255
220 235 255
220 235 255
220 235 255
220 235 255
220 235 255
220 235 255
220 235 255
220 235 255
220 235 255
220 235 255
220 235 255
220 235 255
220 235 255
220 235 255
220 235 255
220 235 255
220 235 255
220 235 255
220 235 255
220 235 255
220 235 255
220 235 255
220 235 255
220 235 255
220 235 255
220 235 255
220 235 255
220 235 255
220 235 255
220 235 255
220 235 255
220 235 255
220 235 255
220 235 255
220 235 255
221 235 255
220 235 255
220 235 255
220 235 255
220 235 255
220 235 255
220 235 255
221 235 255
220 235 255
220 235 255
221 235 255
220 235 255
220 235 255
220 235 255
220 235 255
221 235 255
221 235 255
220 235 255
221 235 255
220 235 255
220 235 255
220 235 255
220 235 255
220 235 255
220 235 255
220 235 255
220 235 255
221 235 255
221 235 255
220 235 255
220 235 255
221 235 255
220 235 255
221 235 255
220 235 255
220 235 255
221 235 255
220 235 255
221 235 255
221 235 255
221 235 255
221 235 255
220 235 255
220 235 255
220 235 255
220 235 255
221 235 255
220 235 255
220 235 255
220 235 255
220 235 255
220 235 255
220 235 255
221 235 255
221 235 255
220 235 255
220 235 255
221 235 255
221 235 255
221 235 255
221 235 255
220 235 255
221 235 255
221 235 255
220 235 255
220 235 255
221 235 255
220 235 255
221 235 255
220 235 255
221 235 255
221 235 255
220 235 255
221 235 255
220 235 255
220 235 255
221 235 255
221 235 255
220 235 255
221 235 255
221 235 255
221 235 255
221 235 255
220 235 255
221 235 255
220 235 255
221 235 255
221 235 255
221 235 255
221 235 255
221 235 255
221 235 255
221 235 255
221 235 255
221 235 255
221 235 255
221 235 255
220 235 255
221 235 255
220 235 255
221 235 255
221 235 255
221 235 255
221 235 255
221 235 255
221 235 255
221 235 255
221 235 255
221 235 255
221 235 255
221 235 255
221 235 255
221 235 255
221 235 255
221 235 255
221 235 255
221 235 255
221 235 255
221 235 255
221 235 255
221 235 255
221 235 255
221 235 255
221 235 255
221 235 255
221 235 255
221 235 255
221 235 255
221 235 255
221 235 255
221 235 255
221 235 255
221 235 255
221 235 255
221 235 255
221 235 255
221 235 255
221 235 255
221 235 255
221 235 255
221 235 255
221 235 255
221 235 255
221 235 255
221 235 255
221 235 255
221 235 255
221 235 255
221 235 255
221 235 255
221 235 255
221 235 255
221 235 255
221 235 255
221 235 255
221 235 255
221 235 255
221 235 255
221 235 255
221 235 255
221 235 255
221 235 255
221 235 255
221 235 255
221 235 255
221 235 255
221 235 255
221 235 255
221 235 255
221 235 255
221 235 255
221 235 255
221 235 255
221 235 255
221 235 255
221 235 255
221 235 255
221 235 255
221 235 255
221 235 255
221 235 255
221 235 255
221 235 255
221 235 255
221 235 255
221 235 255
221 235 255
221 235 255
221 235 255
221 235 255
221 235 255
221 235 255
221 235 255
221 235 255
221 235 255
221 235 255
221 235 255
221 235 255
221 235 255
221 235 255
221 235 255
220 235 255
221 235 255
220 235 255
221 235 255
221 235 255
221 235 255
221 235 255
221 235 255
221 235 255
221 235 255
221 235 255
221 235 255
221 235 255
220 235 255
221 235 255
221 235 255
221 235 255
221 235 255
221 235 255
221 235 255
221 235 255
220 235 255
221 235 255
221 235 255
221 235 255
221 235 255
221 235 255
220 235 255
220 235 255
221 235 255
220 235 255
220 235 255
221 235 255
221 235 255
221 235 255
221 235 255
221 235 255
221 235 255
221 235 255
221 235 255
221 235 255
221 235 255
220 235 255
221 235 255
220 235 255
221 235 255
221 235 255
221 235 255
221 235 255
221 235 255
220 235 255
220 235 255
220 235 255
221 235 255
221 235 255
220 235 255
220 235 255
221 235 255
221 235 255
221 235 255
221 235 255
221 235 255
220 235 255
220 235 255
221 235 255
221 235 255
220 235 255
221 235 255
221 235 255
221 235 255
221 235 255
220 235 255
220 235 255
221 235 255
221 235 255
221 235 255
221 235 255
221 235 255
220 235 255
221 235 255
220 235 255
220 235 255
220 235 255
221 235 255
221 235 255
220 235 255
221 235 255
220 235 255
220 235 255
220 235 255
220 235 255
221 235 255
220 235 255
221 235 255
221 235 255
220 235 255
220 235 255
221 235 255
220 235 255
220 235 255
221 235 255
220 235 255
221 235 255
220 235 255
220 235 255
220 235 255
220 235 255
220 235 255
221 235 255
221 235 255
221 235 255
220 235 255
220 235 255
220 235 255
221 235 255
221 235 255
220 235 255
220 235 255
220 235 255
221 235 255
221 235 255
220 235 255
221 235 255
221 235 255
221 235 255
220 235 255
221 235 255
220 235 255
220 235 255
220 235 255
221 235 255
221 235 255
220 235 255
221 235 255
220 235 255
221 235 255
220 235 255
221 235 255
220 235 255
220 235 255
220 235 255
220 235 255
221 235 255
220 235 255
221 235 255
220 235 255
220 235 255
221 235 255
221 235 255
221 235 255
221 235 255
221 235 255
220 235 255
221 235 255
221 235 255
221 235 255
220 235 255
221 235 255
221 235 255
221 235 255
221 235 255
221 235 255
221 235 255
221 235 255
220 235 255
220 235 255
221 235 255
220 235 255
221 235 255
221 235 255
221 235 255
221 235 255
220 235 255
220 235 255
221 235 255
221 235 255
221 235 255
221 235 255
221 235 255
220 235 255
220 235 255
220 235 255
221 235 255
220 235 255
221 235 255
221 235 255
221 235 255
221 235 255
221 235 255
221 235 255
221 235 255
221 235 255
220 235 255
221 235 255
221 235 255
220 235 255
220 235 255
220 235 255
221 235 255
221 235 255
221 235 255
221 235 255
221 235 255
221 235 255
221 235 255
221 235 255
221 235 255
221 235 255
220 235 255
221 235 255
221 235 255
221 235 255
220 235 255
221 235 255
221 235 255
221 235 255
221 235 255
221 235 255
221 235 255
221 235 255
221 235 255
221 235 255
221 235 255
221 235 255
221 235 255
221 235 255
221 235 255
221 235 255
221 235 255
221 235 255
221 235 255
221 235 255
221 235 255
221 235 255
221 235 255
221 235 255
221 235 255
221 235 255
221 235 255
221 235 255
221 235 255
221 235 255
221 235 255
221 235 255
221 235 255
221 235 255
221 235 255
221 235 255
221 235 255
221 235 255
221 235 255
221 235 255
221 235 255
221 235 255
221 235 255
221 235 255
221 235 255
221 235 255
221 235 255
221 235 255
221 235 255
221 235 255
221 235 255
221 235 255
221 235 255
221 235 255
221 235 255
221 235 255
221 235 255
221 235 255
221 235 255
221 235 255
221 235 255
221 235 255
221 235 255
221 235 255
221 235 255
221 235 255
221 235 255
221 235 255
221 235 255
221 235 255
221 235 255
221 235 255
221 235 255
221 235 255
221 235 255
221 235 255
221 235 255
221 235 255
221 235 255
221 235 255
221 235 255
221 235 255
221 235 255
221 235 255
221 235 255
221 235 255
221 235 255
221 235 255
221 235 255
221 235 255
221 235 255
221 235 255
221 235 255
221 235 255
221 235 255
221 235 255
221 235 255
221 235 255
221 235 255
221 235 255
221 235 255
221 235 255
221 235 255
221 235 255
221 235 255
221 235 255
221 235 255
221 235 255
221 235 255
221 235 255
221 235 255
221 235 255
221 235 255
221 235 255
221 235 255
221 235 255
221 235 255
221 235 255
221 235 255
221 235 255
221 235 255
221 235 255
221 235 255
221 235 255
221 235 255
221 235 255
221 235 255
221 235 255
221 235 255
221 235 255
221 235 255
221 235 255
221 235 255
221 235 255
221 235 255
221 235 255
221 235 255
221 235 255
221 235 255
221 235 255
221 235 255
221 235 255
221 235 255
221 235 255
221 235 255
221 235 255
221 235 255
221 235 255
221 235 255
221 235 255
221 235 255
221 235 255
221 235 255
221 235 255
221 235 255
221 235 255
221 235 255
221 235 255
221 235 255
221 235 255
221 235 255
221 235 255
221 235 255
221 235 255
221 235 255
221 235 255
221 235 255
221 235 255
221 235 255
221 235 255
221 235 255
221 235 255
221 235 255
221 235 255
221 235 255
221 235 255
221 235 255
221 235 255
221 235 255
221 235 255
221 235 255
221 235 255
221 235 255
221 235 255
221 235 255
221 235 255
221 235 255
221 235 255
221 235 255
221 235 255
221 235 255
221 235 255
221 235 255
221 235 255
221 235 255
221 235 255
221 235 255
221 235 255
221 235 255
221 235 255
221 235 255
221 235 255
221 235 255
221 235 255
221 235 255
221 235 255
221 235 255
221 235 255
221 235 255
221 235 255
221 235 255
221 235 255
221 235 255
221 235 255
221 235 255
221 235 255
221 235 255
221 235 255
221 235 255
221 235 255
221 235 255
221 235 255
221 235 255
221 235 255
221 235 255
221 235 255
221 235 255
221 235 255
221 235 255
221 235 255
221 235 255
221 235 255
221 235 255
221 235 255
221 235 255
221 235 255
221 235 255
221 235 255
221 235 255
221 235 255
221 235 255
220 235 255
221 235 255
221 235 255
221 235 255
221 235 255
221 235 255
221 235 255
221 235 255
221 235 255
221 235 255
221 235 255
221 235 255
221 235 255
221 235 255
221 235 255
221 235 255
221 235 255
221 235 255
221 235 255
221 235 255
221 235 255
221 235 255
221 235 255
221 235 255
221 235 255
221 235 255
221 235 255
221 235 255
221 235 255
221 235 255
221 235 255
221 235 255
221 235 255
221 235 255
221 235 255
221 235 255
221 235 255
220 235 255
220 235 255
221 235 255
221 235 255
221 235 255
221 235 255
221 235 255
221 235 255
221 235 255
221 235 255
221 235 255
221 235 255
221 235 255
221 235 255
221 235 255
221 235 255
221 235 255
221 235 255
221 235 255
221 235 255
221 235 255
221 235 255
221 235 255
221 235 255
221 235 255
221 235 255
221 235 255
221 235 255
221 235 255
221 235 255
221 235 255
221 235 255
221 235 255
221 235 255
221 235 255
221 235 255
221 235 255
221 235 255
221 235 255
221 235 255
221 235 255
221 235 255
221 235 255
221 235 255
221 235 255
221 235 255
221 235 255
221 235 255
221 235 255
221 235 255
221 235 255
221 235 255
221 235 255
221 235 255
221 235 255
221 235 255
221 235 255
221 235 255
220 235 255
221 235 255
221 235 255
221 235 255
221 235 255
221 235 255
221 235 255
221 235 255
221 235 255
221 235 255
221 235 255
221 235 255
221 235 255
221 235 255
221 235 255
221 235 255
221 235 255
221 235 255
221 235 255
221 235 255
221 235 255
221 235 255
221 235 255
221 235 255
221 235 255
221 235 255
221 235 255
221 235 255
221 235 255
221 235 255
221 235 255
221 235 255
221 235 255
221 235 255
221 235 255
221 235 255
221 235 255
221 235 255
221 235 255
221 235 255
221 235 255
221 235 255
221 235 255
221 235 255
221 235 255
221 235 255
221 235 255
221 235 255
221 235 255
221 235 255
221 235 255
221 235 255
221 235 255
221 235 255
221 235 255
221 235 255
221 235 255
221 235 255
221 235 255
221 235 255
221 235 255
221 235 255
221 235 255
221 235 255
221 235 255
221 235 255
221 235 255
221 235 255
221 235 255
221 235 255
221 235 255
221 235 255
221 235 255
221 235 255
221 235 255
221 235 255
221 235 255
221 235 255
221 235 255
221 235 255
221 235 255
221 235 255
221 235 255
221 235 255
221 235 255
221 235 255
221 235 255
221 235 255
221 235 255
221 235 255
221 235 255
221 235 255
221 235 255
221 235 255
221 235 255
221 235 255
221 235 255
221 235 255
221 235 255
221 235 255
221 235 255
221 235 255
221 235 255
221 235 255
221 235 255
221 235 255
221 235 255
221 235 255
221 235 255
221 235 255
221 235 255
221 235 255
221 235 255
221 235 255
221 235 255
221 235 255
221 235 255
221 235 255
221 235 255
221 235 255
221 235 255
221 235 255
221 235 255
221 235 255
221 235 255
221 235 255
221 235 255
221 235 255
221 235 255
221 235 255
221 235 255
221 235 255
221 235 255
221 235 255
221 235 255
221 235 255
221 235 255
221 235 255
221 235 255
221 235 255
221 235 255
221 235 255
221 235 255
221 235 255
221 235 255
221 235 255
221 235 255
221 235 255
221 235 255
221 235 255
221 235 255
221 235 255
221 235 255
221 235 255
221 235 255
221 235 255
221 235 255
221 235 255
221 235 255
221 235 255
221 235 255
221 235 255
221 235 255
221 235 255
221 235 255
221 235 255
221 235 255
221 235 255
221 235 255
221 235 255
221 235 255
221 235 255
221 235 255
221 235 255
221 235 255
221 235 255
221 235 255
221 235 255
221 235 255
221 235 255
221 235 255
221 235 255
221 235 255
221 235 255
221 235 255
221 235 255
221 235 255
221 235 255
221 235 255
221 235 255
221 235 255
221 235 255
221 235 255
221 235 255
221 235 255
221 235 255
221 235 255
221 235 255
221 235 255
221 235 255
221 235 255
221 235 255
221 235 255
221 235 255
221 235 255
221 235 255
221 235 255
221 235 255
221 235 255
221 235 255
221 235 255
221 235 255
221 235 255
221 235 255
221 235 255
221 235 255
221 235 255
221 235 255
221 235 255
221 235 255
221 235 255
221 235 255
221 235 255
221 235 255
221 235 255
221 235 255
221 235 255
221 235 255
221 235 255
221 235 255
221 235 255
221 235 255
221 235 255
221 235 255
221 235 255
221 235 255
221 235 255
221 235 255
221 235 255
221 235 255
221 235 255
221 235 255
221 235 255
221 235 255
221 235 255
221 235 255
221 235 255
221 235 255
221 235 255
221 235 255
221 235 255
221 235 255
221 235 255
221 235 255
221 235 255
221 235 255
221 235 255
221 235 255
221 235 255
221 235 255
221 235 255
221 235 255
221 235 255
221 235 255
221 235 255
221 235 255
221 235 255
221 235 255
221 235 255
221 235 255
221 235 255
221 235 255
221 235 255
221 235 255
221 235 255
221 235 255
221 235 255
221 235 255
221 235 255
221 235 255
221 235 255
221 235 255
221 235 255
221 235 255
221 235 255
221 235 255
221 235 255
221 235 255
221 235 255
221 235 255
221 235 255
221 235 255
221 235 255
221 235 255
221 235 255
221 235 255
221 235 255
221 235 255
221 235 255
221 235 255
221 235 255
221 235 255
221 235 255
221 235 255
221 235 255
221 235 255
221 235 255
221 235 255
221 235 255
221 235 255
221 235 255
221 235 255
221 235 255
221 235 255
221 235 255
221 235 255
221 235 255
221 235 255
221 235 255
221 235 255
221 235 255
221 235 255
221 235 255
221 235 255
221 235 255
221 235 255
221 235 255
221 235 255
221 235 255
221 235 255
221 235 255
221 235 255
221 235 255
221 235 255
221 235 255
221 235 255
221 235 255
221 235 255
221 236 255
221 235 255
221 235 255
221 235 255
221 235 255
221 235 255
221 235 255
221 235 255
221 235 255
221 235 255
221 235 255
221 235 255
221 235 255
221 235 255
221 235 255
221 235 255
221 235 255
221 235 255
221 235 255
221 235 255
221 235 255
221 235 255
221 235 255
221 235 255
221 235 255
221 235 255
221 235 255
221 235 255
221 235 255
221 235 255
221 235 255
221 235 255
221 235 255
221 235 255
221 235 255
221 235 255
221 235 255
221 235 255
221 235 255
221 235 255
221 235 255
221 235 255
221 235 255
221 235 255
221 235 255
221 235 255
221 235 255
221 235 255
221 235 255
221 235 255
221 235 255
221 235 255
221 235 255
221 235 255
221 235 255
221 235 255
221 235 255
221 235 255
221 235 255
221 235 255
221 235 255
221 235 255
221 235 255
221 235 255
221 235 255
221 235 255
221 235 255
221 235 255
221 235 255
221 235 255
221 235 255
221 235 255
221 235 255
221 235 255
221 235 255
221 235 255
221 235 255
221 235 255
221 235 255
221 235 255
221 235 255
221 235 255
221 235 255
221 235 255
221 235 255
221 235 255
221 235 255
221 235 255
221 235 255
221 235 255
221 235 255
221 235 255
221 235 255
221 235 255
221 235 255
221 235 255
221 235 255
221 235 255
221 235 255
221 235 255
221 235 255
221 235 255
221 235 255
221 235 255
221 235 255
221 235 255
221 235 255
221 235 255
221 235 255
221 235 255
221 235 255
221 235 255
221 235 255
221 235 255
221 235 255
221 235 255
221 235 255
221 235 255
221 235 255
221 235 255
221 235 255
221 235 255
221 235 255
221 236 255
221 235 255
221 235 255
221 235 255
221 235 255
221 235 255
221 235 255
221 235 255
221 235 255
221 235 255
221 235 255
221 236 255
221 235 255
221 235 255
221 235 255
221 235 255
221 235 255
221 235 255
221 235 255
221 235 255
221 235 255
221 235 255
221 235 255
221 235 255
221 235 255
221 235 255
221 235 255
221 235 255
221 235 255
221 235 255
221 235 255
221 235 255
221 235 255
221 235 255
221 235 255
221 235 255
221 235 255
221 235 255
221 235 255
221 235 255
221 235 255
221 235 255
221 235 255
221 235 255
221 235 255
221 235 255
221 235 255
221 235 255
221 235 255
221 235 255
221 235 255
221 235 255
221 235 255
221 235 255
221 235 255
221 235 255
221 235 255
221 235 255
221 235 255
221 235 255
221 235 255
221 235 255
221 235 255
221 235 255
221 235 255
221 235 255
221 236 255
221 235 255
221 235 255
221 235 255
221 235 255
221 235 255
221 235 255
221 235 255
221 235 255
221 235 255
221 235 255
221 235 255
221 235 255
221 235 255
221 235 255
221 235 255
221 235 255
221 235 255
221 235 255
221 235 255
221 235 255
221 235 255
221 235 255
221 235 255
221 235 255
221 235 255
221 235 255
221 235 255
221 235 255
221 235 255
221 235 255
221 235 255
221 235 255
221 235 255
221 235 255
221 235 255
221 235 255
221 235 255
221 235 255
221 235 255
221 235 255
221 235 255
221 235 255
221 235 255
221 235 255
221 235 255
221 235 255
221 236 255
221 235 255
221 235 255
221 236 255
221 236 255
221 236 255
221 236 255
221 236 255
221 235 255
221 235 255
221 236 255
221 236 255
221 235 255
221 236 255
221 235 255
221 235 255
221 235 255
221 235 255
221 235 255
221 235 255
221 235 255
221 235 255
221 235 255
221 235 255
221 236 255
221 235 255
221 236 255
221 236 255
221 235 255
221 236 255
221 236 255
221 235 255
221 235 255
221 236 255
221 235 255
221 236 255
221 235 255
221 236 255
221 236 255
221 236 255
221 235 255
221 236 255
221 235 255
221 235 255
221 235 255
221 235 255
221 235 255
221 235 255
221 235 255
221 235 255
221 235 255
221 236 255
221 235 255
221 235 255
221 236 255
221 236 255
221 235 255
221 236 255
221 235 255
221 235 255
221 236 255
221 235 255
221 236 255
221 236 255
221 235 255
221 235 255
221 236 255
221 235 255
221 236 255
221 236 255
221 235 255
221 235 255
221 235 255
221 235 255
221 235 255
221 235 255
221 235 255
221 235 255
221 235 255
221 235 255
221 236 255
221 236 255
221 235 255
221 235 255
221 236 255
221 235 255
221 235 255
221 235 255
221 235 255
221 236 255
221 235 255
221 236 255
221 235 255
221 235 255
221 235 255
221 235 255
221 235 255
221 235 255
221 235 255
221 236 255
221 235 255
221 236 255
221 235 255
221 236 255
221 235 255
221 235 255
221 236 255
221 236 255
221 235 255
221 235 255
221 235 255
221 235 255
221 236 255
221 236 255
221 235 255
221 235 255
221 235 255
221 236 255
221 235 255
221 236 255
221 235 255
221 236 255
221 235 255
221 235 255
221 235 255
221 236 255
221 235 255
221 235 255
221 236 255
221 235 255
221 236 255
221 236 255
221 235 255
221 236 255
221 236 255
221 235 255
221 236 255
221 236 255
221 235 255
221 236 255
221 236 255
221 235 255
221 236 255
221 235 255
221 236 255
221 235 255
221 236 255
221 235 255
221 236 255
221 235 255
221 235 255
221 235 255
221 235 255
221 235 255
221 235 255
221 235 255
221 235 255
221 236 255
221 236 255
221 236 255
221 236 255
221 236 255
221 235 255
221 236 255
221 235 255
221 235 255
221 235 255
221 235 255
221 236 255
221 235 255
221 236 255
221 235 255
221 235 255
221 235 255
221 236 255
221 236 255
221 235 255
221 235 255
221 236 255
221 235 255
221 235 255
221 236 255
221 235 255
221 235 255
221 235 255
221 236 255
221 235 255
221 235 255
221 235 255
221 235 255
221 235 255
221 236 255
221 235 255
221 236 255
221 235 255
221 235 255
221 235 255
221 235 255
221 236 255
221 235 255
221 235 255
221 236 255
221 235 255
221 235 255
221 236 255
221 235 255
221 236 255
221 235 255
221 236 255
221 235 255
221 235 255
221 235 255
221 235 255
221 235 255
221 235 255
221 235 255
221 236 255
221 236 255
221 235 255
221 235 255
221 235 255
221 235 255
221 235 255
221 235 255
221 235 255
221 235 255
221 235 255
221 235 255
221 236 255
221 235 255
221 235 255
221 235 255
221 235 255
221 235 255
221 235 255
221 236 255
221 235 255
221 235 255
221 235 255
221 236 255
221 235 255
221 235 255
221 235 255
221 235 255
221 235 255
221 235 255
221 235 255
221 236 255
221 235 255
221 235 255
221 236 255
221 236 255
221 235 255
221 235 255
221 235 255
221 235 255
221 236 255
221 235 255
221 235 255
221 236 255
221 236 255
221 235 255
221 236 255
221 235 255
221 236 255
221 236 255
221 236 255
221 236 255
221 235 255
221 235 255
221 236 255
221 235 255
221 235 255
221 235 255
221 235 255
221 236 255
221 235 255
221 235 255
221 236 255
221 236 255
221 236 255
221 235 255
221 236 255
221 235 255
221 235 255
221 236 255
221 235 255
221 235 255
221 235 255
221 236 255
221 235 255
221 235 255
221 235 255
221 235 255
221 235 255
221 236 255
221 235 255
221 235 255
221 235 255
221 235 255
221 235 255
221 236 255
221 236 255
221 236 255
221 235 255
221 235 255
221 235 255
221 235 255
221 235 255
221 235 255
221 235 255
221 236 255
221 236 255
221 235 255
221 236 255
221 235 255
221 235 255
221 235 255
221 235 255
221 236 255
221 235 255
221 236 255
221 235 255
221 235 255
221 236 255
221 235 255
221 235 255
221 236 255
221 236 255
221 236 255
221 235 255
221 235 255
221 235 255
221 235 255
221 236 255
221 236 255
221 236 255
221 235 255
221 235 255
221 236 255
221 236 255
221 236 255
221 235 255
221 236 255
221 235 255
221 235 255
221 236 255
221 236 255
221 235 255
221 235 255
221 235 255
221 235 255
221 236 255
221 235 255
221 236 255
221 235 255
221 236 255
221 236 255
221 235 255
221 235 255
221 236 255
221 235 255
221 235 255
221 235 255
221 235 255
221 236 255
221 235 255
221 235 255
221 236 255
221 235 255
221 236 255
221 236 255
221 236 255
221 236 255
221 236 255
221 235 255
221 235 255
221 236 255
221 235 255
221 236 255
221 236 255
221 236 255
221 236 255
221 235 255
221 236 255
221 235 255
221 235 255
221 235 255
221 235 255
221 236 255
221 235 255
221 236 255
221 236 255
221 235 255
221 235 255
221 235 255
221 235 255
221 236 255
221 236 255
221 236 255
221 236 255
221 236 255
221 236 255
221 236 255
221 236 255
221 236 255
221 236 255
221 236 255
221 235 255
221 236 255
221 236 255
221 236 255
221 236 255
221 236 255
221 236 255
221 236 255
221 236 255
221 236 255
221 236 255
221 236 255
221 236 255
221 236 255
221 235 255
221 236 255
221 236 255
221 236 255
221 236 255
221 236 255
221 236 255
221 236 255
221 236 255
221 236 255
221 236 255
221 236 255
221 236 255
221 236 255
221 236 255
221 236 255
221 236 255
221 236 255
221 236 255
221 236 255
221 236 255
221 236 255
221 236 255
221 236 255
221 236 255
221 236 255
221 236 255
221 236 255
221 236 255
221 236 255
221 236 255
221 236 255
221 236 255
221 236 255
221 236 255
221 236 255
221 236 255
221 236 255
221 236 255
221 236 255
221 236 255
221 236 255
221 236 255
221 236 255
221 236 255
221 236 255
221 236 255
221 236 255
221 236 255
221 235 255
221 235 255
221 236 255
221 236 255
221 236 255
221 236 255
221 236 255
221 236 255
221 236 255
221 236 255
221 236 255
221 236 255
221 236 255
221 236 255
221 236 255
221 236 255
221 236 255
221 236 255
221 236 255
221 236 255
221 236 255
221 236 255
221 236 255
221 236 255
221 236 255
221 236 255
221 235 255
221 236 255
221 236 255
221 236 255
221 236 255
221 236 255
221 236 255
221 236 255
221 236 255
221 236 255
221 236 255
221 236 255
221 235 255
221 236 255
221 236 255
221 236 255
221 236 255
221 236 255
221 236 255
221 236 255
221 235 255
221 236 255
221 236 255
222 236 255
221 236 255
221 236 255
221 236 255
221 236 255
221 236 255
221 236 255
221 236 255
221 236 255
221 236 255
221 236 255
221 236 255
221 236 255
221 236 255
221 236 255
221 236 255
221 236 255
221 236 255
221 236 255
221 236 255
221 236 255
221 236 255
221 236 255
221 236 255
221 236 255
221 236 255
221 236 255
221 236 255
221 236 255
221 236 255
221 236 255
221 236 255
221 236 255
221 236 255
221 236 255
221 236 255
221 236 255
222 236 255
221 236 255
221 236 255
221 236 255
221 236 255
221 236 255
222 236 255
221 236 255
221 236 255
221 236 255
221 236 255
221 236 255
221 236 255
221 236 255
221 236 255
221 236 255
221 236 255
221 236 255
221 235 255
221 236 255
221 236 255
221 236 255
222 236 255
221 236 255
221 236 255
221 236 255
221 236 255
221 236 255
221 236 255
221 236 255
221 236 255
221 236 255
221 236 255
221 236 255
221 236 255
221 236 255
222 236 255
221 236 255
221 236 255
221 236 255
222 236 255
221 236 255
221 236 255
221 236 255
222 236 255
221 236 255
221 236 255
221 236 255
221 236 255
221 236 255
221 236 255
221 236 255
221 236 255
221 236 255
221 236 255
222 236 255
221 236 255
221 236 255
221 236 255
221 236 255
221 236 255
221 236 255
221 236 255
221 236 255
221 236 255
221 236 255
221 236 255
221 235 255
221 236 255
221 236 255
221 236 255
221 236 255
221 236 255
221 236 255
221 236 255
221 236 255
221 236 255
221 236 255
221 235 255
221 236 255
221 236 255
221 236 255
221 236 255
221 236 255
221 236 255
221 236 255
221 236 255
221 236 255
221 235 255
221 236 255
221 236 255
221 235 255
221 236 255
221 236 255
221 236 255
221 236 255
221 236 255
221 235 255
221 236 255
221 236 255
221 236 255
221 236 255
221 236 255
221 236 255
221 236 255
221 236 255
221 236 255
221 236 255
221 235 255
221 236 255
222 236 255
221 236 255
221 236 255
221 236 255
221 236 255
221 236 255
221 236 255
221 235 255
222 236 255
221 235 255
221 235 255
221 236 255
221 236 255
221 236 255
221 236 255
221 236 255
221 236 255
221 236 255
221 236 255
221 236 255
221 236 255
221 236 255
221 236 255
221 236 255
221 235 255
221 236 255
221 236 255
221 236 255
221 236 255
221 236 255
221 236 255
221 236 255
221 236 255
221 236 255
221 236 255
221 236 255
221 236 255
221 236 255
221 236 255
221 236 255
221 236 255
221 236 255
221 235 255
221 235 255
221 236 255
221 236 255
221 236 255
221 236 255
221 236 255
221 236 255
221 236 255
221 236 255
221 236 255
221 235 255
221 236 255
221 236 255
221 236 255
221 236 255
221 236 255
221 236 255
221 236 255
221 235 255
221 236 255
221 236 255
221 236 255
221 236 255
221 236 255
221 236 255
221 236 255
221 236 255
221 236 255
221 236 255
221 235 255
221 236 255
221 236 255
221 236 255
221 236 255
221 236 255
221 235 255
221 236 255
221 236 255
221 236 255
221 236 255
221 236 255
221 236 255
221 236 255
221 236 255
221 236 255
221 235 255
221 235 255
221 236 255
221 235 255
221 236 255
221 236 255
221 236 255
221 236 255
221 236 255
221 236 255
221 236 255
221 236 255
221 236 255
221 236 255
221 236 255
221 236 255
221 236 255
221 236 255
221 236 255
221 236 255
221 236 255
221 236 255
221 236 255
221 236 255
221 236 255
221 236 255
221 236 255
221 236 255
221 236 255
221 236 255
221 235 255
221 236 255
221 236 255
221 236 255
221 236 255
221 236 255
221 236 255
221 236 255
221 236 255
221 236 255
221 236 255
221 236 255
221 236 255
221 236 255
221 236 255
221 236 255
221 236 255
221 236 255
221 236 255
221 236 255
221 236 255
222 236 255
221 236 255
222 236 255
222 236 255
221 236 255
221 236 255
221 236 255
221 236 255
221 236 255
221 236 255
221 236 255
221 236 255
221 236 255
221 236 255
221 236 255
221 236 255
221 236 255
221 236 255
221 236 255
221 236 255
221 236 255
221 236 255
222 236 255
221 236 255
221 236 255
221 236 255
221 236 255
221 236 255
222 236 255
222 236 255
221 236 255
221 236 255
222 236 255
221 236 255
221 236 255
221 236 255
221 236 255
222 236 255
221 236 255
221 236 255
221 236 255
221 236 255
221 236 255
222 236 255
222 236 255
221 236 255
221 236 255
221 236 255
221 236 255
222 236 255
221 236 255
222 236 255
221 236 255
221 236 255
221 236 255
221 236 255
221 236 255
222 236 255
222 236 255
221 236 255
221 236 255
221 236 255
222 236 255
222 236 255
221 236 255
221 236 255
221 236 255
221 236 255
221 236 255
221 236 255
221 236 255
221 236 255
222 236 255
221 236 255
222 236 255
221 236 255
221 236 255
221 236 255
221 236 255
221 236 255
221 236 255
221 236 255
222 236 255
222 236 255
221 236 255
222 236 255
221 236 255
221 236 255
222 236 255
222 236 255
222 236 255
221 236 255
221 236 255
221 236 255
221 236 255
221 236 255
222 236 255
221 236 255
221 236 255
222 236 255
222 236 255
221 236 255
222 236 255
221 236 255
222 236 255
221 236 255
221 236 255
222 236 255
221 236 255
222 236 255
222 236 255
222 236 255
221 236 255
222 236 255
222 236 255
222 236 255
221 236 255
222 236 255
222 236 255
222 236 255
221 236 255
222 236 255
222 236 255
221 236 255
222 236 255
221 236 255
221 236 255
222 236 255
222 236 255
221 236 255
221 236 255
222 236 255
222 236 255
222 236 255
221 236 255
221 236 255
222 236 255
221 236 255
221 236 255
222 236 255
222 236 255
221 236 255
221 236 255
222 236 255
221 236 255
222 236 255
222 236 255
221 236 255
222 236 255
222 236 255
222 236 255
222 236 255
222 236 255
221 236 255
222 236 255
222 236 255
222 236 255
222 236 255
221 236 255
222 236 255
221 236 255
222 236 255
222 236 255
222 236 255
222 236 255
222 236 255
222 236 255
222 236 255
222 236 255
221 236 255
222 236 255
222 236 255
222 236 255
222 236 255
222 236 255
222 236 255
222 236 255
222 236 255
221 236 255
222 236 255
222 236 255
222 236 255
222 236 255
222 236 255
222 236 255
222 236 255
222 236 255
222 236 255
222 236 255
221 236 255
221 236 255
222 236 255
222 236 255
222 236 255
222 236 255
222 236 255
222 236 255
221 236 255
221 236 255
222 236 255
222 236 255
222 236 255
221 236 255
221 236 255
222 236 255
222 236 255
222 236 255
221 236 255
222 236 255
222 236 255
222 236 255
222 236 255
222 236 255
222 236 255
222 236 255
221 236 255
222 236 255
222 236 255
221 236 255
222 236 255
222 236 255
221 236 255
221 236 255
222 236 255
222 236 255
222 236 255
222 236 255
222 236 255
222 236 255
221 236 255
222 236 255
222 236 255
222 236 255
222 236 255
222 236 255
222 236 255
222 236 255
222 236 255
222 236 255
221 236 255
221 236 255
222 236 255
221 236 255
222 236 255
221 236 255
222 236 255
222 236 255
221 236 255
222 236 255
222 236 255
221 236 255
221 236 255
221 236 255
222 236 255
221 236 255
222 236 255
222 236 255
222 236 255
222 236 255
222 236 255
221 236 255
222 236 255
222 236 255
222 236 255
222 236 255
222 236 255
222 236 255
221 236 255
221 236 255
221 236 255
221 236 255
222 236 255
222 236 255
221 236 255
222 236 255
221 236 255
222 236 255
222 236 255
222 236 255
222 236 255
221 236 255
222 236 255
222 236 255
221 236 255
221 236 255
222 236 255
222 236 255
222 236 255
221 236 255
222 236 255
222 236 255
221 236 255
221 236 255
222 236 255
221 236 255
221 236 255
222 236 255
221 236 255
221 236 255
221 236 255
221 236 255
222 236 255
221 236 255
221 236 255
221 236 255
221 236 255
221 236 255
221 236 255
222 236 255
221 236 255
221 236 255
221 236 255
222 236 255
221 236 255
221 236 255
221 236 255
222 236 255
222 236 255
222 236 255
221 236 255
221 236 255
222 236 255
221 236 255
221 236 255
221 236 255
221 236 255
222 236 255
222 236 255
221 236 255
221 236 255
221 236 255
221 236 255
222 236 255
221 236 255
221 236 255
221 236 255
221 236 255
221 236 255
221 236 255
222 236 255
221 236 255
221 236 255
221 236 255
222 236 255
222 236 255
222 236 255
221 236 255
221 236 255
222 236 255
221 236 255
221 236 255
221 236 255
221 236 255
221 236 255
221 236 255
221 236 255
221 236 255
221 236 255
221 236 255
221 236 255
221 236 255
222 236 255
221 236 255
221 236 255
221 236 255
221 236 255
221 236 255
222 236 255
221 236 255
221 236 255
221 236 255
221 236 255
222 236 255
221 236 255
221 236 255
221 236 255
221 236 255
222 236 255
221 236 255
221 236 255
222 236 255
221 236 255
221 236 255
221 236 255
221 236 255
221 236 255
221 236 255
221 236 255
222 236 255
221 236 255
221 236 255
221 236 255
221 236 255
221 236 255
222 236 255
221 236 255
222 236 255
221 236 255
222 236 255
221 236 255
222 236 255
222 236 255
222 236 255
222 236 255
222 236 255
221 236 255
222 236 255
222 236 255
221 236 255
221 236 255
222 236 255
221 236 255
221 236 255
222 236 255
222 236 255
222 236 255
222 236 255
222 236 255
221 236 255
222 236 255
222 236 255
222 236 255
222 236 255
222 236 255
222 236 255
222 236 255
221 236 255
222 236 255
222 236 255
222 236 255
222 236 255
222 236 255
222 236 255
222 236 255
222 236 255
222 236 255
221 236 255
222 236 255
222 236 255
222 236 255
222 236 255
222 236 255
222 236 255
222 236 255
222 236 255
222 236 255
222 236 255
222 236 255
222 236 255
222 236 255
222 236 255
221 236 255
222 236 255
221 236 255
221 236 255
222 236 255
222 236 255
222 236 255
222 236 255
222 236 255
222 236 255
222 236 255
222 236 255
222 236 255
222 236 255
222 236 255
222 236 255
222 236 255
222 236 255
222 236 255
222 236 255
222 236 255
222 236 255
222 236 255
222 236 255
221 236 255
222 236 255
222 236 255
222 236 255
222 236 255
222 236 255
222 236 255
222 236 255
222 236 255
222 236 255
222 236 255
222 236 255
222 236 255
222 236 255
222 236 255
222 236 255
222 236 255
222 236 255
222 236 255
222 236 255
222 236 255
222 236 255
222 236 255
222 236 255
222 236 255
222 236 255
222 236 255
222 236 255
222 236 255
222 236 255
222 236 255
222 236 255
222 236 255
222 236 255
222 236 255
222 236 255
222 236 255
221 236 255
222 236 255
222 236 255
222 236 255
222 236 255
222 236 255
222 236 255
222 236 255
222 236 255
222 236 255
222 236 255
222 236 255
222 236 255
222 236 255
222 236 255
222 236 255
222 236 255
222 236 255
222 236 255
222 236 255
222 236 255
222 236 255
222 236 255
222 236 255
222 236 255
222 236 255
222 236 255
222 236 255
222 236 255
222 236 255
222 236 255
222 236 255
222 236 255
222 236 255
222 236 255
222 236 255
222 236 255
222 236 255
222 236 255
222 236 255
222 236 255
222 236 255
222 236 255
222 236 255
222 236 255
222 236 255
222 236 255
222 236 255
222 236 255
222 236 255
222 236 255
222 236 255
222 236 255
222 236 255
222 236 255
222 236 255
222 236 255
222 236 255
222 236 255
222 236 255
222 236 255
222 236 255
222 236 255
222 236 255
222 236 255
222 236 255
222 236 255
222 236 255
222 236 255
222 236 255
222 236 255
222 236 255
222 236 255
222 236 255
222 236 255
222 236 255
222 236 255
222 236 255
222 236 255
222 236 255
222 236 255
222 236 255
222 236 255
222 236 255
222 236 255
222 236 255
222 236 255
222 236 255
222 236 255
222 236 255
222 236 255
222 236 255
222 236 255
222 236 255
222 236 255
222 236 255
222 236 255
222 236 255
222 236 255
222 236 255
222 236 255
222 236 255
222 236 255
222 236 255
222 236 255
222 236 255
222 236 255
222 236 255
222 236 255
222 236 255
222 236 255
222 236 255
222 236 255
222 236 255
222 236 255
222 236 255
222 236 255
222 236 255
222 236 255
222 236 255
222 236 255
222 236 255
222 236 255
222 236 255
222 236 255
222 236 255
222 236 255
222 236 255
222 236 255
222 236 255
222 236 255
222 236 255
222 236 255
222 236 255
222 236 255
222 236 255
222 236 255
222 236 255
222 236 255
222 236 255
222 236 255
222 236 255
222 236 255
222 236 255
222 236 255
222 236 255
222 236 255
222 236 255
222 236 255
222 236 255
222 236 255
222 236 255
222 236 255
222 236 255
222 236 255
222 236 255
222 236 255
222 236 255
222 236 255
222 236 255
222 236 255
222 236 255
222 236 255
222 236 255
222 236 255
222 236 255
222 236 255
222 236 255
222 236 255
222 236 255
222 236 255
222 236 255
222 236 255
222 236 255
222 236 255
222 236 255
222 236 255
222 236 255
222 236 255
221 236 255
222 236 255
222 236 255
222 236 255
222 236 255
222 236 255
222 236 255
222 236 255
222 236 255
222 236 255
222 236 255
222 236 255
222 236 255
222 236 255
222 236 255
222 236 255
222 236 255
222 236 255
222 236 255
222 236 255
222 236 255
222 236 255
221 236 255
222 236 255
222 236 255
222 236 255
222 236 255
222 236 255
222 236 255
222 236 255
222 236 255
222 236 255
222 236 255
221 236 255
222 236 255
222 236 255
222 236 255
222 236 255
222 236 255
221 236 255
222 236 255
222 236 255
222 236 255
222 236 255
222 236 255
221 236 255
222 236 255
222 236 255
222 236 255
222 236 255
222 236 255
222 236 255
222 236 255
222 236 255
222 236 255
222 236 255
221 236 255
221 236 255
221 236 255
221 236 255
222 236 255
222 236 255
222 236 255
222 236 255
222 236 255
222 236 255
222 236 255
221 236 255
222 236 255
222 236 255
222 236 255
222 236 255
222 236 255
222 236 255
222 236 255
222 236 255
221 236 255
222 236 255
221 236 255
222 236 255
222 236 255
221 236 255
222 236 255
221 236 255
222 236 255
221 236 255
222 236 255
222 236 255
222 236 255
221 236 255
222 236 255
221 236 255
222 236 255
222 236 255
221 236 255
221 236 255
222 236 255
222 236 255
222 236 255
221 236 255
222 236 255
222 236 255
222 236 255
222 236 255
222 236 255
222 236 255
222 236 255
222 236 255
222 236 255
222 236 255
222 236 255
222 236 255
222 236 255
222 236 255
222 236 255
222 236 255
222 236 255
222 236 255
222 236 255
222 236 255
222 236 255
222 236 255
222 236 255
222 236 255
222 236 255
222 236 255
222 236 255
222 236 255
222 236 255
222 236 255
222 236 255
222 236 255
222 236 255
222 236 255
222 236 255
222 236 255
222 236 255
222 236 255
222 236 255
222 236 255
222 236 255
222 236 255
222 236 255
221 236 255
222 236 255
222 236 255
222 236 255
222 236 255
222 236 255
222 236 255
222 236 255
222 236 255
222 236 255
222 236 255
222 236 255
222 236 255
222 236 255
222 236 255
222 236 255
222 236 255
222 236 255
222 236 255
222 236 255
222 236 255
222 236 255
222 236 255
222 236 255
222 236 255
222 236 255
222 236 255
222 236 255
222 236 255
222 236 255
222 236 255
222 236 255
222 236 255
222 236 255
222 236 255
222 236 255
222 236 255
222 236 255
222 236 255
222 236 255
222 236 255
222 236 255
222 236 255
222 236 255
222 236 255
222 236 255
222 236 255
222 236 255
222 236 255
222 236 255
222 236 255
222 236 255
222 236 255
222 236 255
222 236 255
222 236 255
222 236 255
222 236 255
222 236 255
222 236 255
222 236 255
222 236 255
222 236 255
222 236 255
222 236 255
222 236 255
222 236 255
222 236 255
222 236 255
222 236 255
222 236 255
222 236 255
222 236 255
222 236 255
222 236 255
222 236 255
222 236 255
222 236 255
222 236 255
222 236 255
222 236 255
222 236 255
222 236 255
222 236 255
222 236 255
222 236 255
222 236 255
222 236 255
222 236 255
222 236 255
222 236 255
222 236 255
222 236 255
222 236 255
222 236 255
222 236 255
222 236 255
222 236 255
222 236 255
222 236 255
222 236 255
222 236 255
222 236 255
222 236 255
222 236 255
222 236 255
222 236 255
222 236 255
222 236 255
222 236 255
222 236 255
222 236 255
222 236 255
222 236 255
222 236 255
222 236 255
222 236 255
222 236 255
222 236 255
222 236 255
222 236 255
222 236 255
222 236 255
222 236 255
222 236 255
222 236 255
222 236 255
222 236 255
222 236 255
222 236 255
222 236 255
222 236 255
222 236 255
222 236 255
222 236 255
222 236 255
222 236 255
222 236 255
222 236 255
222 236 255
222 236 255
222 236 255
222 236 255
222 236 255
222 236 255
222 236 255
222 236 255
222 236 255
222 236 255
222 236 255
222 236 255
222 236 255
222 236 255
222 236 255
222 236 255
222 236 255
222 236 255
222 236 255
222 236 255
222 236 255
222 236 255
222 236 255
222 236 255
222 236 255
222 236 255
222 236 255
222 236 255
222 236 255
222 236 255
222 236 255
222 236 255
222 236 255
222 236 255
222 236 255
222 236 255
222 236 255
222 236 255
222 236 255
222 236 255
222 236 255
222 236 255
222 236 255
222 236 255
222 236 255
222 236 255
222 236 255
222 236 255
222 236 255
222 236 255
222 236 255
222 236 255
222 236 255
222 236 255
222 236 255
222 236 255
222 236 255
222 236 255
222 236 255
222 236 255
222 236 255
222 236 255
222 236 255
222 236 255
222 236 255
222 236 255
222 236 255
222 236 255
222 236 255
222 236 255
222 236 255
222 236 255
222 236 255
222 236 255
222 236 255
222 236 255
222 236 255
222 236 255
222 236 255
222 236 255
222 236 255
222 236 255
222 236 255
222 236 255
222 236 255
222 236 255
222 236 255
222 236 255
222 236 255
222 236 255
222 236 255
222 236 255
222 236 255
222 236 255
222 236 255
222 236 255
222 236 255
222 236 255
222 236 255
222 236 255
222 236 255
222 236 255
222 236 255
222 236 255
222 236 255
222 236 255
222 236 255
222 236 255
222 236 255
222 236 255
222 236 255
222 236 255
222 236 255
222 236 255
222 236 255
222 236 255
222 236 255
222 236 255
222 236 255
222 236 255
222 236 255
222 236 255
222 236 255
222 236 255
222 236 255
222 236 255
222 236 255
222 236 255
222 236 255
222 236 255
222 236 255
222 236 255
222 236 255
222 236 255
222 236 255
222 236 255
222 236 255
222 236 255
222 236 255
222 236 255
222 236 255
222 236 255
222 236 255
222 236 255
222 236 255
222 236 255
222 236 255
222 236 255
222 236 255
222 236 255
222 236 255
222 236 255
222 236 255
222 236 255
222 236 255
222 236 255
222 236 255
222 236 255
222 236 255
222 236 255
222 236 255
222 236 255
222 236 255
222 236 255
222 236 255
222 236 255
222 236 255
222 236 255
222 236 255
222 236 255
222 236 255
222 236 255
222 236 255
222 236 255
222 236 255
222 236 255
222 236 255
222 236 255
222 236 255
222 236 255
222 236 255
222 236 255
222 236 255
222 236 255
222 236 255
222 236 255
222 236 255
222 236 255
222 236 255
222 236 255
222 236 255
222 236 255
222 236 255
222 236 255
222 236 255
222 236 255
222 236 255
222 236 255
222 236 255
222 236 255
222 236 255
222 236 255
222 236 255
222 236 255
222 236 255
222 236 255
222 236 255
222 236 255
222 236 255
222 236 255
222 236 255
222 236 255
222 236 255
222 236 255
222 236 255
222 236 255
222 236 255
222 236 255
222 236 255
222 236 255
222 236 255
222 236 255
222 236 255
222 236 255
222 236 255
222 236 255
222 236 255
222 236 255
222 236 255
222 236 255
222 236 255
222 236 255
222 236 255
222 236 255
222 236 255
222 236 255
222 236 255
222 236 255
222 236 255
222 236 255
222 236 255
222 236 255
222 236 255
222 236 255
222 236 255
222 236 255
222 236 255
222 236 255
222 236 255
222 236 255
222 236 255
222 236 255
222 236 255
222 236 255
222 236 255
222 236 255
222 236 255
222 236 255
222 236 255
222 236 255
222 236 255
222 236 255
222 236 255
222 236 255
222 236 255
222 236 255
222 236 255
222 236 255
222 236 255
222 236 255
222 236 255
222 236 255
222 236 255
222 236 255
222 236 255
222 236 255
222 236 255
222 236 255
222 236 255
222 236 255
222 236 255
222 236 255
222 236 255
222 236 255
222 236 255
222 236 255
222 236 255
222 236 255
222 236 255
222 236 255
222 236 255
222 236 255
222 236 255
222 236 255
222 236 255
222 236 255
222 236 255
222 236 255
222 236 255
222 236 255
222 236 255
222 236 255
222 236 255
222 236 255
222 236 255
222 236 255
222 236 255
222 236 255
222 236 255
222 236 255
222 236 255
222 236 255
222 236 255
222 236 255
222 236 255
222 236 255
222 236 255
222 236 255
222 236 255
222 236 255
222 236 255
222 236 255
222 236 255
222 236 255
222 236 255
222 236 255
222 236 255
222 236 255
222 236 255
222 236 255
222 236 255
222 236 255
222 236 255
222 236 255
222 236 255
222 236 255
222 236 255
222 236 255
222 236 255
222 236 255
222 236 255
222 236 255
222 236 255
222 236 255
222 236 255
222 236 255
222 236 255
222 236 255
222 236 255
222 236 255
222 236 255
222 236 255
222 236 255
222 236 255
222 236 255
222 236 255
222 236 255
222 236 255
222 236 255
222 236 255
222 236 255
222 236 255
222 236 255
222 236 255
222 236 255
222 236 255
222 236 255
222 236 255
222 236 255
222 236 255
222 236 255
222 236 255
222 236 255
222 236 255
222 236 255
222 236 255
222 236 255
222 236 255
222 236 255
222 236 255
222 236 255
222 236 255
222 236 255
222 236 255
222 236 255
222 236 255
222 236 255
222 236 255
222 236 255
222 236 255
222 236 255
222 236 255
222 236 255
222 236 255
222 236 255
222 236 255
222 236 255
222 236 255
222 236 255
222 236 255
222 236 255
222 236 255
222 236 255
222 236 255
222 236 255
222 236 255
222 236 255
222 236 255
222 236 255
222 236 255
222 236 255
222 236 255
222 236 255
222 236 255
222 236 255
222 236 255
222 236 255
222 236 255
222 236 255
222 236 255
222 236 255
222 236 255
222 236 255
222 236 255
222 236 255
222 236 255
222 236 255
222 236 255
222 236 255
222 236 255
222 236 255
222 236 255
222 236 255
222 236 255
222 236 255
222 236 255
222 236 255
222 236 255
222 236 255
222 236 255
222 236 255
222 236 255
222 236 255
222 236 255
222 236 255
222 236 255
222 236 255
222 236 255
222 236 255
222 236 255
222 236 255
222 236 255
222 236 255
222 236 255
222 236 255
222 236 255
222 236 255
222 236 255
222 236 255
222 236 255
222 236 255
222 236 255
222 236 255
222 236 255
222 236 255
222 236 255
222 236 255
222 236 255
222 236 255
222 236 255
222 236 255
222 236 255
222 236 255
222 236 255
222 236 255
222 236 255
222 236 255
222 236 255
222 236 255
222 236 255
222 236 255
222 236 255
222 236 255
222 236 255
222 236 255
222 236 255
222 236 255
222 236 255
222 236 255
222 236 255
222 236 255
222 236 255
222 236 255
222 236 255
222 236 255
222 236 255
222 236 255
222 236 255
222 236 255
222 236 255
222 236 255
222 236 255
222 236 255
222 236 255
222 236 255
222 236 255
222 236 255
222 236 255
222 236 255
222 236 255
222 236 255
222 236 255
222 236 255
222 236 255
222 236 255
222 236 255
222 236 255
222 236 255
222 236 255
222 236 255
222 236 255
222 236 255
222 236 255
222 236 255
222 236 255
222 236 255
222 236 255
222 236 255
222 236 255
222 236 255
222 236 255
222 236 255
222 236 255
222 236 255
222 236 255
222 236 255
222 236 255
222 236 255
222 236 255
222 236 255
222 236 255
222 236 255
222 236 255
222 236 255
222 236 255
222 236 255
222 236 255
222 236 255
222 236 255
222 236 255
222 236 255
222 236 255
222 236 255
222 236 255
222 236 255
222 236 255
222 236 255
222 236 255
222 236 255
222 236 255
222 236 255
222 236 255
222 236 255
222 236 255
222 236 255
222 236 255
222 236 255
222 236 255
222 236 255
222 236 255
222 236 255
222 236 255
222 236 255
222 236 255
222 236 255
222 236 255
222 236 255
222 236 255
222 236 255
222 236 255
222 236 255
222 236 255
222 236 255
222 236 255
222 236 255
222 236 255
222 236 255
222 236 255
222 236 255
222 236 255
222 236 255
222 236 255
222 236 255
222 236 255
222 236 255
222 236 255
222 236 255
222 236 255
222 236 255
222 236 255
222 236 255
222 236 255
222 236 255
222 236 255
222 236 255
222 236 255
222 236 255
222 236 255
222 236 255
222 236 255
222 236 255
222 236 255
222 236 255
222 236 255
222 236 255
222 236 255
222 236 255
222 236 255
222 236 255
222 236 255
222 236 255
222 236 255
222 236 255
222 236 255
222 236 255
222 236 255
222 236 255
222 236 255
222 236 255
222 236 255
222 236 255
222 236 255
222 236 255
222 236 255
222 236 255
222 236 255
222 236 255
222 236 255
222 236 255
222 236 255
222 236 255
222 236 255
222 236 255
222 236 255
222 236 255
222 236 255
222 236 255
222 236 255
222 236 255
222 236 255
222 236 255
222 236 255
222 236 255
222 236 255
222 236 255
222 236 255
222 236 255
222 236 255
222 236 255
222 236 255
222 236 255
222 236 255
222 236 255
222 236 255
222 236 255
222 236 255
222 236 255
222 236 255
222 236 255
222 236 255
222 236 255
222 236 255
222 236 255
222 236 255
222 236 255
222 236 255
222 236 255
222 236 255
222 236 255
222 236 255
222 236 255
222 236 255
222 236 255
222 236 255
222 236 255
222 236 255
222 236 255
222 236 255
222 236 255
222 236 255
222 236 255
222 236 255
222 236 255
222 236 255
222 236 255
222 236 255
222 236 255
222 236 255
222 236 255
222 236 255
222 236 255
222 236 255
222 236 255
222 236 255
222 236 255
222 236 255
222 236 255
222 236 255
222 236 255
222 236 255
222 236 255
222 236 255
222 236 255
222 236 255
222 236 255
222 236 255
222 236 255
222 236 255
222 236 255
222 236 255
222 236 255
222 236 255
222 236 255
222 236 255
222 236 255
222 236 255
222 236 255
222 236 255
222 236 255
222 236 255
222 236 255
222 236 255
222 236 255
222 236 255
222 236 255
222 236 255
222 236 255
222 236 255
222 236 255
222 236 255
222 236 255
222 236 255
222 236 255
222 236 255
222 236 255
222 236 255
222 236 255
222 236 255
222 236 255
222 236 255
222 236 255
222 236 255
222 236 255
222 236 255
222 236 255
222 236 255
222 236 255
222 236 255
222 236 255
222 236 255
222 236 255
222 236 255
222 236 255
223 236 255
222 236 255
222 236 255
222 236 255
222 236 255
222 236 255
222 236 255
222 236 255
222 236 255
222 236 255
223 236 255
222 236 255
222 236 255
222 236 255
222 236 255
222 236 255
222 236 255
222 236 255
222 236 255
223 236 255
222 236 255
222 236 255
222 236 255
222 236 255
222 236 255
222 236 255
222 236 255
222 236 255
222 236 255
222 236 255
222 236 255
222 236 255
222 236 255
223 236 255
222 236 255
222 236 255
223 236 255
222 236 255
222 236 255
223 236 255
222 236 255
222 236 255
222 236 255
223 236 255
222 236 255
223 236 255
222 236 255
222 236 255
222 236 255
222 236 255
223 236 255
222 236 255
223 236 255
223 236 255
222 236 255
223 236 255
222 236 255
222 236 255
222 236 255
223 236 255
222 236 255
222 236 255
223 236 255
222 236 255
223 236 255
222 236 255
222 236 255
222 236 255
222 236 255
223 236 255
222 236 255
223 236 255
222 236 255
222 236 255
223 236 255
222 236 255
223 236 255
222 236 255
222 236 255
223 236 255
223 236 255
223 236 255
222 236 255
223 236 255
222 236 255
222 236 255
223 236 255
223 236 255
222 236 255
222 236 255
222 236 255
222 236 255
222 236 255
223 236 255
222 236 255
222 236 255
223 236 255
223 236 255
223 236 255
222 236 255
222 236 255
222 236 255
222 236 255
223 236 255
222 236 255
222 236 255
222 236 255
222 236 255
222 236 255
223 236 255
222 236 255
222 236 255
222 236 255
222 236 255
223 236 255
222 236 255
222 236 255
222 236 255
222 236 255
222 236 255
222 236 255
222 236 255
222 236 255
222 236 255
222 236 255
222 236 255
222 236 255
222 236 255
222 236 255
222 236 255
222 236 255
222 236 255
222 236 255
222 236 255
222 236 255
222 236 255
222 236 255
222 236 255
222 236 255
222 236 255
222 236 255
222 236 255
222 236 255
222 236 255
222 236 255
222 236 255
222 236 255
222 236 255
222 236 255
222 236 255
222 236 255
222 236 255
222 236 255
222 236 255
222 236 255
222 236 255
222 236 255
222 236 255
222 236 255
222 236 255
222 236 255
222 236 255
222 236 255
222 236 255
222 236 255
222 236 255
222 236 255
222 236 255
222 236 255
222 236 255
222 236 255
222 236 255
222 236 255
222 236 255
222 236 255
222 236 255
222 236 255
222 236 255
222 236 255
222 236 255
222 236 255
222 236 255
222 236 255
222 236 255
222 236 255
222 236 255
222 236 255
222 236 255
222 236 255
222 236 255
222 236 255
222 236 255
222 236 255
222 236 255
222 236 255
222 236 255
222 236 255
222 236 255
222 236 255
222 236 255
222 236 255
222 236 255
222 236 255
222 236 255
222 236 255
222 236 255
222 236 255
222 236 255
222 236 255
222 236 255
222 236 255
222 236 255
222 236 255
222 236 255
222 236 255
222 236 255
222 236 255
222 236 255
222 236 255
222 236 255
222 236 255
222 236 255
222 236 255
222 236 255
222 236 255
222 236 255
222 236 255
222 236 255
222 236 255
222 236 255
222 236 255
222 236 255
222 236 255
222 236 255
222 236 255
222 236 255
222 236 255
222 236 255
222 236 255
222 236 255
222 236 255
222 236 255
222 236 255
222 236 255
222 236 255
222 236 255
222 236 255
222 236 255
222 236 255
222 236 255
222 236 255
222 236 255
222 236 255
222 236 255
222 236 255
222 236 255
222 236 255
222 236 255
222 236 255
222 236 255
222 236 255
222 236 255
222 236 255
222 236 255
222 236 255
222 236 255
222 236 255
222 236 255
222 236 255
222 236 255
222 236 255
222 236 255
222 236 255
222 236 255
222 236 255
222 236 255
222 236 255
222 236 255
222 236 255
222 236 255
222 236 255
222 236 255
222 236 255
222 236 255
222 236 255
222 236 255
222 236 255
222 236 255
222 236 255
222 236 255
222 236 255
222 236 255
222 236 255
222 236 255
222 236 255
222 236 255
222 236 255
222 236 255
222 236 255
222 236 255
222 236 255
222 236 255
222 236 255
222 236 255
222 236 255
222 236 255
222 236 255
222 236 255
222 236 255
222 236 255
222 236 255
222 236 255
222 236 255
222 236 255
222 236 255
222 236 255
222 236 255
222 236 255
222 236 255
222 236 255
222 236 255
222 236 255
222 236 255
222 236 255
222 236 255
222 236 255
222 236 255
222 236 255
222 236 255
222 236 255
222 236 255
222 236 255
222 236 255
222 236 255
222 236 255
222 236 255
222 236 255
222 236 255
222 236 255
223 236 255
222 236 255
223 236 255
222 236 255
222 236 255
222 236 255
222 236 255
222 236 255
222 236 255
222 236 255
222 236 255
222 236 255
223 236 255
222 236 255
222 236 255
222 236 255
222 236 255
222 236 255
222 236 255
222 236 255
222 236 255
222 236 255
223 236 255
222 236 255
222 236 255
223 236 255
222 236 255
222 236 255
223 236 255
222 236 255
222 236 255
222 236 255
222 236 255
223 236 255
222 236 255
222 236 255
222 236 255
222 236 255
223 236 255
223 236 255
223 236 255
223 236 255
222 236 255
223 236 255
223 236 255
222 236 255
222 236 255
223 236 255
223 236 255
222 236 255
223 236 255
223 236 255
223 236 255
223 236 255
223 236 255
223 236 255
223 236 255
223 236 255
222 236 255
223 236 255
223 236 255
223 236 255
223 236 255
223 236 255
223 236 255
223 236 255
223 236 255
223 236 255
223 236 255
223 236 255
222 236 255
223 236 255
223 236 255
223 236 255
223 236 255
223 236 255
223 236 255
223 236 255
223 236 255
223 236 255
223 236 255
223 236 255
223 236 255
223 236 255
223 236 255
222 236 255
223 236 255
223 236 255
223 236 255
223 236 255
223 236 255
223 236 255
223 236 255
223 236 255
223 236 255
223 236 255
223 236 255
223 236 255
223 236 255
223 236 255
223 236 255
223 236 255
223 237 255
223 236 255
223 236 255
223 236 255
222 236 255
223 236 255
223 236 255
223 236 255
223 236 255
223 236 255
223 236 255
223 236 255
223 236 255
223 236 255
223 236 255
223 236 255
223 236 255
223 236 255
223 236 255
222 236 255
223 236 255
223 236 255
223 236 255
223 236 255
223 236 255
223 236 255
223 236 255
223 236 255
223 236 255
223 236 255
223 236 255
223 236 255
223 236 255
223 236 255
223 236 255
223 236 255
223 236 255
223 236 255
223 236 255
223 236 255
222 236 255
223 236 255
223 236 255
223 236 255
223 236 255
223 236 255
222 236 255
223 236 255
222 236 255
222 236 255
223 236 255
223 236 255
223 236 255
223 236 255
223 236 255
223 236 255
223 236 255
223 236 255
223 236 255
222 236 255
223 236 255
223 236 255
223 236 255
223 236 255
223 236 255
223 236 255
222 236 255
223 236 255
223 236 255
222 236 255
223 236 255
223 236 255
223 236 255
223 236 255
223 236 255
223 236 255
222 236 255
222 236 255
223 236 255
223 236 255
222 236 255
222 236 255
223 236 255
223 236 255
223 236 255
222 236 255
222 236 255
222 236 255
223 236 255
223 236 255
223 236 255
222 236 255
222 236 255
222 236 255
223 236 255
222 236 255
222 236 255
223 236 255
222 236 255
222 236 255
222 236 255
222 236 255
222 236 255
222 236 255
222 236 255
222 236 255
222 236 255
222 236 255
223 236 255
222 236 255
223 236 255
223 236 255
222 236 255
222 236 255
222 236 255
222 236 255
222 236 255
222 236 255
222 236 255
222 236 255
222 236 255
222 236 255
222 236 255
222 236 255
222 236 255
222 236 255
222 236 255
222 236 255
222 236 255
222 236 255
222 236 255
222 236 255
222 236 255
222 236 255
222 236 255
222 236 255
222 236 255
222 236 255
222 236 255
222 236 255
222 236 255
222 236 255
222 236 255
222 236 255
222 236 255
222 236 255
222 236 255
222 236 255
222 236 255
222 236 255
222 236 255
222 236 255
222 236 255
222 236 255
222 236 255
222 236 255
222 236 255
222 236 255
222 236 255
222 236 255
222 236 255
222 236 255
222 236 255
222 236 255
222 236 255
222 236 255
222 236 255
222 236 255
222 236 255
222 236 255
222 236 255
222 236 255
222 236 255
222 236 255
222 236 255
222 236 255
222 236 255
222 236 255
222 236 255
222 236 255
222 236 255
222 236 255
222 236 255
222 236 255
222 236 255
222 236 255
222 236 255
222 236 255
222 236 255
222 236 255
222 236 255
222 236 255
222 236 255
222 236 255
222 236 255
222 236 255
222 236 255
222 236 255
222 236 255
222 236 255
222 236 255
222 236 255
222 236 255
222 236 255
222 236 255
222 236 255
222 236 255
222 236 255
222 236 255
222 236 255
222 236 255
222 236 255
222 236 255
222 236 255
222 236 255
222 236 255
222 236 255
222 236 255
222 236 255
222 236 255
222 236 255
222 236 255
222 236 255
222 236 255
222 236 255
222 236 255
222 236 255
222 236 255
222 236 255
222 236 255
222 236 255
222 236 255
222 236 255
222 236 255
222 236 255
222 236 255
222 236 255
222 236 255
222 236 255
222 236 255
222 236 255
222 236 255
222 236 255
222 236 255
222 236 255
222 236 255
222 236 255
222 236 255
222 236 255
222 236 255
222 236 255
222 236 255
222 236 255
222 236 255
222 236 255
222 236 255
222 236 255
222 236 255
222 236 255
222 236 255
222 236 255
222 236 255
222 236 255
222 236 255
222 236 255
222 236 255
222 236 255
222 236 255
222 236 255
222 236 255
222 236 255
222 236 255
222 236 255
222 236 255
222 236 255
222 236 255
222 236 255
222 236 255
222 236 255
222 236 255
222 236 255
222 236 255
222 236 255
222 236 255
222 236 255
222 236 255
222 236 255
222 236 255
222 236 255
223 236 255
223 236 255
222 236 255
222 236 255
222 236 255
223 236 255
222 236 255
222 236 255
222 236 255
222 236 255
222 236 255
222 236 255
222 236 255
222 236 255
222 236 255
223 236 255
222 236 255
222 236 255
222 236 255
222 236 255
223 236 255
223 236 255
223 236 255
222 236 255
223 236 255
223 236 255
223 236 255
223 236 255
223 236 255
223 236 255
223 236 255
223 236 255
223 236 255
222 236 255
223 236 255
223 236 255
223 236 255
223 236 255
223 236 255
222 236 255
222 236 255
223 236 255
223 236 255
223 236 255
223 236 255
223 236 255
223 236 255
223 236 255
223 236 255
223 236 255
223 236 255
223 236 255
223 236 255
223 236 255
223 236 255
223 236 255
223 236 255
223 236 255
223 236 255
223 236 255
223 236 255
223 236 255
223 236 255
223 236 255
223 236 255
223 236 255
223 236 255
223 236 255
223 236 255
223 236 255
223 236 255
223 236 255
223 236 255
223 236 255
223 236 255
223 237 255
223 236 255
223 236 255
223 236 255
223 236 255
223 236 255
223 236 255
223 236 255
223 236 255
223 237 255
223 236 255
223 236 255
223 236 255
223 236 255
223 236 255
223 237 255
223 236 255
223 236 255
223 236 255
223 236 255
223 236 255
223 237 255
223 237 255
223 236 255
223 236 255
223 236 255
223 236 255
223 236 255
223 237 255
223 237 255
223 236 255
223 237 255
223 236 255
223 236 255
223 237 255
223 237 255
223 236 255
223 237 255
223 236 255
223 236 255
223 236 255
223 236 255
223 236 255
223 237 255
223 236 255
223 237 255
223 236 255
223 237 255
223 236 255
223 236 255
223 236 255
223 237 255
223 236 255
223 237 255
223 237 255
223 237 255
223 236 255
223 237 255
223 237 255
223 236 255
223 237 255
223 237 255
223 236 255
223 236 255
223 237 255
223 236 255
223 237 255
223 237 255
223 236 255
223 237 255
223 237 255
223 237 255
223 236 255
223 237 255
223 237 255
223 236 255
223 237 255
223 236 255
223 237 255
223 236 255
223 236 255
223 237 255
223 236 255
223 237 255
223 236 255
223 236 255
223 237 255
223 236 255
223 236 255
223 237 255
223 236 255
223 236 255
223 236 255
223 237 255
223 236 255
223 236 255
223 236 255
223 236 255
223 236 255
223 236 255
223 236 255
223 236 255
223 236 255
223 236 255
223 236 255
223 236 255
223 236 255
223 236 255
223 237 255
223 236 255
223 236 255
223 236 255
223 236 255
223 236 255
223 236 255
223 236 255
223 236 255
223 236 255
223 236 255
223 236 255
223 236 255
223 236 255
223 236 255
223 236 255
223 236 255
223 236 255
223 236 255
223 236 255
223 236 255
223 236 255
223 236 255
223 236 255
223 236 255
223 236 255
223 236 255
223 236 255
222 236 255
223 236 255
223 236 255
223 236 255
223 236 255
223 236 255
223 236 255
223 236 255
223 236 255
223 236 255
223 236 255
223 236 255
223 236 255
222 236 255
223 236 255
223 236 255
223 236 255
223 236 255
222 236 255
222 236 255
223 236 255
223 236 255
223 236 255
223 236 255
222 236 255
223 236 255
223 236 255
223 236 255
223 236 255
223 236 255
222 236 255
222 236 255
222 236 255
223 236 255
222 236 255
222 236 255
222 236 255
223 236 255
223 236 255
223 236 255
223 236 255
223 236 255
222 236 255
223 236 255
222 236 255
223 236 255
222 236 255
223 236 255
222 236 255
223 236 255
222 236 255
222 236 255
223 236 255
222 236 255
222 236 255
222 236 255
222 236 255
222 236 255
222 236 255
222 236 255
222 236 255
222 236 255
222 236 255
222 236 255
222 236 255
222 236 255
222 236 255
222 236 255
222 236 255
222 236 255
222 236 255
222 236 255
222 236 255
222 236 255
222 236 255
222 236 255
222 236 255
222 236 255
222 236 255
222 236 255
222 236 255
222 236 255
222 236 255
222 236 255
222 236 255
222 236 255
222 236 255
222 236 255
222 236 255
222 236 255
222 236 255
222 236 255
222 236 255
222 236 255
222 236 255
222 236 255
222 236 255
222 236 255
222 236 255
222 236 255
222 236 255
222 236 255
222 236 255
222 236 255
222 236 255
222 236 255
222 236 255
222 236 255
222 236 255
222 236 255
222 236 255
222 236 255
222 236 255
222 236 255
222 236 255
222 236 255
222 236 255
222 236 255
222 236 255
222 236 255
222 236 255
222 236 255
222 236 255
222 236 255
222 236 255
222 236 255
222 236 255
222 236 255
222 236 255
222 236 255
222 236 255
222 236 255
222 236 255
222 236 255
222 236 255
222 236 255
222 236 255
222 236 255
222 236 255
222 236 255
222 236 255
222 236 255
222 236 255
223 236 255
222 236 255
222 236 255
222 236 255
222 236 255
222 236 255
223 236 255
222 236 255
222 236 255
222 236 255
222 236 255
223 236 255
222 236 255
222 236 255
222 236 255
223 236 255
223 236 255
222 236 255
222 236 255
222 236 255
223 236 255
223 236 255
222 236 255
223 236 255
222 236 255
223 236 255
223 236 255
222 236 255
222 236 255
222 236 255
222 236 255
223 236 255
223 236 255
223 236 255
223 236 255
223 236 255
222 236 255
222 236 255
223 236 255
223 236 255
222 236 255
223 236 255
223 236 255
223 236 255
223 236 255
222 236 255
223 236 255
222 236 255
223 236 255
223 236 255
223 236 255
223 236 255
223 236 255
223 236 255
223 236 255
223 236 255
223 236 255
223 236 255
223 236 255
223 236 255
223 236 255
223 236 255
223 236 255
223 236 255
223 236 255
223 236 255
223 236 255
223 236 255
223 236 255
223 236 255
223 236 255
223 236 255
223 236 255
223 236 255
223 236 255
223 236 255
223 236 255
223 236 255
223 236 255
223 236 255
223 236 255
223 236 255
223 236 255
223 236 255
223 237 255
223 236 255
223 236 255
223 236 255
223 236 255
223 236 255
223 236 255
223 236 255
223 236 255
223 236 255
223 237 255
223 236 255
223 236 255
223 236 255
223 236 255
223 237 255
223 236 255
223 236 255
223 236 255
223 236 255
223 236 255
223 237 255
223 236 255
223 237 255
223 236 255
223 237 255
223 236 255
223 236 255
223 236 255
223 237 255
223 237 255
223 237 255
223 237 255
223 237 255
223 237 255
223 236 255
223 237 255
223 237 255
223 237 255
223 237 255
223 237 255
223 237 255
223 237 255
223 236 255
223 237 255
223 237 255
223 237 255
223 237 255
223 237 255
223 237 255
223 237 255
223 236 255
223 236 255
223 237 255
223 236 255
223 237 255
223 237 255
223 237 255
223 237 255
223 236 255
223 237 255
223 237 255
223 237 255
223 237 255
223 237 255
223 237 255
223 237 255
223 237 255
223 237 255
223 237 255
223 237 255
223 237 255
223 237 255
223 237 255
223 237 255
223 237 255
223 237 255
223 237 255
223 237 255
223 237 255
223 237 255
223 237 255
223 237 255
223 237 255
223 237 255
223 237 255
223 237 255
223 237 255
223 237 255
223 237 255
223 237 255
223 237 255
223 237 255
223 237 255
223 237 255
223 237 255
223 237 255
223 237 255
223 237 255
223 237 255
223 237 255
223 237 255
223 237 255
223 237 255
223 237 255
223 236 255
223 237 255
223 237 255
223 237 255
223 237 255
223 237 255
223 237 255
223 237 255
223 237 255
223 237 255
223 237 255
223 237 255
223 237 255
223 237 255
223 237 255
223 237 255
223 237 255
223 237 255
223 237 255
223 237 255
223 237 255
223 237 255
223 237 255
223 237 255
223 237 255
223 237 255
223 237 255
223 237 255
223 237 255
223 237 255
223 237 255
223 237 255
223 237 255
223 236 255
223 237 255
223 237 255
223 237 255
223 237 255
223 237 255
223 237 255
223 237 255
223 237 255
223 236 255
223 237 255
223 237 255
223 236 255
223 237 255
223 236 255
223 237 255
223 236 255
223 237 255
223 236 255
223 236 255
223 236 255
223 236 255
223 236 255
223 236 255
223 237 255
223 236 255
223 236 255
223 237 255
223 236 255
223 236 255
223 236 255
223 237 255
223 236 255
223 236 255
223 236 255
223 237 255
223 236 255
223 236 255
223 236 255
223 236 255
223 236 255
223 236 255
223 236 255
223 236 255
223 236 255
223 236 255
223 236 255
223 236 255
223 236 255
223 236 255
223 236 255
223 236 255
223 236 255
223 236 255
223 236 255
223 236 255
223 236 255
223 236 255
223 236 255
223 236 255
223 236 255
223 236 255
223 236 255
223 236 255
223 236 255
223 236 255
223 236 255
223 236 255
223 236 255
223 236 255
223 236 255
223 236 255
223 236 255
223 236 255
222 236 255
223 236 255
223 236 255
223 236 255
223 236 255
222 236 255
223 236 255
223 236 255
223 236 255
223 236 255
223 236 255
223 236 255
223 236 255
223 236 255
223 236 255
223 236 255
223 236 255
223 236 255
222 236 255
223 236 255
222 236 255
222 236 255
223 236 255
223 236 255
222 236 255
223 236 255
223 236 255
223 236 255
222 236 255
223 236 255
222 236 255
222 236 255
222 236 255
223 236 255
222 236 255
222 236 255
222 236 255
222 236 255
222 236 255
222 236 255
222 236 255
222 236 255
223 236 255
222 236 255
222 236 255
222 236 255
222 236 255
223 236 255
222 236 255
222 236 255
222 236 255
222 236 255
222 236 255
222 236 255
222 236 255
222 236 255
222 236 255
222 236 255
222 236 255
222 236 255
222 236 255
222 236 255
222 236 255
222 236 255
222 236 255
222 236 255
222 236 255
222 236 255
222 236 255
222 236 255
222 236 255
222 236 255
222 236 255
222 236 255
222 236 255
222 236 255
222 236 255
222 236 255
222 236 255
223 236 255
222 236 255
222 236 255
222 236 255
222 236 255
222 236 255
223 236 255
222 236 255
222 236 255
222 236 255
222 236 255
223 236 255
223 236 255
222 236 255
222 236 255
222 236 255
222 236 255
223 236 255
222 236 255
223 236 255
223 236 255
223 236 255
222 236 255
222 236 255
223 236 255
222 236 255
222 236 255
222 236 255
223 236 255
223 236 255
223 236 255
223 236 255
223 236 255
223 236 255
223 236 255
223 236 255
223 236 255
223 236 255
223 236 255
223 236 255
223 236 255
223 236 255
223 236 255
223 236 255
223 236 255
223 236 255
223 236 255
223 236 255
223 236 255
223 236 255
223 236 255
223 236 255
223 236 255
223 236 255
223 236 255
223 236 255
223 236 255
223 236 255
223 236 255
223 236 255
223 236 255
223 236 255
223 236 255
223 236 255
223 236 255
223 236 255
223 236 255
223 236 255
223 236 255
223 236 255
223 236 255
223 236 255
223 236 255
223 236 255
223 236 255
223 236 255
223 236 255
223 236 255
223 236 255
223 236 255
223 236 255
223 236 255
223 236 255
223 236 255
223 236 255
223 236 255
223 236 255
223 237 255
223 236 255
223 236 255
223 237 255
223 237 255
223 236 255
223 236 255
223 237 255
223 236 255
223 236 255
223 237 255
223 237 255
223 237 255
223 236 255
223 236 255
223 237 255
223 237 255
223 237 255
223 237 255
223 237 255
223 237 255
223 237 255
223 237 255
223 237 255
223 237 255
223 236 255
223 237 255
223 236 255
223 237 255
223 237 255
223 237 255
223 237 255
223 237 255
223 237 255
223 237 255
223 237 255
223 237 255
223 237 255
223 237 255
223 237 255
223 237 255
223 237 255
223 237 255
223 237 255
223 237 255
223 237 255
223 237 255
223 237 255
223 237 255
223 237 255
223 237 255
223 237 255
223 237 255
223 237 255
223 237 255
223 237 255
223 237 255
223 237 255
223 237 255
223 237 255
223 237 255
223 237 255
223 237 255
223 237 255
223 237 255
223 237 255
223 237 255
223 237 255
223 237 255
223 237 255
223 237 255
223 237 255
223 237 255
224 237 255
223 237 255
223 237 255
223 237 255
223 237 255
223 237 255
223 237 255
223 237 255
223 237 255
223 237 255
223 237 255
223 237 255
223 237 255
223 237 255
224 237 255
223 237 255
224 237 255
223 237 255
223 237 255
223 237 255
223 237 255
223 237 255
223 237 255
223 237 255
223 237 255
223 237 255
223 237 255
223 237 255
223 237 255
224 237 255
223 237 255
223 237 255
223 237 255
224 237 255
223 237 255
223 237 255
224 237 255
223 237 255
223 237 255
223 237 255
224 237 255
224 237 255
223 237 255
223 237 255
223 237 255
223 237 255
223 237 255
223 237 255
223 237 255
223 237 255
224 237 255
223 237 255
223 237 255
223 237 255
223 237 255
223 237 255
223 237 255
223 237 255
223 237 255
223 237 255
224 237 255
223 237 255
223 237 255
223 237 255
223 237 255
223 237 255
223 237 255
224 237 255
223 237 255
223 237 255
223 237 255
223 237 255
223 237 255
223 237 255
223 237 255
223 237 255
223 237 255
223 237 255
223 237 255
223 237 255
223 237 255
223 237 255
223 237 255
223 237 255
224 237 255
223 237 255
223 237 255
223 237 255
223 237 255
223 237 255
223 237 255
223 237 255
223 237 255
223 237 255
223 237 255
223 237 255
223 237 255
223 237 255
223 237 255
223 237 255
223 237 255
223 237 255
223 237 255
223 237 255
223 237 255
223 237 255
223 236 255
223 237 255
223 237 255
223 237 255
223 237 255
223 237 255
223 237 255
223 237 255
223 237 255
223 237 255
223 237 255
223 237 255
223 237 255
223 237 255
223 237 255
223 237 255
223 237 255
223 237 255
223 237 255
223 237 255
223 237 255
223 237 255
223 237 255
223 236 255
223 237 255
223 237 255
223 236 255
223 237 255
223 237 255
223 237 255
223 236 255
223 237 255
223 236 255
223 237 255
223 237 255
223 237 255
223 236 255
223 236 255
223 237 255
223 237 255
223 237 255
223 236 255
223 236 255
223 236 255
223 236 255
223 236 255
223 236 255
223 236 255
223 236 255
223 236 255
223 236 255
223 236 255
223 236 255
223 236 255
223 236 255
223 236 255
223 236 255
223 236 255
223 236 255
223 236 255
223 236 255
223 236 255
223 236 255
223 236 255
223 236 255
223 236 255
223 236 255
223 236 255
223 236 255
223 236 255
223 236 255
223 236 255
223 236 255
223 236 255
223 236 255
223 236 255
223 236 255
223 236 255
223 236 255
223 236 255
223 236 255
223 236 255
223 236 255
223 236 255
223 236 255
223 236 255
223 236 255
223 236 255
222 236 255
223 236 255
222 236 255
223 236 255
223 236 255
223 236 255
223 236 255
223 236 255
223 236 255
223 236 255
222 236 255
222 236 255
223 236 255
222 236 255
222 236 255
223 236 255
223 236 255
222 236 255
223 236 255
222 236 255
223 236 255
223 236 255
223 236 255
222 236 255
222 236 255
222 236 255
222 236 255
222 236 255
222 236 255
222 236 255
223 236 255
223 236 255
222 236 255
222 236 255
222 236 255
222 236 255
222 236 255
223 236 255
222 236 255
222 236 255
223 236 255
222 236 255
222 236 255
222 236 255
222 236 255
223 236 255
223 236 255
223 236 255
223 236 255
222 236 255
223 236 255
223 236 255
223 236 255
223 236 255
223 236 255
223 236 255
223 236 255
223 236 255
223 236 255
222 236 255
223 236 255
223 236 255
223 236 255
223 236 255
223 236 255
223 236 255
223 236 255
223 236 255
223 236 255
223 236 255
223 236 255
223 236 255
222 236 255
223 236 255
223 236 255
223 236 255
223 236 255
223 236 255
223 236 255
223 236 255
223 236 255
223 236 255
223 236 255
223 236 255
223 236 255
223 236 255
223 236 255
223 236 255
223 236 255
223 236 255
223 236 255
223 236 255
223 236 255
223 236 255
223 236 255
223 237 255
223 236 255
223 236 255
223 236 255
223 236 255
223 237 255
223 237 255
223 236 255
223 236 255
223 237 255
223 236 255
223 236 255
223 236 255
223 236 255
223 236 255
223 236 255
223 236 255
223 237 255
223 236 255
223 236 255
223 236 255
223 236 255
223 236 255
223 236 255
223 237 255
223 237 255
223 237 255
223 237 255
223 236 255
223 237 255
223 237 255
223 237 255
223 237 255
223 237 255
223 237 255
223 237 255
223 237 255
223 237 255
223 237 255
223 237 255
223 237 255
223 237 255
223 237 255
223 237 255
223 237 255
223 237 255
223 237 255
223 237 255
223 237 255
223 237 255
223 237 255
223 237 255
223 237 255
223 237 255
223 237 255
223 237 255
223 237 255
223 237 255
223 237 255
223 237 255
223 237 255
223 237 255
223 237 255
223 237 255
223 237 255
223 237 255
223 237 255
223 237 255
223 237 255
223 237 255
223 237 255
223 237 255
223 237 255
223 237 255
224 237 255
223 237 255
223 237 255
223 237 255
223 237 255
223 237 255
223 237 255
223 237 255
223 237 255
223 237 255
223 237 255
224 237 255
223 237 255
223 237 255
223 237 255
224 237 255
223 237 255
223 237 255
224 237 255
223 237 255
223 237 255
223 237 255
223 237 255
223 237 255
223 237 255
223 237 255
223 237 255
224 237 255
224 237 255
223 237 255
224 237 255
223 237 255
224 237 255
223 237 255
224 237 255
224 237 255
224 237 255
224 237 255
224 237 255
224 237 255
224 237 255
223 237 255
224 237 255
223 237 255
223 237 255
223 237 255
224 237 255
223 237 255
223 237 255
224 237 255
223 237 255
223 237 255
224 237 255
224 237 255
224 237 255
224 237 255
224 237 255
224 237 255
223 237 255
223 237 255
224 237 255
224 237 255
224 237 255
224 237 255
224 237 255
223 237 255
224 237 255
224 237 255
224 237 255
224 237 255
224 237 255
224 237 255
224 237 255
224 237 255
224 237 255
223 237 255
223 237 255
224 237 255
224 237 255
224 237 255
223 237 255
224 237 255
224 237 255
224 237 255
224 237 255
224 237 255
224 237 255
224 237 255
224 237 255
224 237 255
224 237 255
223 237 255
224 237 255
223 237 255
224 237 255
224 237 255
224 237 255
224 237 255
224 237 255
224 237 255
223 237 255
224 237 255
224 237 255
224 237 255
223 237 255
223 237 255
224 237 255
224 237 255
223 237 255
224 237 255
224 237 255
224 237 255
224 237 255
223 237 255
223 237 255
224 237 255
223 237 255
224 237 255
224 237 255
223 237 255
223 237 255
223 237 255
223 237 255
224 237 255
223 237 255
224 237 255
224 237 255
223 237 255
223 237 255
223 237 255
223 237 255
224 237 255
223 237 255
223 237 255
224 237 255
223 237 255
223 237 255
223 237 255
224 237 255
223 237 255
223 237 255
223 237 255
223 237 255
223 237 255
223 237 255
223 237 255
223 237 255
223 237 255
223 237 255
223 237 255
223 237 255
223 237 255
223 237 255
223 237 255
223 237 255
223 237 255
223 237 255
223 237 255
223 237 255
223 237 255
223 237 255
223 237 255
223 237 255
223 237 255
223 237 255
223 237 255
223 237 255
223 237 255
223 237 255
223 237 255
223 237 255
223 237 255
223 237 255
223 237 255
223 237 255
223 237 255
223 237 255
223 237 255
223 236 255
223 237 255
223 237 255
223 237 255
223 237 255
223 237 255
223 237 255
223 237 255
223 237 255
223 237 255
223 237 255
223 237 255
223 237 255
223 237 255
223 236 255
223 236 255
223 236 255
223 236 255
223 237 255
223 237 255
223 236 255
223 236 255
223 236 255
223 236 255
223 237 255
223 237 255
223 236 255
223 236 255
223 236 255
223 236 255
223 236 255
223 236 255
223 236 255
223 237 255
223 237 255
223 236 255
223 236 255
223 237 255
223 236 255
223 237 255
223 236 255
223 236 255
223 236 255
223 236 255
223 236 255
223 237 255
223 237 255
223 236 255
223 237 255
223 236 255
223 236 255
223 236 255
223 236 255
223 237 255
223 236 255
223 236 255
223 236 255
223 236 255
223 236 255
223 236 255
223 236 255
223 236 255
223 236 255
223 236 255
223 236 255
223 236 255
223 236 255
223 236 255
223 236 255
223 236 255
223 236 255
223 236 255
223 236 255
223 236 255
223 236 255
223 236 255
223 236 255
223 236 255
223 236 255
223 236 255
223 236 255
223 236 255
223 236 255
223 236 255
223 236 255
223 236 255
223 236 255
223 236 255
223 236 255
223 236 255
222 236 255
222 236 255
222 236 255
222 236 255
222 236 255
223 236 255
223 236 255
222 236 255
223 236 255
223 236 255
223 236 255
223 236 255
223 236 255
223 236 255
223 236 255
223 236 255
223 236 255
223 236 255
223 236 255
223 236 255
223 236 255
223 236 255
223 236 255
223 236 255
223 236 255
223 236 255
223 236 255
223 236 255
223 236 255
223 236 255
223 236 255
223 236 255
223 236 255
223 236 255
223 236 255
223 236 255
223 236 255
223 236 255
223 236 255
223 236 255
223 236 255
223 236 255
223 236 255
223 236 255
223 236 255
223 236 255
223 236 255
223 237 255
223 237 255
223 237 255
223 237 255
223 237 255
223 236 255
223 237 255
223 236 255
223 236 255
223 237 255
223 236 255
223 237 255
223 236 255
223 237 255
223 237 255
223 237 255
223 237 255
223 236 255
223 236 255
223 237 255
223 237 255
223 237 255
223 237 255
223 237 255
223 237 255
223 237 255
223 237 255
223 237 255
223 237 255
223 237 255
223 237 255
223 237 255
223 237 255
223 237 255
223 237 255
223 237 255
223 237 255
223 237 255
223 237 255
223 237 255
223 237 255
223 237 255
223 237 255
223 237 255
223 237 255
223 237 255
223 237 255
223 237 255
223 237 255
223 237 255
223 237 255
223 237 255
223 237 255
223 237 255
223 237 255
223 237 255
223 237 255
223 237 255
223 237 255
223 237 255
223 237 255
223 237 255
223 237 255
223 237 255
223 237 255
223 237 255
223 237 255
223 237 255
224 237 255
223 237 255
223 237 255
223 237 255
223 237 255
223 237 255
223 237 255
223 237 255
224 237 255
224 237 255
223 237 255
223 237 255
223 237 255
223 237 255
224 237 255
223 237 255
223 237 255
223 237 255
223 237 255
224 237 255
224 237 255
224 237 255
223 237 255
223 237 255
224 237 255
223 237 255
224 237 255
224 237 255
224 237 255
223 237 255
224 237 255
224 237 255
224 237 255
224 237 255
223 237 255
224 237 255
223 237 255
224 237 255
224 237 255
224 237 255
224 237 255
224 237 255
224 237 255
224 237 255
224 237 255
224 237 255
223 237 255
224 237 255
224 237 255
224 237 255
224 237 255
224 237 255
224 237 255
224 237 255
224 237 255
224 237 255
224 237 255
224 237 255
224 237 255
224 237 255
224 237 255
224 237 255
224 237 255
224 237 255
224 237 255
224 237 255
224 237 255
224 237 255
224 237 255
224 237 255
224 237 255
224 237 255
224 237 255
224 237 255
224 237 255
224 237 255
224 237 255
224 237 255
224 237 255
224 237 255
224 237 255
224 237 255
224 237 255
224 237 255
224 237 255
224 237 255
224 237 255
224 237 255
224 237 255
224 237 255
224 237 255
224 237 255
224 237 255
224 237 255
224 237 255
224 237 255
224 237 255
224 237 255
224 237 255
224 237 255
224 237 255
224 237 255
224 237 255
224 237 255
224 237 255
224 237 255
224 237 255
224 237 255
224 237 255
224 237 255
224 237 255
224 237 255
224 237 255
224 237 255
224 237 255
224 237 255
224 237 255
224 237 255
224 237 255
224 237 255
224 237 255
224 237 255
224 237 255
224 237 255
224 237 255
224 237 255
224 237 255
224 237 255
224 237 255
224 237 255
224 237 255
224 237 255
224 237 255
224 237 255
224 237 255
224 237 255
224 237 255
224 237 255
224 237 255
224 237 255
224 237 255
224 237 255
224 237 255
224 237 255
224 237 255
224 237 255
224 237 255
224 237 255
224 237 255
224 237 255
224 237 255
223 237 255
224 237 255
224 237 255
224 237 255
224 237 255
224 237 255
224 237 255
224 237 255
224 237 255
224 237 255
223 237 255
224 237 255
223 237 255
223 237 255
224 237 255
224 237 255
224 237 255
224 237 255
224 237 255
224 237 255
223 237 255
224 237 255
224 237 255
223 237 255
223 237 255
223 237 255
223 237 255
223 237 255
223 237 255
223 237 255
223 237 255
223 237 255
223 237 255
224 237 255
224 237 255
223 237 255
223 237 255
223 237 255
223 237 255
223 237 255
223 237 255
223 237 255
223 237 255
223 237 255
223 237 255
223 237 255
223 237 255
223 237 255
223 237 255
223 237 255
223 237 255
223 237 255
223 237 255
223 237 255
223 237 255
223 237 255
223 237 255
223 237 255
223 237 255
223 237 255
223 237 255
223 237 255
223 237 255
223 237 255
223 237 255
223 237 255
223 237 255
223 237 255
223 237 255
223 237 255
223 237 255
223 237 255
223 237 255
223 237 255
223 237 255
223 237 255
223 237 255
223 237 255
223 237 255
223 237 255
223 237 255
223 237 255
223 237 255
223 237 255
223 237 255
223 237 255
223 237 255
223 237 255
223 236 255
223 237 255
223 236 255
223 237 255
223 237 255
223 237 255
223 236 255
223 236 255
223 237 255
223 236 255
223 236 255
223 236 255
223 236 255
223 236 255
223 236 255
223 236 255
223 236 255
223 237 255
223 236 255
223 236 255
223 236 255
223 236 255
223 236 255
223 236 255
223 236 255
223 236 255
223 236 255
223 237 255
223 236 255
223 236 255
223 236 255
223 236 255
223 236 255
223 236 255
223 236 255
223 236 255
223 236 255
223 236 255
223 236 255
223 236 255
223 236 255
223 236 255
223 236 255
223 236 255
223 236 255
223 236 255
223 236 255
223 236 255
223 236 255
223 236 255
223 236 255
223 236 255
223 236 255
223 236 255
223 236 255
223 236 255
223 236 255
223 236 255
223 236 255
223 236 255
223 237 255
223 236 255
223 236 255
223 236 255
223 236 255
223 236 255
223 237 255
223 236 255
223 236 255
223 236 255
223 236 255
223 236 255
223 236 255
223 236 255
223 237 255
223 236 255
223 236 255
223 236 255
223 236 255
223 236 255
223 237 255
223 236 255
223 236 255
223 237 255
223 236 255
223 237 255
223 237 255
223 237 255
223 237 255
223 237 255
223 237 255
223 236 255
223 237 255
223 237 255
223 237 255
223 237 255
223 237 255
223 237 255
223 237 255
223 237 255
223 237 255
223 237 255
223 237 255
223 237 255
223 237 255
223 237 255
223 237 255
223 237 255
223 237 255
223 237 255
223 237 255
223 237 255
223 237 255
223 237 255
223 237 255
223 237 255
223 237 255
223 237 255
223 237 255
223 237 255
223 237 255
223 237 255
223 237 255
223 237 255
223 237 255
223 237 255
223 237 255
223 237 255
223 237 255
223 237 255
223 237 255
223 237 255
223 237 255
223 237 255
223 237 255
223 237 255
223 237 255
223 237 255
223 237 255
223 237 255
223 237 255
223 237 255
223 237 255
223 237 255
223 237 255
224 237 255
223 237 255
223 237 255
223 237 255
223 237 255
224 237 255
223 237 255
224 237 255
224 237 255
224 237 255
223 237 255
224 237 255
224 237 255
223 237 255
224 237 255
224 237 255
224 237 255
223 237 255
224 237 255
224 237 255
224 237 255
224 237 255
224 237 255
223 237 255
224 237 255
224 237 255
224 237 255
224 237 255
224 237 255
224 237 255
224 237 255
224 237 255
224 237 255
224 237 255
224 237 255
224 237 255
224 237 255
224 237 255
224 237 255
224 237 255
224 237 255
224 237 255
224 237 255
224 237 255
224 237 255
224 237 255
224 237 255
224 237 255
224 237 255
224 237 255
224 237 255
224 237 255
224 237 255
224 237 255
224 237 255
224 237 255
224 237 255
224 237 255
224 237 255
224 237 255
224 237 255
224 237 255
224 237 255
224 237 255
224 237 255
224 237 255
224 237 255
224 237 255
224 237 255
224 237 255
224 237 255
224 237 255
224 237 255
224 237 255
224 237 255
224 237 255
224 237 255
224 237 255
224 237 255
224 237 255
224 237 255
224 237 255
224 237 255
224 237 255
224 237 255
224 237 255
224 237 255
224 237 255
224 237 255
224 237 255
224 237 255
224 237 255
224 237 255
224 237 255
224 237 255
224 237 255
224 237 255
224 237 255
224 237 255
224 237 255
224 237 255
224 237 255
224 237 255
224 237 255
224 237 255
224 237 255
224 237 255
224 237 255
224 237 255
224 237 255
224 237 255
224 237 255
224 237 255
224 237 255
224 237 255
224 237 255
224 237 255
224 237 255
224 237 255
224 237 255
224 237 255
224 237 255
224 237 255
224 237 255
224 237 255
224 237 255
224 237 255
224 237 255
224 237 255
224 237 255
224 237 255
224 237 255
224 237 255
224 237 255
224 237 255
224 237 255
224 237 255
224 237 255
224 237 255
224 237 255
224 237 255
224 237 255
224 237 255
224 237 255
224 237 255
224 237 255
224 237 255
224 237 255
224 237 255
224 237 255
224 237 255
224 237 255
224 237 255
224 237 255
224 237 255
224 237 255
224 237 255
224 237 255
224 237 255
224 237 255
224 237 255
224 237 255
224 237 255
224 237 255
224 237 255
224 237 255
224 237 255
224 237 255
224 237 255
224 237 255
224 237 255
224 237 255
224 237 255
224 237 255
224 237 255
224 237 255
224 237 255
224 237 255
224 237 255
224 237 255
224 237 255
224 237 255
224 237 255
224 237 255
224 237 255
224 237 255
224 237 255
224 237 255
224 237 255
224 237 255
224 237 255
224 237 255
224 237 255
224 237 255
223 237 255
224 237 255
224 237 255
224 237 255
224 237 255
224 237 255
224 237 255
224 237 255
223 237 255
224 237 255
224 237 255
223 237 255
224 237 255
223 237 255
224 237 255
223 237 255
224 237 255
223 237 255
223 237 255
223 237 255
223 237 255
223 237 255
223 237 255
223 237 255
224 237 255
223 237 255
223 237 255
224 237 255
223 237 255
223 237 255
223 237 255
223 237 255
223 237 255
223 237 255
223 237 255
223 237 255
223 237 255
223 237 255
223 237 255
223 237 255
223 237 255
223 237 255
223 237 255
223 237 255
223 237 255
223 237 255
223 237 255
223 237 255
223 237 255
223 237 255
223 237 255
223 237 255
223 237 255
223 237 255
223 237 255
223 237 255
223 237 255
223 237 255
223 237 255
223 237 255
223 237 255
223 237 255
223 237 255
223 237 255
223 237 255
223 237 255
223 237 255
223 237 255
223 237 255
223 237 255
223 237 255
223 237 255
223 237 255
223 237 255
223 237 255
223 237 255
223 237 255
223 237 255
223 237 255
223 237 255
223 237 255
223 237 255
223 236 255
223 237 255
223 236 255
223 237 255
223 236 255
223 236 255
223 236 255
223 237 255
223 237 255
223 236 255
223 236 255
223 237 255
223 236 255
223 236 255
223 236 255
223 236 255
223 236 255
223 236 255
223 236 255
223 237 255
223 236 255
223 236 255
223 236 255
223 236 255
223 236 255
223 236 255
223 236 255
223 237 255
223 236 255
223 236 255
223 236 255
223 236 255
223 237 255
223 237 255
223 236 255
223 237 255
223 236 255
223 237 255
223 236 255
223 236 255
223 237 255
223 237 255
223 236 255
223 237 255
223 237 255
223 237 255
223 236 255
223 236 255
223 237 255
223 237 255
223 237 255
223 237 255
223 237 255
223 237 255
223 237 255
223 237 255
223 237 255
223 237 255
223 237 255
223 237 255
223 237 255
223 237 255
223 237 255
223 237 255
223 237 255
223 237 255
223 237 255
223 237 255
223 237 255
223 237 255
223 237 255
223 237 255
223 237 255
223 237 255
223 237 255
223 237 255
223 237 255
223 237 255
223 237 255
223 237 255
223 237 255
223 237 255
223 237 255
223 237 255
223 237 255
223 237 255
223 237 255
223 237 255
223 237 255
223 237 255
223 237 255
223 237 255
223 237 255
223 237 255
223 237 255
223 237 255
223 237 255
223 237 255
223 237 255
223 237 255
223 237 255
223 237 255
223 237 255
223 237 255
223 237 255
223 237 255
224 237 255
223 237 255
223 237 255
223 237 255
224 237 255
224 237 255
224 237 255
224 237 255
223 237 255
224 237 255
224 237 255
224 237 255
224 237 255
224 237 255
224 237 255
223 237 255
223 237 255
224 237 255
224 237 255
224 237 255
224 237 255
223 237 255
224 237 255
224 237 255
224 237 255
224 237 255
224 237 255
224 237 255
224 237 255
224 237 255
224 237 255
224 237 255
224 237 255
224 237 255
224 237 255
224 237 255
224 237 255
224 237 255
224 237 255
224 237 255
224 237 255
224 237 255
224 237 255
224 237 255
224 237 255
224 237 255
224 237 255
224 237 255
224 237 255
224 237 255
224 237 255
224 237 255
224 237 255
224 237 255
224 237 255
224 237 255
224 237 255
224 237 255
224 237 255
224 237 255
224 237 255
224 237 255
224 237 255
224 237 255
224 237 255
224 237 255
224 237 255
224 237 255
224 237 255
224 237 255
224 237 255
224 237 255
224 237 255
224 237 255
224 237 255
224 237 255
224 237 255
224 237 255
224 237 255
224 237 255
224 237 255
224 237 255
224 237 255
224 237 255
224 237 255
224 237 255
224 237 255
224 237 255
224 237 255
224 237 255
224 237 255
224 237 255
224 237 255
224 237 255
224 237 255
224 237 255
224 237 255
224 237 255
224 237 255
224 237 255
224 237 255
224 237 255
224 237 255
224 237 255
224 237 255
224 237 255
224 237 255
224 237 255
224 237 255
224 237 255
224 237 255
224 237 255
224 237 255
224 237 255
224 237 255
224 237 255
224 237 255
224 237 255
224 237 255
224 237 255
224 237 255
224 237 255
224 237 255
224 237 255
224 237 255
224 237 255
224 237 255
224 237 255
224 237 255
224 237 255
224 237 255
225 237 255
224 237 255
224 237 255
224 237 255
224 237 255
224 237 255
224 237 255
224 237 255
224 237 255
224 237 255
224 237 255
224 237 255
224 237 255
224 237 255
224 237 255
224 237 255
224 237 255
224 237 255
224 237 255
224 237 255
224 237 255
224 237 255
224 237 255
224 237 255
224 237 255
224 237 255
224 237 255
224 237 255
224 237 255
224 237 255
224 237 255
224 237 255
224 237 255
224 237 255
224 237 255
224 237 255
224 237 255
224 237 255
224 237 255
224 237 255
224 237 255
224 237 255
224 237 255
224 237 255
224 237 255
224 237 255
224 237 255
224 237 255
224 237 255
224 237 255
224 237 255
224 237 255
224 237 255
224 237 255
224 237 255
224 237 255
224 237 255
224 237 255
224 237 255
224 237 255
224 237 255
224 237 255
224 237 255
224 237 255
224 237 255
224 237 255
224 237 255
224 237 255
224 237 255
224 237 255
224 237 255
224 237 255
224 237 255
224 237 255
224 237 255
224 237 255
224 237 255
224 237 255
224 237 255
224 237 255
224 237 255
224 237 255
224 237 255
224 237 255
224 237 255
224 237 255
224 237 255
224 237 255
224 237 255
224 237 255
224 237 255
224 237 255
224 237 255
224 237 255
224 237 255
224 237 255
224 237 255
224 237 255
224 237 255
224 237 255
224 237 255
224 237 255
223 237 255
224 237 255
224 237 255
224 237 255
224 237 255
224 237 255
224 237 255
224 237 255
224 237 255
223 237 255
224 237 255
223 237 255
223 237 255
224 237 255
224 237 255
223 237 255
224 237 255
223 237 255
223 237 255
223 237 255
223 237 255
224 237 255
223 237 255
223 237 255
223 237 255
223 237 255
223 237 255
223 237 255
223 237 255
223 237 255
223 237 255
223 237 255
223 237 255
223 237 255
223 237 255
223 237 255
223 237 255
223 237 255
223 237 255
223 237 255
223 237 255
223 237 255
223 237 255
223 237 255
223 237 255
223 237 255
223 237 255
223 237 255
223 237 255
223 237 255
223 237 255
223 237 255
223 237 255
223 237 255
223 237 255
223 237 255
223 237 255
223 237 255
223 237 255
223 237 255
223 237 255
223 237 255
223 237 255
223 237 255
223 237 255
223 237 255
223 237 255
223 237 255
223 237 255
223 237 255
223 237 255
223 237 255
223 237 255
223 236 255
223 237 255
223 236 255
223 237 255
223 237 255
223 237 255
223 237 255
223 237 255
223 236 255
223 237 255
223 236 255
223 237 255
223 237 255
223 237 255
223 237 255
223 236 255
223 236 255
223 237 255
223 236 255
223 236 255
223 236 255
223 237 255
223 237 255
223 237 255
223 237 255
223 237 255
223 237 255
223 237 255
223 237 255
223 237 255
223 237 255
223 237 255
223 237 255
223 237 255
223 237 255
223 237 255
223 237 255
223 237 255
223 237 255
223 237 255
223 237 255
223 237 255
223 237 255
223 237 255
223 237 255
223 237 255
223 237 255
223 237 255
223 237 255
223 237 255
223 237 255
223 237 255
223 237 255
223 237 255
223 237 255
223 237 255
223 237 255
223 237 255
223 237 255
223 237 255
223 237 255
223 237 255
223 237 255
223 237 255
223 237 255
223 237 255
223 237 255
223 237 255
223 237 255
223 237 255
223 237 255
223 237 255
223 237 255
223 237 255
223 237 255
224 237 255
223 237 255
224 237 255
223 237 255
224 237 255
223 237 255
223 237 255
223 237 255
223 237 255
224 237 255
224 237 255
224 237 255
224 237 255
223 237 255
224 237 255
224 237 255
224 237 255
224 237 255
224 237 255
224 237 255
224 237 255
224 237 255
224 237 255
224 237 255
224 237 255
224 237 255
224 237 255
224 237 255
224 237 255
224 237 255
224 237 255
224 237 255
224 237 255
224 237 255
224 237 255
224 237 255
224 237 255
224 237 255
224 237 255
224 237 255
224 237 255
224 237 255
224 237 255
224 237 255
224 237 255
224 237 255
224 237 255
224 237 255
224 237 255
224 237 255
224 237 255
224 237 255
224 237 255
224 237 255
224 237 255
224 237 255
224 237 255
224 237 255
224 237 255
224 237 255
224 237 255
224 237 255
224 237 255
224 237 255
224 237 255
224 237 255
224 237 255
224 237 255
224 237 255
224 237 255
224 237 255
224 237 255
224 237 255
224 237 255
224 237 255
224 237 255
224 237 255
224 237 255
224 237 255
224 237 255
224 237 255
224 237 255
224 237 255
224 237 255
224 237 255
224 237 255
224 237 255
224 237 255
224 237 255
224 237 255
224 237 255
224 237 255
224 237 255
224 237 255
224 237 255
224 237 255
224 237 255
224 237 255
224 237 255
224 237 255
224 237 255
224 237 255
224 237 255
225 237 255
224 237 255
224 237 255
225 237 255
224 237 255
225 237 255
225 237 255
224 237 255
224 237 255
225 237 255
224 237 255
225 237 255
225 237 255
225 237 255
224 237 255
225 237 255
225 237 255
224 237 255
225 237 255
224 237 255
225 238 255
224 237 255
224 237 255
224 237 255
224 237 255
225 237 255
225 237 255
224 237 255
225 237 255
225 238 255
225 237 255
225 238 255
224 237 255
224 237 255
225 237 255
224 237 255
225 237 255
225 237 255
224 237 255
224 237 255
225 237 255
224 237 255
224 237 255
225 237 255
224 237 255
225 237 255
225 237 255
224 237 255
224 237 255
224 237 255
224 237 255
225 237 255
225 237 255
225 237 255
224 237 255
225 237 255
225 237 255
225 237 255
225 237 255
225 237 255
225 237 255
225 238 255
225 237 255
225 237 255
225 237 255
225 237 255
225 237 255
224 237 255
224 237 255
225 237 255
225 237 255
225 237 255
225 237 255
224 237 255
224 237 255
224 237 255
225 237 255
225 237 255
224 237 255
225 237 255
224 237 255
225 237 255
224 237 255
224 237 255
225 237 255
224 237 255
224 237 255
224 237 255
224 237 255
224 237 255
224 237 255
224 237 255
224 237 255
224 237 255
224 237 255
224 237 255
224 237 255
224 237 255
224 237 255
224 237 255
224 237 255
224 237 255
224 237 255
224 237 255
224 237 255
224 237 255
224 237 255
224 237 255
224 237 255
224 237 255
224 237 255
224 237 255
224 237 255
224 237 255
224 237 255
224 237 255
224 237 255
224 237 255
224 237 255
224 237 255
224 237 255
224 237 255
224 237 255
224 237 255
224 237 255
224 237 255
224 237 255
224 237 255
224 237 255
224 237 255
224 237 255
224 237 255
224 237 255
224 237 255
224 237 255
224 237 255
224 237 255
224 237 255
224 237 255
224 237 255
224 237 255
224 237 255
224 237 255
224 237 255
224 237 255
224 237 255
224 237 255
224 237 255
224 237 255
224 237 255
224 237 255
224 237 255
224 237 255
224 237 255
224 237 255
224 237 255
224 237 255
224 237 255
224 237 255
224 237 255
224 237 255
224 237 255
224 237 255
224 237 255
224 237 255
224 237 255
224 237 255
224 237 255
224 237 255
223 237 255
224 237 255
224 237 255
224 237 255
224 237 255
224 237 255
224 237 255
223 237 255
224 237 255
223 237 255
224 237 255
223 237 255
223 237 255
224 237 255
224 237 255
223 237 255
223 237 255
223 237 255
223 237 255
223 237 255
223 237 255
223 237 255
223 237 255
223 237 255
223 237 255
223 237 255
223 237 255
223 237 255
223 237 255
223 237 255
223 237 255
223 237 255
223 237 255
223 237 255
223 237 255
223 237 255
223 237 255
223 237 255
223 237 255
223 237 255
223 237 255
223 237 255
223 237 255
223 237 255
223 237 255
223 237 255
223 237 255
223 237 255
223 237 255
223 237 255
223 237 255
223 237 255
223 237 255
223 237 255
223 237 255
223 237 255
223 237 255
223 237 255
223 237 255
223 237 255
223 237 255
223 237 255
223 237 255
223 237 255
223 237 255
223 237 255
223 237 255
223 237 255
223 237 255
223 237 255
223 237 255
223 236 255
223 237 255
223 237 255
223 237 255
223 237 255
223 237 255
223 237 255
223 237 255
223 237 255
223 237 255
223 237 255
223 237 255
223 237 255
223 237 255
223 237 255
223 237 255
223 237 255
223 237 255
223 237 255
223 237 255
223 237 255
223 237 255
223 237 255
223 237 255
223 237 255
223 237 255
223 237 255
223 237 255
223 237 255
223 237 255
223 237 255
223 237 255
223 237 255
223 237 255
223 237 255
223 237 255
223 237 255
223 237 255
223 237 255
223 237 255
223 237 255
223 237 255
223 237 255
223 237 255
223 237 255
224 237 255
223 237 255
223 237 255
224 237 255
224 237 255
224 237 255
223 237 255
224 237 255
224 237 255
224 237 255
224 237 255
223 237 255
223 237 255
224 237 255
224 237 255
224 237 255
224 237 255
224 237 255
224 237 255
224 237 255
224 237 255
224 237 255
224 237 255
224 237 255
224 237 255
224 237 255
224 237 255
224 237 255
224 237 255
224 237 255
224 237 255
224 237 255
224 237 255
224 237 255
224 237 255
224 237 255
224 237 255
224 237 255
224 237 255
224 237 255
224 237 255
224 237 255
224 237 255
224 237 255
224 237 255
224 237 255
224 237 255
224 237 255
224 237 255
224 237 255
224 237 255
224 237 255
224 237 255
224 237 255
224 237 255
224 237 255
224 237 255
224 237 255
224 237 255
224 237 255
224 237 255
224 237 255
224 237 255
224 237 255
224 237 255
224 237 255
224 237 255
224 237 255
224 237 255
224 237 255
224 237 255
224 237 255
224 237 255
224 237 255
224 237 255
224 237 255
224 237 255
224 237 255
224 237 255
224 237 255
224 237 255
224 237 255
224 237 255
225 237 255
224 237 255
224 237 255
224 237 255
224 237 255
224 237 255
224 237 255
224 237 255
224 237 255
225 237 255
224 237 255
224 237 255
224 237 255
224 237 255
225 237 255
225 237 255
225 237 255
224 237 255
224 237 255
225 237 255
225 237 255
225 237 255
224 237 255
225 237 255
225 237 255
225 237 255
225 238 255
224 237 255
225 237 255
225 237 255
225 237 255
225 237 255
225 237 255
225 237 255
225 237 255
225 238 255
225 237 255
225 237 255
225 238 255
225 237 255
225 238 255
225 237 255
225 238 255
225 237 255
225 238 255
225 237 255
225 238 255
225 237 255
225 237 255
225 238 255
225 237 255
225 238 255
225 238 255
225 238 255
225 237 255
225 238 255
225 237 255
225 237 255
225 238 255
225 238 255
225 238 255
225 238 255
225 238 255
225 238 255
225 238 255
225 238 255
225 237 255
225 238 255
225 237 255
225 238 255
225 238 255
225 238 255
225 238 255
225 238 255
225 238 255
225 238 255
225 237 255
225 238 255
225 238 255
225 238 255
225 238 255
225 238 255
225 238 255
225 238 255
225 238 255
225 238 255
225 238 255
225 238 255
225 238 255
225 238 255
225 238 255
225 238 255
225 238 255
225 237 255
225 238 255
225 238 255
225 237 255
225 238 255
225 237 255
225 238 255
225 238 255
225 237 255
225 237 255
225 237 255
225 238 255
225 238 255
225 237 255
225 237 255
225 237 255
225 237 255
225 237 255
225 238 255
225 237 255
225 238 255
225 237 255
225 237 255
225 237 255
225 237 255
225 238 255
225 237 255
224 237 255
225 237 255
225 237 255
225 237 255
224 237 255
225 237 255
224 237 255
225 237 255
225 237 255
225 237 255
225 237 255
225 237 255
224 237 255
225 237 255
225 237 255
224 237 255
224 237 255
225 237 255
225 237 255
225 237 255
224 237 255
225 237 255
224 237 255
224 237 255
224 237 255
224 237 255
224 237 255
224 237 255
224 237 255
224 237 255
224 237 255
224 237 255
224 237 255
224 237 255
224 237 255
224 237 255
224 237 255
224 237 255
224 237 255
224 237 255
224 237 255
224 237 255
224 237 255
224 237 255
224 237 255
224 237 255
224 237 255
224 237 255
224 237 255
224 237 255
224 237 255
224 237 255
224 237 255
224 237 255
224 237 255
224 237 255
224 237 255
224 237 255
224 237 255
224 237 255
224 237 255
224 237 255
224 237 255
224 237 255
224 237 255
224 237 255
224 237 255
224 237 255
224 237 255
224 237 255
224 237 255
224 237 255
224 237 255
224 237 255
224 237 255
224 237 255
224 237 255
224 237 255
224 237 255
224 237 255
224 237 255
224 237 255
224 237 255
224 237 255
224 237 255
224 237 255
224 237 255
224 237 255
224 237 255
224 237 255
224 237 255
224 237 255
224 237 255
224 237 255
224 237 255
224 237 255
224 237 255
223 237 255
224 237 255
223 237 255
224 237 255
224 237 255
224 237 255
224 237 255
224 237 255
224 237 255
224 237 255
223 237 255
224 237 255
224 237 255
223 237 255
224 237 255
223 237 255
224 237 255
223 237 255
223 237 255
223 237 255
223 237 255
223 237 255
223 237 255
223 237 255
223 237 255
223 237 255
223 237 255
223 237 255
223 237 255
223 237 255
223 237 255
223 237 255
223 237 255
223 237 255
223 237 255
223 237 255
223 237 255
223 237 255
223 237 255
223 237 255
223 237 255
223 237 255
223 237 255
223 237 255
223 237 255
223 237 255
223 237 255
223 237 255
223 237 255
223 237 255
223 237 255
223 237 255
223 237 255
223 237 255
223 237 255
223 237 255
223 237 255
223 237 255
223 237 255
223 237 255
223 237 255
223 237 255
223 237 255
223 237 255
223 237 255
223 237 255
223 237 255
223 237 255
223 237 255
223 237 255
223 237 255
223 237 255
223 237 255
224 237 255
223 237 255
223 237 255
223 237 255
224 237 255
223 237 255
223 237 255
223 237 255
223 237 255
223 237 255
224 237 255
224 237 255
224 237 255
224 237 255
224 237 255
223 237 255
224 237 255
223 237 255
224 237 255
224 237 255
223 237 255
224 237 255
224 237 255
224 237 255
224 237 255
223 237 255
224 237 255
224 237 255
224 237 255
224 237 255
224 237 255
224 237 255
224 237 255
224 237 255
224 237 255
224 237 255
224 237 255
224 237 255
224 237 255
224 237 255
224 237 255
224 237 255
224 237 255
224 237 255
224 237 255
224 237 255
224 237 255
224 237 255
224 237 255
224 237 255
224 237 255
224 237 255
224 237 255
224 237 255
224 237 255
224 237 255
224 237 255
224 237 255
224 237 255
224 237 255
224 237 255
224 237 255
224 237 255
224 237 255
224 237 255
224 237 255
224 237 255
224 237 255
224 237 255
224 237 255
224 237 255
224 237 255
224 237 255
224 237 255
224 237 255
224 237 255
224 237 255
224 237 255
224 237 255
224 237 255
224 237 255
224 237 255
224 237 255
224 237 255
224 237 255
224 237 255
224 237 255
224 237 255
224 237 255
224 237 255
224 237 255
224 237 255
224 237 255
224 237 255
224 237 255
224 237 255
224 237 255
225 237 255
224 237 255
224 237 255
224 237 255
225 237 255
225 237 255
225 237 255
225 237 255
225 237 255
225 237 255
224 237 255
225 237 255
225 237 255
225 237 255
225 237 255
225 237 255
225 237 255
225 237 255
225 237 255
225 237 255
225 237 255
225 237 255
225 238 255
225 238 255
225 237 255
225 237 255
225 237 255
225 237 255
225 238 255
225 238 255
225 238 255
225 238 255
225 238 255
225 238 255
225 238 255
225 238 255
225 238 255
225 238 255
225 238 255
225 238 255
225 237 255
225 237 255
225 238 255
225 237 255
225 238 255
225 238 255
225 238 255
225 238 255
225 238 255
225 238 255
225 238 255
225 238 255
225 238 255
225 238 255
225 238 255
225 238 255
225 238 255
225 238 255
225 238 255
225 238 255
225 238 255
225 238 255
225 238 255
225 238 255
225 238 255
225 238 255
225 238 255
225 238 255
225 238 255
225 238 255
225 238 255
225 238 255
225 238 255
225 238 255
225 238 255
225 238 255
225 238 255
225 238 255
225 238 255
225 238 255
225 238 255
225 238 255
225 238 255
225 238 255
225 238 255
225 238 255
225 238 255
225 238 255
225 238 255
225 238 255
225 238 255
225 238 255
225 238 255
225 238 255
225 238 255
225 238 255
225 238 255
225 238 255
225 238 255
225 238 255
225 238 255
225 238 255
225 238 255
225 238 255
225 238 255
225 238 255
225 238 255
225 238 255
225 238 255
225 238 255
225 238 255
225 238 255
225 238 255
225 238 255
225 238 255
225 238 255
225 238 255
225 238 255
225 238 255
225 238 255
225 238 255
225 238 255
225 238 255
225 238 255
225 238 255
225 238 255
225 238 255
225 237 255
225 238 255
225 238 255
225 238 255
225 238 255
225 238 255
225 238 255
225 238 255
225 238 255
225 238 255
225 238 255
225 238 255
225 237 255
225 238 255
225 237 255
225 238 255
225 238 255
225 237 255
225 237 255
225 238 255
225 237 255
225 238 255
225 237 255
225 237 255
225 238 255
225 237 255
225 238 255
225 237 255
224 237 255
225 237 255
225 237 255
225 237 255
225 238 255
225 237 255
224 237 255
224 237 255
225 237 255
224 237 255
225 237 255
224 237 255
224 237 255
224 237 255
224 237 255
224 237 255
224 237 255
224 237 255
224 237 255
225 237 255
225 237 255
224 237 255
224 237 255
224 237 255
224 237 255
224 237 255
224 237 255
224 237 255
224 237 255
224 237 255
224 237 255
224 237 255
224 237 255
224 237 255
224 237 255
224 237 255
224 237 255
224 237 255
224 237 255
224 237 255
224 237 255
224 237 255
224 237 255
224 237 255
224 237 255
224 237 255
224 237 255
224 237 255
224 237 255
224 237 255
224 237 255
224 237 255
224 237 255
224 237 255
224 237 255
224 237 255
224 237 255
224 237 255
224 237 255
224 237 255
224 237 255
224 237 255
224 237 255
224 237 255
224 237 255
224 237 255
224 237 255
224 237 255
224 237 255
224 237 255
224 237 255
224 237 255
224 237 255
224 237 255
224 237 255
224 237 255
224 237 255
224 237 255
224 237 255
224 237 255
224 237 255
224 237 255
224 237 255
224 237 255
224 237 255
224 237 255
224 237 255
224 237 255
224 237 255
224 237 255
224 237 255
224 237 255
224 237 255
224 237 255
224 237 255
224 237 255
224 237 255
224 237 255
224 237 255
223 237 255
223 237 255
223 237 255
223 237 255
224 237 255
223 237 255
223 237 255
224 237 255
223 237 255
224 237 255
223 237 255
223 237 255
223 237 255
223 237 255
223 237 255
223 237 255
223 237 255
223 237 255
223 237 255
223 237 255
223 237 255
223 237 255
223 237 255
223 237 255
223 237 255
223 237 255
223 237 255
223 237 255
223 237 255
223 237 255
223 237 255
223 237 255
223 237 255
223 237 255
224 237 255
223 237 255
223 237 255
223 237 255
223 237 255
224 237 255
223 237 255
223 237 255
224 237 255
224 237 255
224 237 255
223 237 255
224 237 255
224 237 255
224 237 255
223 237 255
224 237 255
224 237 255
224 237 255
224 237 255
224 237 255
224 237 255
224 237 255
224 237 255
224 237 255
224 237 255
224 237 255
224 237 255
224 237 255
224 237 255
224 237 255
224 237 255
224 237 255
224 237 255
224 237 255
224 237 255
224 237 255
224 237 255
224 237 255
224 237 255
224 237 255
224 237 255
224 237 255
224 237 255
224 237 255
224 237 255
224 237 255
224 237 255
224 237 255
224 237 255
224 237 255
224 237 255
224 237 255
224 237 255
224 237 255
224 237 255
224 237 255
224 237 255
224 237 255
224 237 255
224 237 255
224 237 255
224 237 255
224 237 255
224 237 255
224 237 255
224 237 255
224 237 255
224 237 255
224 237 255
224 237 255
224 237 255
224 237 255
224 237 255
224 237 255
224 237 255
224 237 255
224 237 255
224 237 255
224 237 255
224 237 255
224 237 255
224 237 255
224 237 255
224 237 255
224 237 255
224 237 255
224 237 255
224 237 255
224 237 255
224 237 255
224 237 255
224 237 255
224 237 255
224 237 255
224 237 255
224 237 255
224 237 255
224 237 255
224 237 255
225 237 255
224 237 255
224 237 255
225 237 255
225 237 255
225 237 255
225 238 255
224 237 255
224 237 255
224 237 255
225 237 255
225 237 255
224 237 255
224 237 255
225 237 255
225 238 255
225 237 255
224 237 255
225 237 255
225 238 255
225 237 255
225 238 255
225 237 255
225 238 255
225 238 255
225 238 255
225 237 255
225 238 255
225 238 255
225 238 255
225 238 255
225 238 255
225 238 255
225 238 255
225 238 255
225 238 255
225 237 255
225 238 255
225 238 255
225 238 255
225 238 255
225 238 255
225 238 255
225 238 255
225 238 255
225 238 255
225 238 255
225 238 255
225 238 255
225 238 255
225 238 255
225 238 255
225 238 255
225 238 255
225 238 255
225 238 255
225 238 255
225 238 255
225 238 255
225 238 255
225 238 255
225 238 255
225 238 255
225 238 255
225 238 255
225 238 255
225 238 255
225 238 255
225 238 255
225 238 255
225 238 255
225 238 255
225 238 255
225 238 255
225 238 255
225 238 255
225 238 255
225 238 255
225 238 255
225 238 255
225 238 255
225 238 255
225 238 255
225 238 255
225 238 255
225 238 255
225 238 255
225 238 255
225 238 255
225 238 255
225 238 255
225 238 255
225 238 255
225 238 255
225 238 255
225 238 255
225 238 255
225 238 255
225 238 255
225 238 255
225 238 255
225 238 255
225 238 255
225 238 255
225 238 255
225 238 255
226 238 255
225 238 255
225 238 255
225 238 255
226 238 255
225 238 255
225 238 255
225 238 255
225 238 255
225 238 255
225 238 255
225 238 255
225 238 255
225 238 255
225 238 255
225 238 255
225 238 255
225 238 255
225 238 255
225 238 255
225 238 255
225 238 255
225 238 255
225 238 255
225 238 255
225 238 255
225 238 255
225 238 255
225 238 255
225 238 255
225 238 255
225 238 255
225 238 255
225 238 255
225 238 255
225 238 255
225 238 255
225 238 255
225 238 255
225 238 255
225 238 255
225 238 255
225 238 255
225 238 255
225 238 255
225 238 255
225 238 255
225 238 255
225 238 255
225 238 255
225 238 255
225 238 255
225 238 255
225 238 255
225 238 255
225 238 255
225 238 255
225 238 255
225 238 255
225 237 255
225 238 255
225 238 255
225 238 255
225 238 255
225 238 255
225 237 255
225 238 255
225 238 255
225 238 255
225 238 255
225 237 255
225 238 255
225 238 255
225 237 255
225 237 255
225 237 255
225 237 255
225 238 255
225 238 255
225 237 255
224 237 255
225 238 255
225 238 255
224 237 255
224 237 255
225 237 255
224 237 255
225 237 255
225 237 255
225 237 255
224 237 255
224 237 255
224 237 255
224 237 255
224 237 255
224 237 255
224 237 255
224 237 255
225 237 255
224 237 255
224 237 255
224 237 255
224 237 255
224 237 255
224 237 255
224 237 255
224 237 255
224 237 255
224 237 255
224 237 255
224 237 255
224 237 255
224 237 255
224 237 255
224 237 255
224 237 255
224 237 255
224 237 255
224 237 255
224 237 255
224 237 255
224 237 255
224 237 255
224 237 255
224 237 255
224 237 255
224 237 255
224 237 255
224 237 255
224 237 255
224 237 255
224 237 255
224 237 255
224 237 255
224 237 255
224 237 255
224 237 255
224 237 255
224 237 255
224 237 255
224 237 255
224 237 255
224 237 255
224 237 255
224 237 255
224 237 255
224 237 255
224 237 255
224 237 255
224 237 255
224 237 255
224 237 255
224 237 255
224 237 255
224 237 255
224 237 255
224 237 255
224 237 255
224 237 255
224 237 255
224 237 255
224 237 255
224 237 255
224 237 255
224 237 255
224 237 255
224 237 255
224 237 255
224 237 255
224 237 255
224 237 255
224 237 255
224 237 255
224 237 255
223 237 255
224 237 255
224 237 255
224 237 255
224 237 255
224 237 255
224 237 255
224 237 255
224 237 255
223 237 255
223 237 255
223 237 255
224 237 255
224 237 255
223 237 255
223 237 255
224 237 255
223 237 255
223 237 255
223 237 255
224 237 255
224 237 255
224 237 255
223 237 255
224 237 255
224 237 255
224 237 255
224 237 255
224 237 255
224 237 255
224 237 255
224 237 255
224 237 255
224 237 255
224 237 255
224 237 255
224 237 255
224 237 255
224 237 255
224 237 255
224 237 255
224 237 255
224 237 255
224 237 255
224 237 255
224 237 255
224 237 255
224 237 255
224 237 255
224 237 255
224 237 255
224 237 255
224 237 255
224 237 255
224 237 255
224 237 255
224 237 255
224 237 255
224 237 255
224 237 255
224 237 255
224 237 255
224 237 255
224 237 255
224 237 255
224 237 255
224 237 255
224 237 255
224 237 255
224 237 255
224 237 255
224 237 255
224 237 255
224 237 255
224 237 255
224 237 255
224 237 255
224 237 255
224 237 255
224 237 255
224 237 255
224 237 255
224 237 255
224 237 255
224 237 255
224 237 255
224 237 255
224 237 255
224 237 255
224 237 255
224 237 255
224 237 255
224 237 255
224 237 255
224 237 255
224 237 255
224 237 255
224 237 255
224 237 255
224 237 255
224 237 255
224 237 255
224 237 255
224 237 255
224 237 255
224 237 255
224 237 255
225 237 255
224 237 255
225 237 255
224 237 255
225 237 255
225 237 255
225 237 255
225 237 255
225 237 255
225 237 255
225 237 255
225 237 255
225 237 255
225 238 255
225 238 255
225 237 255
225 238 255
225 238 255
225 237 255
225 238 255
225 238 255
225 237 255
225 238 255
225 238 255
225 238 255
225 238 255
225 238 255
225 238 255
225 238 255
225 238 255
225 238 255
225 238 255
225 238 255
225 238 255
225 238 255
225 238 255
225 238 255
225 238 255
225 238 255
225 238 255
225 238 255
225 238 255
225 238 255
225 238 255
225 238 255
225 238 255
225 238 255
225 238 255
225 238 255
225 238 255
225 238 255
225 238 255
225 238 255
225 238 255
225 238 255
225 238 255
225 238 255
225 238 255
225 238 255
225 238 255
225 238 255
225 238 255
225 238 255
225 238 255
225 238 255
225 238 255
225 238 255
225 238 255
225 238 255
225 238 255
225 238 255
225 238 255
225 238 255
225 238 255
225 238 255
225 238 255
225 238 255
225 238 255
225 238 255
225 238 255
226 238 255
225 238 255
225 238 255
225 238 255
226 238 255
225 238 255
225 238 255
225 238 255
225 238 255
226 238 255
226 238 255
225 238 255
226 238 255
226 238 255
226 238 255
225 238 255
226 238 255
225 238 255
226 238 255
225 238 255
225 238 255
225 238 255
226 238 255
226 238 255
225 238 255
226 238 255
226 238 255
226 238 255
225 238 255
226 238 255
226 238 255
225 238 255
226 238 255
226 238 255
226 238 255
226 238 255
226 238 255
226 238 255
225 238 255
225 238 255
225 238 255
225 238 255
226 238 255
226 238 255
226 238 255
226 238 255
226 238 255
226 238 255
225 238 255
225 238 255
225 238 255
226 238 255
226 238 255
225 238 255
225 238 255
226 238 255
225 238 255
225 238 255
226 238 255
225 238 255
226 238 255
226 238 255
226 238 255
225 238 255
226 238 255
225 238 255
225 238 255
225 238 255
225 238 255
225 238 255
225 238 255
225 238 255
225 238 255
225 238 255
226 238 255
225 238 255
225 238 255
225 238 255
225 238 255
225 238 255
225 238 255
225 238 255
225 238 255
225 238 255
225 238 255
225 238 255
225 238 255
225 238 255
225 238 255
225 238 255
225 238 255
225 238 255
225 238 255
225 238 255
225 238 255
225 238 255
225 238 255
225 238 255
225 238 255
225 238 255
225 238 255
225 238 255
225 238 255
225 238 255
225 238 255
225 238 255
225 238 255
225 238 255
225 238 255
225 238 255
225 238 255
225 238 255
225 238 255
225 238 255
225 238 255
225 238 255
225 238 255
225 238 255
225 238 255
225 238 255
225 238 255
225 238 255
225 238 255
225 237 255
225 238 255
225 237 255
225 237 255
225 237 255
225 237 255
225 238 255
225 237 255
225 238 255
225 237 255
225 238 255
225 237 255
224 237 255
225 237 255
225 238 255
225 237 255
225 237 255
225 237 255
224 237 255
224 237 255
225 237 255
225 237 255
225 237 255
224 237 255
224 237 255
225 237 255
224 237 255
224 237 255
224 237 255
224 237 255
224 237 255
224 237 255
224 237 255
224 237 255
225 237 255
224 237 255
224 237 255
224 237 255
225 237 255
224 237 255
224 237 255
224 237 255
224 237 255
224 237 255
224 237 255
224 237 255
224 237 255
224 237 255
224 237 255
224 237 255
224 237 255
224 237 255
224 237 255
224 237 255
224 237 255
224 237 255
224 237 255
224 237 255
224 237 255
224 237 255
224 237 255
224 237 255
224 237 255
224 237 255
224 237 255
224 237 255
224 237 255
224 237 255
224 237 255
224 237 255
224 237 255
224 237 255
224 237 255
224 237 255
224 237 255
224 237 255
224 237 255
224 237 255
224 237 255
224 237 255
224 237 255
224 237 255
224 237 255
224 237 255
224 237 255
224 237 255
224 237 255
224 237 255
224 237 255
224 237 255
224 237 255
224 237 255
224 237 255
224 237 255
224 237 255
224 237 255
224 237 255
224 237 255
224 237 255
224 237 255
224 237 255
224 237 255
224 237 255
224 237 255
224 237 255
224 237 255
224 237 255
224 237 255
224 237 255
224 237 255
224 237 255
224 237 255
224 237 255
224 237 255
224 237 255
224 237 255
224 237 255
224 237 255
224 237 255
224 237 255
224 237 255
224 237 255
224 237 255
224 237 255
224 237 255
224 237 255
224 237 255
224 237 255
224 237 255
224 237 255
224 237 255
224 237 255
224 237 255
224 237 255
224 237 255
224 237 255
224 237 255
224 237 255
224 237 255
224 237 255
224 237 255
224 237 255
224 237 255
224 237 255
224 237 255
224 237 255
224 237 255
224 237 255
224 237 255
224 237 255
224 237 255
224 237 255
224 237 255
224 237 255
224 237 255
224 237 255
224 237 255
224 237 255
224 237 255
224 237 255
224 237 255
224 237 255
224 237 255
224 237 255
224 237 255
224 237 255
224 237 255
224 237 255
224 237 255
224 237 255
224 237 255
224 237 255
224 237 255
224 237 255
224 237 255
224 237 255
224 237 255
224 237 255
224 237 255
224 237 255
224 237 255
224 237 255
224 237 255
224 237 255
224 237 255
225 237 255
224 237 255
225 237 255
225 237 255
225 237 255
225 237 255
225 237 255
225 237 255
225 238 255
224 237 255
225 238 255
225 237 255
225 238 255
225 237 255
225 237 255
225 237 255
225 238 255
225 237 255
225 238 255
225 238 255
225 238 255
225 238 255
225 237 255
225 238 255
225 238 255
225 238 255
225 238 255
225 238 255
225 238 255
225 238 255
225 238 255
225 238 255
225 238 255
225 238 255
225 238 255
225 238 255
225 238 255
225 238 255
225 238 255
225 238 255
225 238 255
225 238 255
225 238 255
225 238 255
225 238 255
225 238 255
225 238 255
225 238 255
225 238 255
225 238 255
225 238 255
225 238 255
225 238 255
225 238 255
225 238 255
225 238 255
225 238 255
225 238 255
225 238 255
225 238 255
225 238 255
225 238 255
225 238 255
226 238 255
226 238 255
225 238 255
225 238 255
225 238 255
225 238 255
226 238 255
225 238 255
226 238 255
225 238 255
226 238 255
226 238 255
225 238 255
225 238 255
225 238 255
225 238 255
226 238 255
226 238 255
226 238 255
226 238 255
226 238 255
225 238 255
226 238 255
226 238 255
226 238 255
226 238 255
226 238 255
226 238 255
226 238 255
226 238 255
226 238 255
226 238 255
226 238 255
225 238 255
226 238 255
226 238 255
226 238 255
226 238 255
226 238 255
226 238 255
226 238 255
226 238 255
226 238 255
226 238 255
226 238 255
226 238 255
226 238 255
226 238 255
226 238 255
226 238 255
226 238 255
226 238 255
226 238 255
226 238 255
226 238 255
226 238 255
226 238 255
226 238 255
226 238 255
226 238 255
226 238 255
226 238 255
226 238 255
226 238 255
226 238 255
226 238 255
226 238 255
226 238 255
226 238 255
226 238 255
226 238 255
226 238 255
226 238 255
226 238 255
226 238 255
226 238 255
226 238 255
226 238 255
226 238 255
226 238 255
226 238 255
226 238 255
226 238 255
226 238 255
226 238 255
226 238 255
226 238 255
226 238 255
226 238 255
226 238 255
226 238 255
226 238 255
226 238 255
226 238 255
226 238 255
226 238 255
225 238 255
226 238 255
226 238 255
226 238 255
225 238 255
226 238 255
225 238 255
225 238 255
226 238 255
226 238 255
226 238 255
226 238 255
225 238 255
226 238 255
226 238 255
225 238 255
226 238 255
225 238 255
225 238 255
225 238 255
226 238 255
225 238 255
225 238 255
225 238 255
225 238 255
225 238 255
225 238 255
225 238 255
226 238 255
225 238 255
225 238 255
225 238 255
225 238 255
225 238 255
225 238 255
225 238 255
225 238 255
225 238 255
225 238 255
225 238 255
225 238 255
225 238 255
225 238 255
225 238 255
225 238 255
225 238 255
225 238 255
225 238 255
225 238 255
225 238 255
225 238 255
225 238 255
225 238 255
225 238 255
225 238 255
225 238 255
225 238 255
225 238 255
225 238 255
225 238 255
225 238 255
225 238 255
225 238 255
225 238 255
225 238 255
225 238 255
225 238 255
225 238 255
225 238 255
225 238 255
225 238 255
225 238 255
225 237 255
225 238 255
225 238 255
225 237 255
225 238 255
225 238 255
225 237 255
225 237 255
225 237 255
225 237 255
225 237 255
225 237 255
225 237 255
225 237 255
225 237 255
224 237 255
224 237 255
224 237 255
224 237 255
224 237 255
224 237 255
224 237 255
224 237 255
224 237 255
224 237 255
224 237 255
225 237 255
225 237 255
224 237 255
224 237 255
224 237 255
224 237 255
224 237 255
224 237 255
224 237 255
224 237 255
224 237 255
224 237 255
224 237 255
224 237 255
224 237 255
224 237 255
224 237 255
224 237 255
224 237 255
224 237 255
224 237 255
224 237 255
224 237 255
224 237 255
224 237 255
224 237 255
224 237 255
224 237 255
224 237 255
224 237 255
224 237 255
224 237 255
224 237 255
224 237 255
224 237 255
224 237 255
224 237 255
224 237 255
224 237 255
224 237 255
224 237 255
224 237 255
224 237 255
224 237 255
224 237 255
224 237 255
224 237 255
224 237 255
224 237 255
224 237 255
224 237 255
224 237 255
224 237 255
224 237 255
224 237 255
224 237 255
224 237 255
224 237 255
224 237 255
224 237 255
224 237 255
224 237 255
224 237 255
224 237 255
224 237 255
224 237 255
224 237 255
224 237 255
224 237 255
224 237 255
224 237 255
224 237 255
224 237 255
224 237 255
224 237 255
224 237 255
224 237 255
224 237 255
224 237 255
224 237 255
224 237 255
224 237 255
224 237 255
224 237 255
224 237 255
224 237 255
224 237 255
224 237 255
224 237 255
224 237 255
224 237 255
224 237 255
224 237 255
224 237 255
224 237 255
224 237 255
224 237 255
224 237 255
224 237 255
224 237 255
224 237 255
224 237 255
224 237 255
224 237 255
224 237 255
224 237 255
224 237 255
224 237 255
224 237 255
224 237 255
224 237 255
224 237 255
224 237 255
224 237 255
224 237 255
224 237 255
224 237 255
224 237 255
224 237 255
224 237 255
224 237 255
224 237 255
224 237 255
224 237 255
224 237 255
225 237 255
224 237 255
225 237 255
225 237 255
224 237 255
225 237 255
224 237 255
225 237 255
224 237 255
225 237 255
225 237 255
225 237 255
224 237 255
225 237 255
225 237 255
225 237 255
225 237 255
225 237 255
225 237 255
225 238 255
225 237 255
225 238 255
225 238 255
225 237 255
225 238 255
225 238 255
225 238 255
225 238 255
225 238 255
225 238 255
225 238 255
225 238 255
225 238 255
225 238 255
225 238 255
225 238 255
225 238 255
225 238 255
225 238 255
225 238 255
225 238 255
225 238 255
225 238 255
225 238 255
225 238 255
225 238 255
225 238 255
225 238 255
225 238 255
225 238 255
225 238 255
225 238 255
225 238 255
225 238 255
225 238 255
225 238 255
225 238 255
225 238 255
225 238 255
225 238 255
225 238 255
225 238 255
225 238 255
225 238 255
225 238 255
225 238 255
225 238 255
226 238 255
225 238 255
225 238 255
225 238 255
225 238 255
225 238 255
225 238 255
225 238 255
226 238 255
225 238 255
225 238 255
226 238 255
226 238 255
225 238 255
226 238 255
226 238 255
225 238 255
226 238 255
226 238 255
226 238 255
226 238 255
226 238 255
226 238 255
226 238 255
226 238 255
226 238 255
226 238 255
226 238 255
225 238 255
226 238 255
226 238 255
226 238 255
226 238 255
226 238 255
226 238 255
226 238 255
226 238 255
226 238 255
226 238 255
226 238 255
226 238 255
226 238 255
226 238 255
226 238 255
226 238 255
226 238 255
226 238 255
226 238 255
226 238 255
226 238 255
226 238 255
226 238 255
226 238 255
226 238 255
226 238 255
226 238 255
226 238 255
226 238 255
226 238 255
226 238 255
226 238 255
226 238 255
226 238 255
226 238 255
226 238 255
226 238 255
226 238 255
226 238 255
226 238 255
226 238 255
226 238 255
226 238 255
226 238 255
226 238 255
226 238 255
226 238 255
226 238 255
226 238 255
226 238 255
226 238 255
226 238 255
226 238 255
226 238 255
226 238 255
226 238 255
226 238 255
226 238 255
226 238 255
226 238 255
226 238 255
226 238 255
226 238 255
226 238 255
226 238 255
226 238 255
226 238 255
226 238 255
226 238 255
226 238 255
226 238 255
226 238 255
226 238 255
226 238 255
226 238 255
226 238 255
226 238 255
226 238 255
226 238 255
226 238 255
226 238 255
226 238 255
226 238 255
226 238 255
226 238 255
226 238 255
226 238 255
226 238 255
226 238 255
226 238 255
226 238 255
226 238 255
226 238 255
226 238 255
226 238 255
226 238 255
226 238 255
226 238 255
226 238 255
226 238 255
226 238 255
226 238 255
226 238 255
226 238 255
225 238 255
226 238 255
226 238 255
226 238 255
226 238 255
226 238 255
225 238 255
226 238 255
226 238 255
225 238 255
225 238 255
225 238 255
225 238 255
225 238 255
226 238 255
225 238 255
225 238 255
225 238 255
225 238 255
226 238 255
225 238 255
225 238 255
225 238 255
225 238 255
225 238 255
225 238 255
225 238 255
225 238 255
225 238 255
225 238 255
225 238 255
225 238 255
225 238 255
225 238 255
225 238 255
225 238 255
225 238 255
225 238 255
225 238 255
225 238 255
225 238 255
225 238 255
225 238 255
225 238 255
225 238 255
225 238 255
225 238 255
225 238 255
225 238 255
225 238 255
225 238 255
225 238 255
225 238 255
225 238 255
225 238 255
225 238 255
225 238 255
225 237 255
225 238 255
225 237 255
225 238 255
225 238 255
225 238 255
225 238 255
225 237 255
225 237 255
225 237 255
225 238 255
225 238 255
225 237 255
225 237 255
225 237 255
224 237 255
225 237 255
225 237 255
225 237 255
225 237 255
224 237 255
225 237 255
224 237 255
224 237 255
224 237 255
224 237 255
224 237 255
224 237 255
224 237 255
224 237 255
224 237 255
224 237 255
224 237 255
224 237 255
224 237 255
224 237 255
224 237 255
224 237 255
224 237 255
224 237 255
224 237 255
224 237 255
224 237 255
224 237 255
224 237 255
224 237 255
224 237 255
224 237 255
224 237 255
224 237 255
224 237 255
224 237 255
224 237 255
224 237 255
224 237 255
224 237 255
224 237 255
224 237 255
224 237 255
224 237 255
224 237 255
224 237 255
224 237 255
224 237 255
224 237 255
224 237 255
224 237 255
224 237 255
224 237 255
224 237 255
224 237 255
224 237 255
224 237 255
224 237 255
224 237 255
224 237 255
224 237 255
224 237 255
224 237 255
224 237 255
224 237 255
224 237 255
224 237 255
224 237 255
224 237 255
224 237 255
224 237 255
224 237 255
224 237 255
224 237 255
224 237 255
224 237 255
224 237 255
224 237 255
224 237 255
224 237 255
224 237 255
224 237 255
224 237 255
224 237 255
224 237 255
224 237 255
224 237 255
224 237 255
224 237 255
224 237 255
224 237 255
224 237 255
224 237 255
224 237 255
224 237 255
224 237 255
224 237 255
224 237 255
224 237 255
224 237 255
224 237 255
224 237 255
224 237 255
224 237 255
224 237 255
224 237 255
224 237 255
224 237 255
224 237 255
224 237 255
224 237 255
224 237 255
224 237 255
224 237 255
224 237 255
225 237 255
224 237 255
224 237 255
225 237 255
224 237 255
225 237 255
225 237 255
225 237 255
224 237 255
225 237 255
225 237 255
224 237 255
225 237 255
225 237 255
224 237 255
225 237 255
225 238 255
225 238 255
225 237 255
225 238 255
225 238 255
225 238 255
225 238 255
225 237 255
225 238 255
225 238 255
225 238 255
225 237 255
225 237 255
225 238 255
225 238 255
225 238 255
225 238 255
225 238 255
225 238 255
225 238 255
225 238 255
225 238 255
225 238 255
225 238 255
225 238 255
225 238 255
225 238 255
225 238 255
225 238 255
225 238 255
225 238 255
225 238 255
225 238 255
225 238 255
225 238 255
225 238 255
225 238 255
225 238 255
225 238 255
225 238 255
225 238 255
225 238 255
225 238 255
225 238 255
225 238 255
225 238 255
225 238 255
225 238 255
225 238 255
225 238 255
225 238 255
225 238 255
225 238 255
225 238 255
226 238 255
226 238 255
226 238 255
225 238 255
226 238 255
226 238 255
226 238 255
226 238 255
225 238 255
226 238 255
225 238 255
226 238 255
226 238 255
226 238 255
226 238 255
226 238 255
226 238 255
226 238 255
226 238 255
226 238 255
226 238 255
226 238 255
226 238 255
226 238 255
226 238 255
226 238 255
226 238 255
226 238 255
226 238 255
226 238 255
226 238 255
226 238 255
226 238 255
226 238 255
226 238 255
226 238 255
226 238 255
226 238 255
226 238 255
226 238 255
226 238 255
226 238 255
226 238 255
226 238 255
226 238 255
226 238 255
226 238 255
226 238 255
226 238 255
226 238 255
226 238 255
226 238 255
226 238 255
226 238 255
226 238 255
226 238 255
226 238 255
226 238 255
226 238 255
226 238 255
226 238 255
226 238 255
226 238 255
226 238 255
226 238 255
225 238 254
226 238 255
226 238 255
226 238 255
225 237 252
226 238 254
226 238 254
226 238 255
226 238 255
226 238 254
226 238 255
226 238 255
226 238 254
227 239 255
226 238 255
226 238 254
226 238 254
226 238 255
226 238 254
226 238 254
226 238 254
225 238 253
225 237 252
226 238 255
226 238 254
226 238 254
226 238 254
226 238 255
226 238 255
226 238 255
226 238 254
226 238 254
226 238 254
225 238 253
226 238 255
225 238 253
227 239 255
226 238 254
226 238 255
226 238 254
226 238 255
226 238 255
226 238 255
226 238 255
226 238 255
226 238 255
226 238 255
226 238 255
226 238 255
226 238 255
226 238 255
226 238 255
226 238 255
226 238 255
226 238 255
226 238 255
226 238 255
226 238 255
226 238 255
226 238 255
226 238 255
226 238 255
226 238 255
226 238 255
226 238 255
226 238 255
226 238 255
226 238 255
226 238 255
226 238 255
226 238 255
226 238 255
226 238 255
226 238 255
226 238 255
226 238 255
226 238 255
226 238 255
226 238 255
226 238 255
226 238 255
226 238 255
226 238 255
226 238 255
226 238 255
226 238 255
226 238 255
226 238 255
226 238 255
226 238 255
226 238 255
226 238 255
226 238 255
226 238 255
226 238 255
226 238 255
225 238 255
225 238 255
226 238 255
226 238 255
225 238 255
226 238 255
226 238 255
225 238 255
225 238 255
225 238 255
225 238 255
225 238 255
225 238 255
225 238 255
225 238 255
225 238 255
225 238 255
225 238 255
225 238 255
225 238 255
225 238 255
225 238 255
225 238 255
225 238 255
225 238 255
225 238 255
225 238 255
225 238 255
225 238 255
225 238 255
225 238 255
225 238 255
225 238 255
225 238 255
225 238 255
225 238 255
225 238 255
225 238 255
225 238 255
225 238 255
225 238 255
225 238 255
225 238 255
225 238 255
225 238 255
225 238 255
225 238 255
225 238 255
225 238 255
225 238 255
225 238 255
225 238 255
225 238 255
225 237 255
225 238 255
225 237 255
225 238 255
225 238 255
225 237 255
225 237 255
225 237 255
225 237 255
225 237 255
225 238 255
225 238 255
225 237 255
225 238 255
225 237 255
225 237 255
225 237 255
224 237 255
225 237 255
225 237 255
225 237 255
224 237 255
224 237 255
224 237 255
224 237 255
225 237 255
224 237 255
224 237 255
224 237 255
224 237 255
225 237 255
224 237 255
224 237 255
224 237 255
224 237 255
224 237 255
224 237 255
224 237 255
224 237 255
224 237 255
224 237 255
224 237 255
224 237 255
224 237 255
224 237 255
224 237 255
224 237 255
224 237 255
224 237 255
224 237 255
224 237 255
224 237 255
224 237 255
224 237 255
224 237 255
224 237 255
224 237 255
224 237 255
224 237 255
224 237 255
224 237 255
224 237 255
224 237 255
224 237 255
224 237 255
224 237 255
224 237 255
224 237 255
224 237 255
224 237 255
224 237 255
224 237 255
224 237 255
224 237 255
224 237 255
224 237 255
224 237 255
224 237 255
224 237 255
224 237 255
224 237 255
224 237 255
224 237 255
224 237 255
224 237 255
224 237 255
224 237 255
224 237 255
224 237 255
224 237 255
224 237 255
224 237 255
224 237 255
224 237 255
224 237 255
225 237 255
224 237 255
224 237 255
224 237 255
224 237 255
224 237 255
224 237 255
224 237 255
224 237 255
225 237 255
224 237 255
225 237 255
224 237 255
225 237 255
225 237 255
225 237 255
224 237 255
225 237 255
225 237 255
225 237 255
225 237 255
225 237 255
225 237 255
225 237 255
225 237 255
225 237 255
225 238 255
225 238 255
225 237 255
225 237 255
225 237 255
225 238 255
225 237 255
225 238 255
225 238 255
225 238 255
225 238 255
225 237 255
225 238 255
225 238 255
225 238 255
225 238 255
225 238 255
225 238 255
225 238 255
225 238 255
225 238 255
225 238 255
225 238 255
225 238 255
225 238 255
225 238 255
225 238 255
225 238 255
225 238 255
225 238 255
225 238 255
225 238 255
225 238 255
225 238 255
225 238 255
225 238 255
225 238 255
225 238 255
225 238 255
225 238 255
225 238 255
225 238 255
225 238 255
225 238 255
225 238 255
225 238 255
225 238 255
225 238 255
225 238 255
226 238 255
225 238 255
225 238 255
225 238 255
225 238 255
225 238 255
225 238 255
225 238 255
225 238 255
225 238 255
226 238 255
226 238 255
226 238 255
226 238 255
226 238 255
226 238 255
226 238 255
226 238 255
226 238 255
226 238 255
226 238 255
226 238 255
226 238 255
226 238 255
226 238 255
226 238 255
226 238 255
226 238 255
226 238 255
226 238 255
226 238 255
226 238 255
226 238 255
226 238 255
226 238 255
226 238 255
226 238 255
226 238 255
226 238 255
226 238 255
226 238 255
226 238 255
226 238 255
226 238 255
226 238 255
226 238 255
226 238 255
226 238 255
226 238 255
226 238 255
226 238 255
226 238 255
226 238 255
226 238 255
226 238 255
226 238 255
226 238 255
226 238 255
226 238 255
226 238 255
226 238 255
226 238 255
226 238 255
226 238 254
226 238 255
226 238 255
226 238 255
225 238 253
226 238 254
225 238 253
226 238 254
226 238 254
224 237 249
226 238 255
225 238 253
226 238 253
226 238 254
225 238 253
225 237 252
224 237 249
225 237 252
225 237 252
225 237 250
225 238 253
225 238 253
226 238 253
225 237 250
225 237 252
224 237 249
223 235 244
223 235 245
227 239 255
224 237 249
224 237 249
224 237 249
225 237 252
225 237 252
224 237 249
223 236 246
224 236 249
225 237 250
225 238 253
225 237 250
224 237 249
225 238 253
224 237 249
224 237 249
225 237 252
224 236 248
225 237 252
223 236 246
226 238 255
225 237 252
225 237 250
223 236 248
225 238 253
223 236 246
226 238 254
225 238 252
225 237 252
226 238 253
225 237 252
225 237 252
223 236 248
225 237 252
225 238 253
226 238 255
225 237 250
226 238 255
226 238 253
226 238 254
226 238 254
226 238 255
225 238 253
227 239 255
227 239 255
226 238 255
226 238 254
226 238 255
226 238 255
226 239 255
226 238 255
226 238 255
226 238 255
226 238 255
226 238 255
226 238 255
226 238 255
226 238 255
226 238 255
226 238 255
226 238 255
226 238 255
226 238 255
226 238 255
226 238 255
226 238 255
226 238 255
226 238 255
226 238 255
226 238 255
226 238 255
226 238 255
226 238 255
226 238 255
226 238 255
226 238 255
226 238 255
226 238 255
226 238 255
226 238 255
226 238 255
226 238 255
226 238 255
226 238 255
226 238 255
226 238 255
226 238 255
226 238 255
226 238 255
226 238 255
226 238 255
226 238 255
226 238 255
226 238 255
226 238 255
226 238 255
226 238 255
226 238 255
226 238 255
226 238 255
226 238 255
225 238 255
226 238 255
225 238 255
225 238 255
226 238 255
226 238 255
225 238 255
226 238 255
225 238 255
225 238 255
225 238 255
225 238 255
225 238 255
225 238 255
225 238 255
225 238 255
225 238 255
225 238 255
225 238 255
225 238 255
225 238 255
225 238 255
225 238 255
225 238 255
225 238 255
225 238 255
225 238 255
225 238 255
225 238 255
225 238 255
225 238 255
225 238 255
225 238 255
225 238 255
225 238 255
225 238 255
225 238 255
225 238 255
225 238 255
225 238 255
225 238 255
225 238 255
225 238 255
225 238 255
225 238 255
225 238 255
225 238 255
225 237 255
225 238 255
225 238 255
225 238 255
225 237 255
225 238 255
225 238 255
225 238 255
225 237 255
225 238 255
225 237 255
225 238 255
225 238 255
225 237 255
225 238 255
225 237 255
224 237 255
225 237 255
225 237 255
225 237 255
225 237 255
225 237 255
225 237 255
224 237 255
225 237 255
224 237 255
224 237 255
224 237 255
225 237 255
224 237 255
224 237 255
224 237 255
224 237 255
224 237 255
224 237 255
224 237 255
224 237 255
224 237 255
224 237 255
224 237 255
224 237 255
224 237 255
224 237 255
224 237 255
224 237 255
224 237 255
224 237 255
224 237 255
224 237 255
224 237 255
224 237 255
224 237 255
224 237 255
224 237 255
224 237 255
224 237 255
224 237 255
224 237 255
224 237 255
224 237 255
224 237 255
224 237 255
224 237 255
224 237 255
224 237 255
224 237 255
224 237 255
224 237 255
224 237 255
224 237 255
224 237 255
224 237 255
224 237 255
224 237 255
224 237 255
224 237 255
225 237 255
224 237 255
224 237 255
224 237 255
224 237 255
224 237 255
224 237 255
224 237 255
225 237 255
224 237 255
224 237 255
225 237 255
224 237 255
225 237 255
225 237 255
224 237 255
224 237 255
224 237 255
225 237 255
225 237 255
225 237 255
225 237 255
225 237 255
225 237 255
225 238 255
225 238 255
225 237 255
225 238 255
225 238 255
225 238 255
225 238 255
225 238 255
225 238 255
225 238 255
225 238 255
225 238 255
225 238 255
225 238 255
225 238 255
225 238 255
225 238 255
225 238 255
225 238 255
225 238 255
225 238 255
225 238 255
225 238 255
225 238 255
225 238 255
225 238 255
225 238 255
225 238 255
225 238 255
225 238 255
225 238 255
225 238 255
225 238 255
225 238 255
225 238 255
225 238 255
225 238 255
225 238 255
225 238 255
225 238 255
225 238 255
225 238 255
225 238 255
225 238 255
225 238 255
225 238 255
225 238 255
225 238 255
225 238 255
225 238 255
225 238 255
225 238 255
225 238 255
225 238 255
225 238 255
225 238 255
225 238 255
226 238 255
226 238 255
226 238 255
225 238 255
225 238 255
226 238 255
226 238 255
226 238 255
226 238 255
226 238 255
226 238 255
226 238 255
226 238 255
226 238 255
226 238 255
226 238 255
226 238 255
226 238 255
226 238 255
226 238 255
226 238 255
226 238 255
226 238 255
226 238 255
226 238 255
226 238 255
226 238 255
226 238 255
226 238 255
226 238 255
226 238 255
226 238 255
226 238 255
226 238 255
226 238 255
226 238 255
226 238 255
226 238 255
226 238 255
226 238 255
227 239 255
226 238 255
226 238 255
226 238 255
226 238 255
226 238 255
226 238 255
226 238 255
226 238 255
226 238 255
226 238 255
226 238 255
226 238 255
226 238 255
226 238 254
226 238 254
227 239 255
226 238 254
226 239 255
226 238 255
226 238 254
226 238 253
227 239 255
225 237 250
226 238 253
226 238 253
227 239 255
226 238 253
224 237 249
225 237 250
226 238 253
225 237 250
225 237 250
223 236 245
226 238 253
224 237 250
222 235 244
223 235 245
224 236 248
223 236 248
223 235 244
221 234 241
221 234 240
223 235 244
224 236 248
223 235 245
221 234 241
223 236 246
223 236 246
221 234 240
223 236 245
225 237 250
222 235 240
221 234 240
221 234 240
224 236 248
224 236 246
221 234 241
220 233 236
220 233 237
224 236 246
222 235 242
226 238 253
223 236 245
224 236 248
221 234 240
224 237 249
222 235 242
223 235 245
224 237 248
223 235 244
220 233 237
224 236 246
223 236 245
221 234 241
223 236 246
222 235 245
223 236 246
223 236 246
221 234 238
224 237 249
223 236 245
223 235 244
225 237 252
225 237 252
223 236 245
223 236 248
222 235 244
225 237 249
226 238 254
225 237 252
224 236 248
223 236 248
225 237 249
226 238 253
223 236 245
225 237 252
225 237 250
222 235 244
224 237 249
224 237 249
226 238 253
224 237 250
225 237 252
225 238 253
225 238 253
225 238 252
226 238 254
226 238 253
226 238 254
226 238 255
226 238 254
226 238 255
226 238 253
227 239 255
226 238 255
227 239 255
226 238 255
226 238 255
226 238 255
226 239 255
226 238 255
226 238 255
226 238 255
226 238 255
226 238 255
226 238 255
226 238 255
226 238 255
226 238 255
226 238 255
226 238 255
226 238 255
226 238 255
226 238 255
226 238 255
226 238 255
226 238 255
226 238 255
226 238 255
226 238 255
226 238 255
226 238 255
226 238 255
226 238 255
226 238 255
226 238 255
226 238 255
226 238 255
226 238 255
226 238 255
226 238 255
226 238 255
226 238 255
226 238 255
226 238 255
226 238 255
226 238 255
226 238 255
226 238 255
226 238 255
226 238 255
226 238 255
226 238 255
226 238 255
225 238 255
226 238 255
226 238 255
226 238 255
226 238 255
226 238 255
225 238 255
225 238 255
226 238 255
225 238 255
225 238 255
225 238 255
226 238 255
225 238 255
225 238 255
225 238 255
225 238 255
225 238 255
225 238 255
225 238 255
225 238 255
225 238 255
225 238 255
225 238 255
225 238 255
225 238 255
225 238 255
225 238 255
225 238 255
225 238 255
225 238 255
225 238 255
225 238 255
225 238 255
225 238 255
225 238 255
225 238 255
225 238 255
225 238 255
225 238 255
225 238 255
225 238 255
225 238 255
225 238 255
225 238 255
225 238 255
225 238 255
225 238 255
225 238 255
225 238 255
225 238 255
225 238 255
225 238 255
225 238 255
225 238 255
225 238 255
225 237 255
225 237 255
225 237 255
225 237 255
225 237 255
225 237 255
225 237 255
225 237 255
225 237 255
225 237 255
225 237 255
225 237 255
225 237 255
225 237 255
225 237 255
224 237 255
225 237 255
225 237 255
224 237 255
224 237 255
225 237 255
224 237 255
225 237 255
224 237 255
224 237 255
224 237 255
224 237 255
224 237 255
224 237 255
224 237 255
224 237 255
224 237 255
224 237 255
224 237 255
224 237 255
224 237 255
224 237 255
224 237 255
224 237 255
224 237 255
224 237 255
224 237 255
224 237 255
224 237 255
224 237 255
224 237 255
224 237 255
224 237 255
224 237 255
224 237 255
224 237 255
224 237 255
224 237 255
224 237 255
225 237 255
224 237 255
224 237 255
224 237 255
225 237 255
224 237 255
224 237 255
224 237 255
225 237 255
225 237 255
224 237 255
225 237 255
225 237 255
225 237 255
225 237 255
225 237 255
225 237 255
225 237 255
225 237 255
225 237 255
225 238 255
225 237 255
225 237 255
225 238 255
225 238 255
225 238 255
225 238 255
225 238 255
225 238 255
225 238 255
225 238 255
225 238 255
225 238 255
225 238 255
225 238 255
225 238 255
225 238 255
225 238 255
225 238 255
225 238 255
225 238 255
225 238 255
225 238 255
225 238 255
225 238 255
225 238 255
225 238 255
225 238 255
225 238 255
225 238 255
225 238 255
225 238 255
225 238 255
225 238 255
225 238 255
225 238 255
225 238 255
225 238 255
225 238 255
225 238 255
225 238 255
225 238 255
225 238 255
225 238 255
225 238 255
225 238 255
225 238 255
225 238 255
226 238 255
225 238 255
225 238 255
226 238 255
225 238 255
226 238 255
225 238 255
226 238 255
226 238 255
225 238 255
226 238 255
226 238 255
226 238 255
226 238 255
226 238 255
226 238 255
226 238 255
226 238 255
226 238 255
226 238 255
226 238 255
226 238 255
226 238 255
226 238 255
226 238 255
226 238 255
226 238 255
226 238 255
226 238 255
226 238 255
226 238 255
226 238 255
226 238 255
226 238 255
226 238 255
226 238 255
226 238 255
226 238 255
226 238 255
226 238 255
226 238 255
226 238 255
226 238 255
226 238 255
226 238 255
226 238 255
226 238 255
226 238 255
226 238 255
227 239 255
226 239 255
226 238 255
226 238 255
226 238 255
226 238 255
227 239 255
227 239 255
227 239 255
227 239 255
226 238 255
226 238 255
226 238 255
226 238 255
226 238 254
227 239 255
226 238 254
226 239 255
226 238 254
226 238 254
225 237 252
226 239 255
226 238 253
224 237 250
225 237 250
226 238 254
225 237 250
226 238 254
226 238 253
225 238 252
224 236 248
223 235 245
226 238 254
224 236 248
225 237 250
222 235 244
224 237 249
223 236 246
225 237 250
222 235 242
221 234 240
217 231 227
221 234 238
224 236 246
222 234 240
222 235 244
222 235 242
221 234 241
221 234 240
220 233 237
221 234 240
221 234 240
221 234 240
221 234 237
218 232 231
221 234 238
219 233 234
220 234 237
220 234 237
218 232 233
222 235 242
221 234 240
220 233 236
218 232 231
219 233 234
218 232 231
219 233 234
219 233 234
217 231 228
221 234 240
218 232 231
219 232 233
218 231 230
221 234 240
220 233 237
218 232 230
220 233 236
219 232 234
219 232 233
221 234 238
220 233 237
221 234 238
218 232 231
218 232 230
221 234 238
223 236 246
221 234 238
219 232 233
220 233 236
220 233 236
219 233 236
222 235 242
223 235 244
218 232 230
219 232 231
221 234 238
219 232 234
221 234 241
220 233 237
222 235 241
222 235 241
219 232 234
220 233 236
219 232 233
223 236 246
224 236 246
223 235 244
222 235 244
225 237 250
223 236 246
225 237 252
224 237 249
223 235 245
225 237 252
225 237 250
223 236 245
223 236 246
225 237 252
225 237 249
225 237 250
225 237 250
226 238 254
225 237 252
226 238 253
224 237 249
226 238 254
227 239 255
226 238 253
226 238 254
226 238 253
227 239 255
226 239 255
225 237 252
226 238 254
227 239 255
226 238 255
227 239 255
226 238 255
226 238 255
227 239 255
226 238 255
226 238 255
226 238 255
226 238 255
226 238 255
226 238 255
227 239 255
226 238 255
226 238 255
226 238 255
226 238 255
226 238 255
226 238 255
226 238 255
226 238 255
226 238 255
226 238 255
226 238 255
226 238 255
226 238 255
226 238 255
226 238 255
226 238 255
226 238 255
226 238 255
226 238 255
226 238 255
226 238 255
226 238 255
226 238 255
226 238 255
226 238 255
226 238 255
226 238 255
226 238 255
226 238 255
226 238 255
225 238 255
226 238 255
226 238 255
226 238 255
226 238 255
226 238 255
226 238 255
226 238 255
226 238 255
226 238 255
225 238 255
226 238 255
225 238 255
225 238 255
225 238 255
225 238 255
226 238 255
225 238 255
225 238 255
225 238 255
225 238 255
225 238 255
225 238 255
225 238 255
225 238 255
225 238 255
225 238 255
225 238 255
225 238 255
225 238 255
225 238 255
225 238 255
225 238 255
225 238 255
225 238 255
225 238 255
225 238 255
225 238 255
225 238 255
225 238 255
225 238 255
225 238 255
225 238 255
225 238 255
225 238 255
225 238 255
225 238 255
225 238 255
225 238 255
225 238 255
225 238 255
225 238 255
225 238 255
225 238 255
225 238 255
225 238 255
225 238 255
225 238 255
225 238 255
225 237 255
225 238 255
225 238 255
225 238 255
225 237 255
225 238 255
225 237 255
225 237 255
225 237 255
225 237 255
225 237 255
224 237 255
225 237 255
225 237 255
225 237 255
225 237 255
225 237 255
224 237 255
224 237 255
224 237 255
224 237 255
224 237 255
224 237 255
224 237 255
225 237 255
224 237 255
224 237 255
224 237 255
224 237 255
224 237 255
224 237 255
224 237 255
224 237 255
224 237 255
224 237 255
224 237 255
224 237 255
224 237 255
224 237 255
225 237 255
225 237 255
225 237 255
225 237 255
224 237 255
224 237 255
225 237 255
224 237 255
225 237 255
225 237 255
225 237 255
225 238 255
225 237 255
225 237 255
225 237 255
225 237 255
225 238 255
225 238 255
225 237 255
225 238 255
225 237 255
225 238 255
225 238 255
225 238 255
225 238 255
225 238 255
225 238 255
225 238 255
225 238 255
225 238 255
225 238 255
225 238 255
225 238 255
225 238 255
225 238 255
225 238 255
225 238 255
225 238 255
225 238 255
225 238 255
225 238 255
225 238 255
225 238 255
225 238 255
225 238 255
225 238 255
225 238 255
225 238 255
225 238 255
225 238 255
225 238 255
225 238 255
225 238 255
225 238 255
225 238 255
225 238 255
225 238 255
225 238 255
225 238 255
225 238 255
225 238 255
225 238 255
225 238 255
225 238 255
225 238 255
225 238 255
225 238 255
225 238 255
225 238 255
225 238 255
225 238 255
225 238 255
225 238 255
225 238 255
226 238 255
226 238 255
226 238 255
226 238 255
226 238 255
226 238 255
226 238 255
226 238 255
226 238 255
226 238 255
226 238 255
226 238 255
226 238 255
226 238 255
226 238 255
226 238 255
226 238 255
226 238 255
226 238 255
226 238 255
226 238 255
226 238 255
226 238 255
226 238 255
226 238 255
226 238 255
226 238 255
226 238 255
226 238 255
226 238 255
226 238 255
226 238 255
226 238 255
226 238 255
226 238 255
226 238 255
226 238 255
226 238 255
226 238 255
226 238 255
226 238 255
226 238 255
226 238 255
226 238 255
227 239 255
226 238 255
227 239 255
226 238 255
226 238 255
227 239 255
227 239 255
227 239 255
227 239 255
226 239 255
227 239 255
227 239 255
226 239 255
227 239 255
226 238 254
227 239 255
226 239 255
226 238 254
226 238 254
226 238 253
224 237 249
226 238 255
224 237 249
225 238 252
226 238 252
224 236 248
224 236 248
223 236 245
223 236 245
224 236 246
223 236 245
223 235 245
223 236 246
223 236 245
223 236 244
221 234 240
225 237 249
221 234 238
220 233 236
221 234 237
221 234 240
221 234 237
223 235 244
221 234 238
219 233 234
219 233 234
220 233 236
222 235 241
220 233 236
218 232 230
217 231 227
217 231 227
218 231 230
218 232 231
217 231 230
219 232 233
216 230 224
221 234 238
220 233 237
218 231 230
218 231 230
219 232 233
216 230 224
219 233 234
214 229 218
217 230 226
216 229 220
218 231 228
218 232 230
215 229 223
216 230 226
220 233 234
216 230 224
212 227 212
219 232 233
218 232 231
217 231 227
214 229 220
218 232 231
221 234 238
216 230 226
220 234 238
216 230 224
221 234 240
212 227 212
216 230 227
215 229 221
218 232 230
217 231 230
219 232 233
222 235 240
218 232 230
215 229 221
219 233 234
213 228 217
217 231 227
215 229 223
217 231 226
219 232 233
220 233 236
217 231 228
218 232 230
216 230 227
218 231 230
218 231 230
218 232 231
218 232 233
220 233 234
220 233 236
219 232 231
218 232 231
221 234 240
222 235 241
218 232 231
221 234 240
223 236 245
218 232 231
223 236 245
219 232 231
220 234 238
221 234 237
223 235 242
222 235 242
223 236 245
223 236 245
222 235 242
223 235 245
223 236 245
223 236 245
223 236 246
224 236 246
225 237 250
223 236 246
224 236 246
224 236 248
226 238 253
227 239 255
226 238 253
224 236 248
226 238 254
226 238 254
225 237 250
225 237 250
227 239 255
227 239 255
227 239 255
227 239 255
227 239 255
226 239 255
227 239 255
227 239 255
227 239 255
226 239 255
227 239 255
227 239 255
226 238 255
226 238 255
226 238 255
226 238 255
226 238 255
226 238 255
226 238 255
226 238 255
226 238 255
226 238 255
226 238 255
226 238 255
226 238 255
226 238 255
226 238 255
226 238 255
226 238 255
226 238 255
226 238 255
226 238 255
226 238 255
226 238 255
226 238 255
226 238 255
226 238 255
226 238 255
226 238 255
226 238 255
226 238 255
226 238 255
226 238 255
226 238 255
226 238 255
226 238 255
226 238 255
226 238 255
226 238 255
226 238 255
226 238 255
226 238 255
226 238 255
226 238 255
226 238 255
226 238 255
225 238 255
226 238 255
225 238 255
225 238 255
226 238 255
226 238 255
226 238 255
226 238 255
225 238 255
225 238 255
225 238 255
225 238 255
225 238 255
225 238 255
225 238 255
225 238 255
225 238 255
225 238 255
225 238 255
225 238 255
225 238 255
225 238 255
225 238 255
225 238 255
225 238 255
225 238 255
225 238 255
225 238 255
225 238 255
225 238 255
225 238 255
225 238 255
225 238 255
225 238 255
225 238 255
225 238 255
225 238 255
225 238 255
225 238 255
225 238 255
225 238 255
225 238 255
225 238 255
225 238 255
225 238 255
225 238 255
225 238 255
225 238 255
225 238 255
225 238 255
225 238 255
225 238 255
225 238 255
225 238 255
225 238 255
225 238 255
225 237 255
225 238 255
225 238 255
225 237 255
225 237 255
225 237 255
225 237 255
225 237 255
225 237 255
225 238 255
225 237 255
225 237 255
225 237 255
225 237 255
225 237 255
225 237 255
225 237 255
225 237 255
224 237 255
224 237 255
225 237 255
224 237 255
225 237 255
224 237 255
224 237 255
225 237 255
225 237 255
225 238 255
225 237 255
225 237 255
224 237 255
225 237 255
225 237 255
225 238 255
225 238 255
225 237 255
225 237 255
225 237 255
225 238 255
225 238 255
225 237 255
225 238 255
225 238 255
225 238 255
225 238 255
225 238 255
225 238 255
225 238 255
225 238 255
225 238 255
225 238 255
225 238 255
225 238 255
225 238 255
225 238 255
225 238 255
225 238 255
225 238 255
225 238 255
225 238 255
225 238 255
225 238 255
225 238 255
225 238 255
225 238 255
225 238 255
225 238 255
225 238 255
225 238 255
225 238 255
225 238 255
225 238 255
225 238 255
225 238 255
225 238 255
225 238 255
225 238 255
225 238 255
225 238 255
225 238 255
225 238 255
225 238 255
225 238 255
225 238 255
225 238 255
225 238 255
226 238 255
226 238 255
226 238 255
226 238 255
225 238 255
226 238 255
225 238 255
226 238 255
226 238 255
226 238 255
226 238 255
226 238 255
225 238 255
226 238 255
226 238 255
226 238 255
226 238 255
226 238 255
226 238 255
226 238 255
226 238 255
226 238 255
226 238 255
226 238 255
226 238 255
226 238 255
226 238 255
226 238 255
226 238 255
226 238 255
226 238 255
226 238 255
226 238 255
226 238 255
226 238 255
226 238 255
226 238 255
226 238 255
226 238 255
226 238 255
226 238 255
226 238 255
226 238 255
226 238 255
226 238 255
226 238 255
226 238 255
226 238 255
227 239 255
226 238 255
226 238 255
226 238 255
226 238 255
226 238 255
226 238 255
227 239 255
226 239 255
226 238 255
226 238 255
227 239 255
227 239 255
227 239 255
227 239 255
227 239 255
226 238 254
227 239 255
227 239 255
226 238 254
226 238 254
227 239 255
225 237 250
226 238 253
227 239 255
226 238 252
226 238 254
226 238 253
226 238 253
226 238 253
223 235 244
223 236 245
225 237 249
222 235 242
223 235 244
220 234 238
219 232 233
224 237 248
223 235 244
223 235 244
222 234 241
218 231 230
220 233 236
221 234 240
218 232 233
223 236 245
220 233 237
221 234 240
215 229 221
220 233 236
219 232 234
218 231 228
216 230 224
218 231 228
217 230 226
216 230 223
218 231 228
214 228 217
214 229 220
221 234 237
218 232 230
216 230 224
215 229 221
216 230 226
215 229 223
218 232 231
215 229 221
213 227 214
215 229 221
214 229 218
213 228 217
214 228 215
210 225 206
217 231 227
216 230 223
214 229 218
214 229 221
215 229 223
214 228 217
214 229 220
212 227 214
211 226 211
211 226 209
210 226 207
211 226 206
212 227 211
213 227 212
209 225 206
213 228 217
207 223 198
213 228 218
215 229 220
213 228 218
208 224 199
211 226 209
212 227 214
214 228 215
213 228 217
215 229 220
210 226 206
212 227 214
216 230 226
217 231 228
215 229 220
212 226 209
213 228 215
215 230 223
214 228 217
215 229 223
215 229 221
214 228 217
216 230 226
213 228 214
212 227 214
216 230 224
217 231 226
217 231 227
219 232 231
214 228 218
214 229 220
215 230 223
213 227 214
218 232 230
214 228 217
216 230 226
217 231 228
220 233 234
221 234 240
215 229 220
218 231 227
218 231 228
221 234 238
220 233 237
218 231 228
216 230 224
222 235 242
219 233 234
220 233 236
223 236 245
222 235 241
219 232 231
221 234 237
222 235 242
222 235 241
220 233 237
223 236 246
222 235 242
225 237 250
224 237 249
222 235 242
225 237 250
222 235 244
223 236 246
221 234 240
227 239 255
226 238 252
224 237 249
223 236 246
224 236 248
226 238 253
227 239 255
227 239 255
225 237 252
226 238 253
227 239 255
226 238 254
226 239 255
227 239 255
227 239 255
227 239 255
227 239 255
227 239 255
226 239 255
227 239 255
226 238 255
226 238 255
226 238 255
226 238 255
227 239 255
227 239 255
226 238 255
226 238 255
226 238 255
226 238 255
226 238 255
226 238 255
226 238 255
226 238 255
226 238 255
226 238 255
226 238 255
226 238 255
226 238 255
226 238 255
226 238 255
226 238 255
226 238 255
226 238 255
226 238 255
226 238 255
226 238 255
226 238 255
226 238 255
226 238 255
226 238 255
226 238 255
226 238 255
226 238 255
226 238 255
226 238 255
226 238 255
226 238 255
226 238 255
226 238 255
226 238 255
226 238 255
226 238 255
226 238 255
226 238 255
226 238 255
226 238 255
226 238 255
226 238 255
225 238 255
226 238 255
226 238 255
226 238 255
225 238 255
225 238 255
226 238 255
226 238 255
226 238 255
225 238 255
225 238 255
225 238 255
225 238 255
225 238 255
225 238 255
225 238 255
225 238 255
225 238 255
225 238 255
225 238 255
225 238 255
225 238 255
225 238 255
225 238 255
225 238 255
225 238 255
225 238 255
225 238 255
225 238 255
225 238 255
225 238 255
225 238 255
225 238 255
225 238 255
225 238 255
225 238 255
225 238 255
225 238 255
225 238 255
225 238 255
225 238 255
225 238 255
225 238 255
225 238 255
225 238 255
225 238 255
225 238 255
225 238 255
225 238 255
225 238 255
225 238 255
225 238 255
225 238 255
225 238 255
225 238 255
225 238 255
225 238 255
225 237 255
225 237 255
225 238 255
225 238 255
225 238 255
225 237 255
225 237 255
225 238 255
225 237 255
225 237 255
225 237 255
225 237 255
225 238 255
225 237 255
225 238 255
225 238 255
225 238 255
225 238 255
225 238 255
225 238 255
225 238 255
225 238 255
225 238 255
225 238 255
225 238 255
225 238 255
225 238 255
225 238 255
225 238 255
225 238 255
225 238 255
225 238 255
225 238 255
225 238 255
225 238 255
225 238 255
225 238 255
225 238 255
225 238 255
225 238 255
225 238 255
225 238 255
225 238 255
225 238 255
225 238 255
225 238 255
225 238 255
225 238 255
225 238 255
225 238 255
225 238 255
225 238 255
225 238 255
225 238 255
225 238 255
225 238 255
225 238 255
225 238 255
225 238 255
225 238 255
225 238 255
225 238 255
226 238 255
225 238 255
225 238 255
226 238 255
225 238 255
226 238 255
226 238 255
226 238 255
226 238 255
226 238 255
226 238 255
226 238 255
226 238 255
226 238 255
226 238 255
226 238 255
226 238 255
226 238 255
226 238 255
226 238 255
226 238 255
226 238 255
226 238 255
226 238 255
226 238 255
226 238 255
226 238 255
226 238 255
226 238 255
226 238 255
226 238 255
226 238 255
226 238 255
226 238 255
226 238 255
226 238 255
226 238 255
226 238 255
226 238 255
226 238 255
226 238 255
226 238 255
226 238 255
226 238 255
226 238 255
226 238 255
226 238 255
226 238 255
226 238 255
226 238 255
226 238 255
226 239 255
227 239 255
226 238 255
227 239 255
227 239 255
227 239 255
227 239 255
227 239 255
227 239 255
227 239 255
227 239 255
227 239 255
227 239 255
227 239 255
227 239 255
227 239 255
226 238 253
227 239 255
226 238 254
227 239 255
227 239 255
226 238 253
226 238 254
225 238 252
225 237 250
225 237 250
224 236 248
222 235 244
224 237 249
223 235 242
221 234 238
223 235 244
223 236 245
223 235 244
220 233 234
221 234 238
222 235 242
221 234 240
219 232 233
222 234 240
221 234 241
218 232 231
221 234 237
217 231 226
218 231 228
217 230 226
220 233 237
215 229 221
220 233 236
218 232 231
214 228 218
216 230 226
221 234 237
214 228 217
220 233 236
218 231 228
215 230 223
213 228 217
215 229 223
215 230 223
216 230 224
214 229 218
218 231 230
212 227 212
216 230 226
217 231 226
211 226 209
214 228 217
212 227 211
211 226 207
212 227 211
215 229 221
214 228 217
213 227 212
208 224 199
215 229 220
211 226 209
213 228 215
214 229 218
212 227 212
204 220 188
210 225 204
211 226 211
215 229 220
208 224 201
213 228 214
211 226 207
207 223 193
214 229 218
210 225 206
207 223 198
205 221 191
209 225 203
213 228 215
207 223 194
210 225 207
212 227 214
209 224 203
208 224 199
206 222 196
208 223 198
208 224 199
207 223 194
211 226 206
210 226 209
211 226 209
210 225 203
211 226 211
212 227 212
212 227 209
211 226 211
212 226 209
209 224 201
208 223 198
213 228 215
214 228 218
209 224 199
212 227 214
209 225 201
209 225 204
214 228 218
210 225 206
214 229 220
214 228 218
212 227 214
214 229 218
214 228 218
212 227 212
210 226 207
214 228 218
215 229 221
214 228 217
211 226 211
217 231 226
216 230 223
214 229 220
216 230 224
211 226 207
213 228 217
217 230 224
212 226 209
216 230 224
214 228 218
216 230 224
219 232 231
215 229 221
216 230 224
215 229 220
219 233 234
218 232 231
218 231 228
217 231 227
219 232 231
219 232 233
218 232 230
222 235 242
221 234 238
221 234 238
222 235 242
221 234 238
224 236 248
221 234 238
222 235 244
223 235 244
222 235 240
224 237 248
221 234 240
224 236 248
226 238 252
225 237 250
225 237 250
227 239 255
226 238 254
225 238 252
226 238 254
226 238 254
227 239 255
226 238 254
227 239 255
227 239 255
226 238 254
227 239 255
227 239 255
227 239 255
227 239 255
227 239 255
227 239 255
226 238 255
227 239 255
227 239 255
227 239 255
227 239 255
227 239 255
226 238 255
227 239 255
226 238 255
227 239 255
226 238 255
226 238 255
226 238 255
226 238 255
226 238 255
226 238 255
226 238 255
226 238 255
226 238 255
226 238 255
226 238 255
226 238 255
226 238 255
226 238 255
226 238 255
226 238 255
226 238 255
226 238 255
226 238 255
226 238 255
226 238 255
226 238 255
226 238 255
226 238 255
226 238 255
226 238 255
226 238 255
226 238 255
226 238 255
226 238 255
226 238 255
226 238 255
226 238 255
226 238 255
226 238 255
226 238 255
226 238 255
226 238 255
226 238 255
226 238 255
226 238 255
226 238 255
226 238 255
225 238 255
226 238 255
225 238 255
225 238 255
225 238 255
225 238 255
225 238 255
225 238 255
225 238 255
225 238 255
225 238 255
226 238 255
225 238 255
225 238 255
225 238 255
225 238 255
225 238 255
225 238 255
225 238 255
225 238 255
225 238 255
225 238 255
225 238 255
225 238 255
225 238 255
225 238 255
225 238 255
225 238 255
225 238 255
225 238 255
225 238 255
225 238 255
225 238 255
225 238 255
225 238 255
225 238 255
225 238 255
225 238 255
225 238 255
225 238 255
225 238 255
225 238 255
225 238 255
225 238 255
225 238 255
225 238 255
225 238 255
225 238 255
225 238 255
225 238 255
225 237 255
225 238 255
225 238 255
225 237 255
225 238 255
225 238 255
225 237 255
225 237 255
225 238 255
225 238 255
225 238 255
225 238 255
225 238 255
225 238 255
225 238 255
225 238 255
225 238 255
225 238 255
225 238 255
225 238 255
225 238 255
225 238 255
225 238 255
225 238 255
225 238 255
225 238 255
225 238 255
225 238 255
225 238 255
225 238 255
225 238 255
225 238 255
225 238 255
225 238 255
225 238 255
225 238 255
225 238 255
225 238 255
225 238 255
225 238 255
225 238 255
225 238 255
225 238 255
225 238 255
225 238 255
225 238 255
225 238 255
225 238 255
225 238 255
225 238 255
225 238 255
225 238 255
226 238 255
226 238 255
226 238 255
226 238 255
226 238 255
226 238 255
226 238 255
226 238 255
225 238 255
226 238 255
226 238 255
226 238 255
226 238 255
226 238 255
226 238 255
226 238 255
226 238 255
226 238 255
226 238 255
226 238 255
226 238 255
226 238 255
226 238 255
226 238 255
226 238 255
226 238 255
226 238 255
226 238 255
226 238 255
226 238 255
226 238 255
226 238 255
226 238 255
226 238 255
226 238 255
226 238 255
226 238 255
226 238 255
226 238 255
226 238 255
226 238 255
226 238 255
226 238 255
226 238 255
226 238 255
226 239 255
226 238 255
226 238 255
226 238 255
226 238 255
226 239 255
227 239 255
226 238 255
226 239 255
227 239 255
226 238 255
227 239 255
227 239 255
227 239 255
227 239 255
227 239 255
227 239 255
227 239 255
227 239 255
227 239 255
227 239 255
227 239 255
227 239 255
227 239 255
226 238 254
226 238 254
226 238 254
227 238 254
225 237 252
225 237 249
226 238 252
225 237 249
225 237 250
225 238 252
226 238 253
223 236 246
223 236 246
223 235 244
222 235 242
222 235 244
221 234 240
220 233 236
222 235 242
222 235 242
219 232 233
220 233 237
225 237 250
221 234 240
216 230 224
216 230 224
218 231 230
219 232 233
219 232 231
213 228 217
218 231 228
213 227 214
218 232 231
217 231 228
216 230 223
218 231 228
217 231 227
214 229 220
215 229 218
215 229 221
211 226 207
213 228 215
213 228 217
214 228 215
214 228 217
215 229 221
213 228 217
211 226 207
214 229 220
210 225 206
211 226 207
210 225 204
214 228 215
207 223 196
212 227 211
213 228 215
212 226 209
210 225 203
206 222 189
209 225 201
208 224 198
209 224 201
211 226 209
202 219 177
211 226 206
212 227 211
209 224 203
205 221 189
209 225 203
207 223 194
209 225 201
207 223 196
210 226 207
202 219 182
206 222 191
205 222 191
205 221 188
206 222 191
210 225 206
204 221 188
207 222 193
206 222 191
205 221 189
205 221 186
207 223 196
208 224 199
204 220 184
200 217 171
205 222 193
208 224 199
200 218 173
204 221 186
207 223 194
209 224 201
203 220 186
206 222 193
200 218 173
204 221 188
205 221 189
206 222 193
207 223 196
208 224 199
209 224 199
208 223 194
207 222 193
208 224 199
207 223 198
207 223 196
205 221 188
211 226 207
209 225 204
205 221 186
204 220 184
203 220 184
209 225 204
206 222 189
208 224 203
210 225 204
209 224 203
210 225 206
207 223 196
212 226 209
208 224 199
214 229 218
209 224 201
215 229 220
210 225 204
213 227 212
210 226 207
210 226 206
216 230 226
214 228 218
215 229 217
212 227 212
214 229 218
217 231 228
214 229 220
214 228 218
218 232 231
218 232 230
214 229 221
218 231 228
214 229 220
217 231 227
222 235 241
218 231 228
220 233 237
218 232 230
217 231 227
218 232 231
220 233 237
220 233 236
222 235 241
219 233 234
220 233 236
220 233 237
223 235 244
223 235 244
222 235 241
225 237 250
222 235 241
222 235 244
223 235 244
224 236 246
224 236 248
225 237 249
225 237 249
225 237 250
226 238 254
227 239 255
225 238 252
227 239 255
227 239 255
227 239 255
227 239 255
227 239 255
227 239 255
227 239 255
227 239 255
227 239 255
227 239 255
227 239 255
227 239 255
227 239 255
227 239 255
227 239 255
227 239 255
226 238 255
227 239 255
227 239 255
227 239 255
227 239 255
226 238 255
227 239 255
227 239 255
226 238 255
226 239 255
226 238 255
227 239 255
226 238 255
226 238 255
226 238 255
226 238 255
226 238 255
226 238 255
226 238 255
226 238 255
226 238 255
226 238 255
226 238 255
226 238 255
226 238 255
226 238 255
226 238 255
226 238 255
226 238 255
226 238 255
226 238 255
226 238 255
226 238 255
226 238 255
226 238 255
226 238 255
226 238 255
226 238 255
226 238 255
226 238 255
226 238 255
226 238 255
226 238 255
226 238 255
226 238 255
226 238 255
226 238 255
226 238 255
226 238 255
226 238 255
226 238 255
226 238 255
226 238 255
226 238 255
225 238 255
226 238 255
225 238 255
225 238 255
225 238 255
225 238 255
225 238 255
225 238 255
225 238 255
225 238 255
225 238 255
225 238 255
225 238 255
225 238 255
225 238 255
225 238 255
225 238 255
225 238 255
225 238 255
225 238 255
225 238 255
225 238 255
225 238 255
225 238 255
225 238 255
225 238 255
225 238 255
225 238 255
225 238 255
225 238 255
225 238 255
225 238 255
225 238 255
225 238 255
225 238 255
225 238 255
225 238 255
225 238 255
225 238 255
225 238 255
225 238 255
225 238 255
225 238 255
225 238 255
225 238 255
225 238 255
225 238 255
225 238 255
225 238 255
225 238 255
225 238 255
225 238 255
225 238 255
225 238 255
225 238 255
225 238 255
225 238 255
225 238 255
225 238 255
225 238 255
225 238 255
225 238 255
225 238 255
225 238 255
225 238 255
225 238 255
225 238 255
225 238 255
225 238 255
225 238 255
225 238 255
225 238 255
225 238 255
225 238 255
225 238 255
226 238 255
225 238 255
226 238 255
225 238 255
225 238 255
225 238 255
226 238 255
226 238 255
225 238 255
226 238 255
226 238 255
226 238 255
226 238 255
226 238 255
226 238 255
226 238 255
226 238 255
226 238 255
226 238 255
226 238 255
226 238 255
226 238 255
226 238 255
226 238 255
226 238 255
226 238 255
226 238 255
226 238 255
226 238 255
226 238 255
226 238 255
226 238 255
226 238 255
226 238 255
226 238 255
226 238 255
226 238 255
226 238 255
226 238 255
226 238 255
226 238 255
226 238 255
226 238 255
226 238 255
226 238 255
226 238 255
226 238 255
226 238 255
226 238 255
226 238 255
226 238 255
226 238 255
226 238 255
226 238 255
226 238 255
226 238 255
226 239 255
226 238 255
227 239 255
226 239 255
226 238 255
227 239 255
227 239 255
227 239 255
227 239 255
227 239 255
227 239 255
227 239 255
227 239 255
227 239 255
227 239 255
227 239 255
227 239 255
227 239 255
227 239 255
227 239 255
226 238 254
227 239 255
227 239 255
227 239 255
226 238 254
226 238 253
226 238 253
225 237 249
226 238 250
225 237 250
226 238 252
223 236 245
224 237 248
223 236 245
224 236 246
223 236 244
223 236 245
222 235 242
219 233 236
222 235 242
220 233 236
221 234 238
220 233 236
219 233 233
221 234 237
218 232 230
216 230 224
217 231 228
219 232 233
220 233 237
215 229 220
217 231 226
216 230 223
218 231 230
217 231 227
216 230 223
214 228 215
216 230 223
213 227 214
215 229 217
215 229 221
212 227 209
212 227 211
214 229 218
215 229 220
210 225 207
213 228 215
213 227 215
211 226 209
209 224 201
210 225 204
207 222 191
209 224 203
212 227 207
206 222 193
210 225 207
210 225 204
204 220 186
211 226 207
208 223 194
205 221 188
203 220 181
205 221 188
204 221 188
208 224 198
204 221 188
205 221 188
205 221 191
199 216 169
204 220 184
205 221 186
204 220 184
206 222 193
201 218 173
202 219 182
202 219 181
203 220 182
204 220 186
198 216 165
205 221 188
199 217 171
207 222 193
204 221 188
199 217 167
202 219 181
203 220 181
202 219 177
196 215 161
198 216 167
210 225 204
201 218 175
201 218 177
202 219 179
200 217 169
205 221 188
204 220 184
198 216 169
200 217 171
202 219 181
204 220 184
206 222 189
197 215 161
201 218 173
205 222 191
201 218 177
202 219 177
201 218 177
204 220 186
204 220 182
207 223 194
204 221 189
205 221 189
204 220 184
206 222 191
208 224 199
200 218 173
208 223 196
204 220 181
201 218 173
202 219 181
207 223 196
205 221 188
212 227 209
210 225 204
207 222 193
205 221 188
203 220 182
204 220 186
204 221 188
203 220 184
209 224 203
208 223 196
210 225 204
206 222 193
211 226 206
207 223 193
208 223 196
211 226 207
214 229 220
209 224 203
213 228 215
209 224 201
207 222 193
211 226 207
212 227 212
206 222 193
211 226 209
209 224 199
214 229 220
212 227 214
210 225 207
217 231 228
217 230 226
212 227 211
210 226 207
215 229 221
215 229 221
215 229 217
220 233 233
217 231 227
218 231 230
219 232 231
218 231 227
220 233 236
219 232 233
220 233 236
220 233 236
219 233 234
221 234 240
221 234 238
224 236 245
221 234 240
222 235 242
223 235 244
220 233 234
224 236 245
224 236 248
225 237 250
224 236 248
225 237 249
226 238 253
224 236 246
226 238 253
225 238 252
226 238 252
225 238 252
226 238 254
226 238 253
227 239 255
227 239 255
227 239 255
227 239 255
227 239 255
227 239 255
227 239 255
227 239 255
227 239 255
227 239 255
227 239 255
227 239 255
227 239 255
227 239 255
227 239 255
227 239 255
226 239 255
226 239 255
227 239 255
226 239 255
226 239 255
226 238 255
226 238 255
226 238 255
227 239 255
226 238 255
226 238 255
226 238 255
226 238 255
226 238 255
226 238 255
226 238 255
226 238 255
226 238 255
226 238 255
226 238 255
226 238 255
226 238 255
226 238 255
226 238 255
226 238 255
226 238 255
226 238 255
226 238 255
226 238 255
226 238 255
226 238 255
226 238 255
226 238 255
226 238 255
226 238 255
226 238 255
226 238 255
226 238 255
226 238 255
226 238 255
226 238 255
226 238 255
226 238 255
226 238 255
226 238 255
226 238 255
226 238 255
226 238 255
226 238 255
226 238 255
226 238 255
225 238 255
225 238 255
226 238 255
226 238 255
225 238 255
225 238 255
225 238 255
226 238 255
225 238 255
225 238 255
225 238 255
225 238 255
225 238 255
225 238 255
225 238 255
225 238 255
225 238 255
225 238 255
225 238 255
225 238 255
225 238 255
225 238 255
225 238 255
225 238 255
225 238 255
225 238 255
225 238 255
225 238 255
225 238 255
225 238 255
225 238 255
225 238 255
225 238 255
225 238 255
225 238 255
225 238 255
225 238 255
225 238 255
225 238 255
225 238 255
225 238 255
225 238 255
225 238 255
225 238 255
225 238 255
225 238 255
225 238 255
225 238 255
225 238 255
225 238 255
225 238 255
225 238 255
225 238 255
225 238 255
225 238 255
225 238 255
225 238 255
225 238 255
225 238 255
225 238 255
225 238 255
225 238 255
226 238 255
225 238 255
225 238 255
225 238 255
225 238 255
226 238 255
226 238 255
226 238 255
226 238 255
226 238 255
226 238 255
226 238 255
226 238 255
226 238 255
226 238 255
226 238 255
226 238 255
226 238 255
226 238 255
226 238 255
226 238 255
226 238 255
226 238 255
226 238 255
226 238 255
226 238 255
226 238 255
226 238 255
226 238 255
226 238 255
226 238 255
226 238 255
226 238 255
226 238 255
226 238 255
226 238 255
226 238 255
226 238 255
226 238 255
226 238 255
226 238 255
226 238 255
226 238 255
226 238 255
226 238 255
226 238 255
226 238 255
226 238 255
226 238 255
226 238 255
226 239 255
226 238 255
227 239 255
226 238 255
227 239 255
226 238 255
226 238 255
227 239 255
227 239 255
227 239 255
227 239 255
227 239 255
227 239 255
227 239 255
227 239 255
227 239 255
227 239 255
227 239 255
227 239 255
227 239 255
227 239 255
227 239 255
227 239 255
227 239 255
227 239 255
227 239 255
227 239 255
227 239 255
227 239 255
226 238 254
226 238 254
227 238 254
226 238 253
226 238 253
225 237 250
225 237 249
226 238 253
224 236 246
222 235 241
224 237 248
221 234 240
222 235 241
221 234 238
221 234 237
218 232 230
221 234 238
226 238 252
222 234 238
218 231 230
221 234 238
221 234 237
217 231 226
218 231 228
218 231 230
221 234 238
219 232 231
212 227 212
212 227 212
216 230 223
216 230 223
217 231 227
212 226 211
213 228 215
216 230 223
215 230 223
210 225 206
213 228 215
213 228 214
209 224 203
214 228 217
205 222 189
212 227 211
210 225 206
206 222 193
209 224 203
204 221 189
206 222 194
206 222 191
208 223 198
206 222 188
209 224 199
206 222 193
206 222 193
209 224 199
211 226 206
204 221 191
201 218 175
200 218 173
204 220 186
202 219 181
200 217 173
200 217 171
199 217 171
204 221 188
204 220 182
203 220 182
204 221 186
202 219 175
203 220 182
199 216 163
202 219 179
200 217 171
206 222 191
200 217 165
202 219 179
198 216 169
200 218 173
198 216 163
205 221 188
196 215 161
198 216 165
197 215 159
196 214 155
197 215 159
199 217 165
196 214 159
197 215 159
197 215 159
200 218 173
195 213 153
201 218 175
197 215 159
195 214 155
195 214 155
194 212 151
195 214 157
194 213 153
202 219 181
200 217 171
196 214 155
200 218 173
197 215 159
198 216 165
201 218 175
199 217 169
196 214 157
199 216 161
199 217 171
201 218 171
198 216 165
198 215 161
195 214 155
201 218 169
204 220 184
198 216 167
195 213 155
195 213 151
202 219 177
194 213 147
194 213 151
207 223 194
198 216 167
199 217 169
199 217 165
202 219 179
204 220 186
196 214 151
204 220 184
197 215 159
204 221 186
203 220 184
204 221 186
202 219 177
208 223 198
203 220 181
205 221 188
200 217 169
208 223 196
202 219 181
202 219 179
207 223 196
209 225 201
210 225 203
205 221 186
207 223 196
206 222 193
206 222 193
203 220 182
208 223 196
205 222 189
207 223 196
210 226 206
212 227 211
207 223 194
211 226 207
216 230 221
216 230 223
209 224 201
213 228 215
209 224 196
215 229 221
212 227 211
215 229 221
214 228 214
211 226 207
211 226 207
216 230 224
211 226 207
215 229 221
220 233 234
218 231 228
220 233 236
219 232 231
219 232 233
215 230 223
219 233 233
220 233 234
217 231 228
220 233 236
222 235 242
224 236 246
223 235 242
224 237 248
221 234 240
223 236 244
223 236 244
224 237 248
226 238 253
225 237 249
224 237 248
225 237 250
227 239 255
226 238 252
226 238 253
226 238 254
226 238 252
226 238 253
226 238 254
227 239 255
227 239 255
227 239 255
227 239 255
227 239 255
227 239 255
227 239 255
227 239 255
227 239 255
227 239 255
227 239 255
227 239 255
227 239 255
227 239 255
227 239 255
227 239 255
227 239 255
227 239 255
227 239 255
226 239 255
226 238 255
226 238 255
226 238 255
226 238 255
226 238 255
226 238 255
226 238 255
226 238 255
226 238 255
226 238 255
226 239 255
226 238 255
226 238 255
226 238 255
226 238 255
226 238 255
226 238 255
226 238 255
226 238 255
226 238 255
226 238 255
226 238 255
226 238 255
226 238 255
226 238 255
226 238 255
226 238 255
226 238 255
226 238 255
226 238 255
226 238 255
226 238 255
226 238 255
226 238 255
226 238 255
226 238 255
226 238 255
226 238 255
226 238 255
226 238 255
226 238 255
226 238 255
226 238 255
226 238 255
226 238 255
226 238 255
226 238 255
226 238 255
226 238 255
226 238 255
226 238 255
225 238 255
226 238 255
225 238 255
225 238 255
226 238 255
226 238 255
225 238 255
225 238 255
225 238 255
226 238 255
225 238 255
225 238 255
225 238 255
225 238 255
225 238 255
225 238 255
225 238 255
225 238 255
225 238 255
225 238 255
225 238 255
225 238 255
225 238 255
225 238 255
225 238 255
225 238 255
225 238 255
225 238 255
225 238 255
225 238 255
225 238 255
225 238 255
225 238 255
225 238 255
225 238 255
225 238 255
225 238 255
225 238 255
225 238 255
225 238 255
225 238 255
225 238 255
225 238 255
225 238 255
225 238 255
225 238 255
225 238 255
226 238 255
226 238 255
226 238 255
225 238 255
226 238 255
226 238 255
226 238 255
226 238 255
226 238 255
226 238 255
226 238 255
226 238 255
226 238 255
226 238 255
226 238 255
226 238 255
226 238 255
226 238 255
226 238 255
226 238 255
226 238 255
226 238 255
226 238 255
226 238 255
226 238 255
226 238 255
226 238 255
226 238 255
226 238 255
226 238 255
226 238 255
226 238 255
226 238 255
226 238 255
226 238 255
226 238 255
226 238 255
226 238 255
226 238 255
226 238 255
226 238 255
226 238 255
226 238 255
226 238 255
226 238 255
226 238 255
226 238 255
226 238 255
226 238 255
226 239 255
226 238 255
226 238 255
227 239 255
226 239 255
226 238 255
226 238 255
227 239 255
227 239 255
227 239 255
227 239 255
227 239 255
227 239 255
227 239 255
227 239 255
227 239 255
227 239 255
227 239 255
227 239 255
227 239 255
227 239 255
227 239 255
227 239 255
227 239 255
227 239 255
227 239 255
226 238 254
227 238 254
226 238 253
227 239 255
227 238 254
227 238 254
226 238 252
225 237 250
227 238 254
224 236 246
224 237 248
221 234 238
225 237 249
223 235 242
224 237 248
220 234 238
220 234 238
221 234 238
219 232 233
221 234 237
221 234 240
219 232 231
219 233 234
216 230 226
219 232 231
216 230 226
220 233 234
211 226 209
215 229 221
214 228 217
213 228 214
215 229 221
217 230 226
212 227 212
213 227 212
213 227 214
214 228 215
214 228 214
214 228 218
207 223 196
205 221 186
210 226 207
211 226 209
211 226 207
210 225 206
210 225 206
210 225 201
209 225 203
206 222 194
212 227 211
206 222 194
202 219 179
206 222 194
205 221 186
204 221 186
205 221 186
201 219 179
210 226 207
206 221 186
201 218 173
202 219 175
200 217 173
200 218 175
195 213 153
204 220 182
199 216 165
203 219 179
195 214 155
200 217 171
196 215 161
197 215 161
200 217 169
202 219 177
203 220 181
198 216 163
199 217 171
198 216 161
198 216 163
199 216 165
195 213 153
200 217 173
197 215 161
196 214 157
192 211 142
197 215 159
194 213 149
197 215 155
196 214 153
190 210 130
196 214 155
195 214 153
195 213 155
195 214 153
194 213 147
189 209 125
196 214 155
194 212 142
199 216 161
192 211 137
192 211 137
194 213 151
185 206 117
196 214 153
196 214 153
196 214 155
194 213 153
193 212 147
195 213 149
190 209 128
195 213 153
197 215 161
195 214 155
202 218 173
196 214 153
194 213 151
194 212 147
200 217 167
192 211 142
197 215 157
194 213 151
194 213 151
193 212 144
195 214 155
190 209 128
196 215 161
195 214 153
196 214 153
192 211 144
200 218 173
196 214 157
199 217 169
196 214 153
198 216 163
200 218 175
194 213 151
199 217 167
204 220 182
196 215 159
200 217 169
195 213 151
200 217 167
197 215 163
198 216 163
198 216 165
198 216 161
202 219 179
201 218 177
202 219 175
201 218 173
201 218 175
200 218 175
204 221 188
205 221 188
201 218 175
207 223 198
205 221 188
202 219 179
206 222 193
204 221 184
205 221 188
205 221 191
202 219 182
206 222 189
204 221 186
207 223 194
205 221 184
208 223 196
211 226 207
206 222 193
210 225 206
207 223 196
212 227 212
209 224 198
210 225 204
212 227 212
210 225 203
209 224 203
215 229 220
216 230 224
211 226 209
214 228 218
215 229 220
214 229 218
216 230 224
217 230 224
214 228 218
220 234 237
216 230 223
219 232 231
217 231 227
220 233 236
218 232 230
217 231 226
218 231 230
222 235 242
221 234 238
219 233 233
221 234 238
222 234 240
221 234 238
221 234 240
224 237 248
223 235 244
226 238 252
225 237 249
225 237 249
225 237 250
226 238 252
227 239 254
227 238 254
227 239 255
226 238 254
227 239 255
227 239 255
227 239 255
227 239 255
227 239 255
227 239 255
227 239 255
227 239 255
227 239 255
227 239 255
227 239 255
227 239 255
227 239 255
227 239 255
227 239 255
227 239 255
227 239 255
227 239 255
227 239 255
227 239 255
227 239 255
226 239 255
226 239 255
227 239 255
226 238 255
227 239 255
227 239 255
226 238 255
226 238 255
226 238 255
226 238 255
226 238 255
226 238 255
226 238 255
226 238 255
226 238 255
226 238 255
226 238 255
226 238 255
226 238 255
226 238 255
226 238 255
226 238 255
226 238 255
226 238 255
226 238 255
226 238 255
226 238 255
226 238 255
226 238 255
226 238 255
226 238 255
226 238 255
226 238 255
226 238 255
226 238 255
226 238 255
226 238 255
226 238 255
226 238 255
226 238 255
226 238 255
226 238 255
226 238 255
226 238 255
226 238 255
226 238 255
226 238 255
226 238 255
226 238 255
226 238 255
226 238 255
226 238 255
226 238 255
226 238 255
225 238 255
226 238 255
225 238 255
225 238 255
225 238 255
226 238 255
226 238 255
225 238 255
225 238 255
225 238 255
225 238 255
225 238 255
225 238 255
225 238 255
225 238 255
225 238 255
225 238 255
225 238 255
225 238 255
225 238 255
225 238 255
225 238 255
225 238 255
225 238 255
225 238 255
225 238 255
225 238 255
225 238 255
225 238 255
226 238 255
226 238 255
226 238 255
226 238 255
226 238 255
226 238 255
226 238 255
226 238 255
226 238 255
226 238 255
226 238 255
226 238 255
226 238 255
226 238 255
226 238 255
226 238 255
226 238 255
226 238 255
226 238 255
226 238 255
226 238 255
226 238 255
226 238 255
226 238 255
226 238 255
226 238 255
226 238 255
226 238 255
226 238 255
226 238 255
226 238 255
226 238 255
226 238 255
226 238 255
226 238 255
226 238 255
226 238 255
226 238 255
226 238 255
226 238 255
226 238 255
226 238 255
226 238 255
226 238 255
226 238 255
226 238 255
226 238 255
226 238 255
226 238 255
226 239 255
226 238 255
226 238 255
226 239 255
226 239 255
227 239 255
227 239 255
227 239 255
227 239 255
227 239 255
227 239 255
227 239 255
227 239 255
227 239 255
227 239 255
227 239 255
227 239 255
227 239 255
227 239 255
227 239 255
227 239 255
227 239 255
227 239 255
227 239 255
227 239 255
227 239 255
227 239 255
227 239 255
227 239 255
227 239 255
227 239 255
227 239 255
227 239 255
227 239 254
227 239 254
225 237 250
226 238 253
225 237 249
224 236 245
223 235 242
225 237 250
222 235 242
221 234 237
224 236 245
222 235 241
221 234 238
225 237 249
221 234 237
221 234 238
220 233 236
221 233 236
222 234 240
218 232 230
216 230 224
223 235 244
220 233 234
217 231 226
217 231 227
214 229 218
216 230 221
215 229 218
214 228 215
211 226 207
212 227 209
211 226 209
214 228 217
207 222 193
209 224 199
212 227 209
207 223 198
210 225 204
206 222 193
206 222 191
208 223 196
205 221 189
209 224 199
206 222 189
199 217 167
208 224 198
204 221 186
202 218 175
208 223 198
204 221 188
202 219 177
203 220 182
204 220 184
201 218 177
198 216 167
204 221 186
194 213 153
198 216 165
196 214 151
192 211 133
195 213 155
195 213 153
196 214 157
198 215 159
200 217 167
194 213 147
197 215 157
197 215 159
198 216 163
200 217 169
199 216 161
196 214 155
198 215 159
197 215 159
198 215 161
195 213 149
190 210 137
191 211 142
195 213 149
192 211 137
192 211 140
193 212 142
189 209 130
195 213 151
185 206 114
195 213 144
194 213 151
189 209 128
193 212 142
190 210 133
192 211 144
191 211 140
196 214 155
188 208 122
192 211 135
191 210 135
190 209 130
193 212 147
188 208 125
189 209 125
184 205 105
190 209 128
191 210 133
190 210 130
188 208 128
189 209 128
189 209 130
190 209 125
189 209 125
189 209 133
190 209 128
190 210 135
188 208 125
188 208 117
190 209 133
192 211 142
188 208 120
189 209 130
189 209 125
190 209 130
193 212 140
185 206 108
194 213 149
195 214 153
186 207 117
191 210 130
187 208 120
192 211 144
192 211 144
186 207 117
191 210 130
189 209 128
192 211 137
193 212 147
189 209 133
193 212 142
193 212 142
197 215 159
197 215 159
194 212 147
191 210 133
192 211 142
192 211 140
191 210 140
191 210 135
192 211 142
201 218 173
190 210 135
199 217 169
195 213 151
198 216 165
194 213 151
195 213 149
193 212 144
198 215 159
198 216 167
204 220 186
198 216 161
200 217 165
201 218 177
203 220 186
195 214 155
202 219 177
201 218 173
197 215 159
199 217 171
200 217 167
206 222 191
208 223 196
200 218 175
200 217 173
208 224 199
205 221 188
205 221 189
200 217 173
210 225 206
208 223 196
210 225 206
208 223 198
210 225 207
206 222 189
208 224 199
210 226 207
210 225 206
211 226 209
210 225 203
210 225 206
211 226 209
213 228 215
216 230 221
218 231 228
217 231 227
214 228 217
219 232 231
219 233 233
215 229 221
221 234 238
219 232 230
215 230 223
220 233 237
218 231 228
217 230 224
221 234 237
219 233 234
222 235 242
223 235 242
222 235 240
221 234 238
224 236 245
223 236 245
222 235 241
227 239 254
225 237 248
226 238 252
226 238 253
226 238 253
226 238 252
226 238 253
227 239 255
227 238 254
227 238 254
227 238 254
227 239 255
227 239 255
227 239 255
227 239 255
227 239 255
227 239 255
227 239 255
227 239 255
227 239 255
227 239 255
227 239 255
227 239 255
227 239 255
227 239 255
227 239 255
227 239 255
227 239 255
227 239 255
227 239 255
227 239 255
227 239 255
227 239 255
226 238 255
227 239 255
227 239 255
227 239 255
226 238 255
226 239 255
226 238 255
226 239 255
226 238 255
226 238 255
226 238 255
226 238 255
226 238 255
226 238 255
226 238 255
226 238 255
226 238 255
226 238 255
226 238 255
226 238 255
226 238 255
226 238 255
226 238 255
226 238 255
226 238 255
226 238 255
226 238 255
226 238 255
226 238 255
226 238 255
226 238 255
226 238 255
226 238 255
226 238 255
226 238 255
226 238 255
226 238 255
226 238 255
226 238 255
226 238 255
226 238 255
226 238 255
226 238 255
226 238 255
226 238 255
226 238 255
226 238 255
226 238 255
226 238 255
226 238 255
226 238 255
225 238 255
226 238 255
226 238 255
226 238 255
225 238 255
225 238 255
225 238 255
225 238 255
225 238 255
225 238 255
225 238 255
225 238 255
225 238 255
225 238 255
225 238 255
225 238 255
225 238 255
226 238 255
226 238 255
225 238 255
226 238 255
226 238 255
226 238 255
226 238 255
226 238 255
226 238 255
226 238 255
226 238 255
226 238 255
226 238 255
226 238 255
226 238 255
226 238 255
226 238 255
226 238 255
226 238 255
226 238 255
226 238 255
226 238 255
226 238 255
226 238 255
226 238 255
226 238 255
226 238 255
226 238 255
226 238 255
226 238 255
226 238 255
226 238 255
226 238 255
226 238 255
226 238 255
226 238 255
226 238 255
226 238 255
226 238 255
226 238 255
226 238 255
226 238 255
226 238 255
226 238 255
226 238 255
226 238 255
226 239 255
226 238 255
226 239 255
226 238 255
227 239 255
227 239 255
226 239 255
226 239 255
227 239 255
227 239 255
226 239 255
227 239 255
227 239 255
227 239 255
227 239 255
227 239 255
227 239 255
227 239 255
227 239 255
227 239 255
227 239 255
227 239 255
227 239 255
227 239 255
227 239 255
227 239 255
227 239 255
227 239 255
227 239 255
227 239 255
227 239 255
227 239 255
227 239 255
227 239 255
227 239 255
227 239 255
227 239 254
226 238 252
225 237 250
226 238 252
226 238 252
225 237 250
226 238 252
226 238 253
223 235 242
223 236 245
223 236 244
222 235 241
225 237 250
221 234 237
223 235 244
221 234 237
217 231 227
222 235 242
219 232 233
218 232 230
217 231 226
221 234 237
215 229 221
218 231 228
215 229 221
216 230 224
215 229 223
215 229 220
213 228 214
212 227 209
214 228 217
214 228 217
212 226 209
207 223 196
212 227 209
208 224 201
211 226 206
208 224 199
206 222 193
208 223 194
206 222 194
206 222 189
208 224 196
207 223 194
205 221 189
203 219 181
209 224 201
205 221 188
197 215 159
197 215 161
202 219 177
202 219 179
200 217 169
202 219 177
194 213 147
198 215 159
202 219 179
202 219 182
197 215 159
198 216 163
200 217 169
196 214 159
199 216 167
195 213 153
198 216 163
193 212 147
189 209 128
190 210 137
195 213 147
197 215 163
188 208 128
193 212 147
192 211 142
200 217 167
188 208 122
190 209 130
195 213 151
192 211 135
194 213 144
187 207 117
192 211 140
185 206 114
192 211 137
190 210 130
189 209 125
188 208 125
189 209 133
192 211 137
192 211 140
190 210 133
189 208 117
190 210 135
183 204 99
187 208 122
189 209 128
181 203 80
186 207 117
185 206 108
188 208 122
188 208 122
190 210 137
181 203 84
188 208 125
187 207 111
190 210 133
188 208 122
183 204 99
186 206 111
184 205 105
190 210 133
184 205 105
186 207 120
189 209 128
187 207 117
183 204 95
184 205 102
182 204 92
186 207 117
185 206 108
182 204 95
185 206 111
186 206 105
186 207 114
189 209 130
186 207 114
182 204 102
183 204 95
185 206 111
184 205 102
185 206 108
185 206 114
183 205 99
185 206 114
181 203 88
185 206 111
185 206 114
190 210 135
190 209 125
191 210 137
187 207 120
191 211 137
187 207 117
189 208 122
194 213 153
188 208 125
188 209 130
188 208 122
187 207 120
189 209 130
189 209 130
189 209 128
195 213 149
193 212 144
194 212 144
191 210 135
190 210 133
191 210 135
194 213 155
195 214 155
195 214 155
191 210 135
193 212 142
195 214 157
193 212 142
194 213 149
196 214 157
195 214 155
198 216 167
195 213 149
197 215 163
195 213 151
204 220 182
197 215 163
200 217 167
199 217 169
200 217 171
203 220 182
204 220 182
204 221 188
202 219 177
201 218 175
201 218 177
203 220 184
205 221 188
205 221 188
204 220 186
207 223 194
207 223 196
211 226 211
210 225 203
203 220 182
211 226 209
212 226 209
208 224 199
207 223 194
209 224 201
213 227 214
212 227 211
213 227 212
213 228 214
212 227 212
208 223 196
212 227 211
216 230 223
216 230 224
214 229 220
213 228 215
216 230 223
219 232 233
218 232 230
217 231 227
219 232 230
220 233 236
222 235 241
218 231 228
219 233 234
223 235 242
225 237 249
221 234 241
221 234 240
223 236 244
224 236 246
224 236 246
224 237 248
225 237 250
225 237 249
226 238 252
227 238 254
227 239 254
227 239 254
227 238 254
227 239 255
227 239 255
227 239 255
227 239 255
227 239 255
227 239 255
227 239 255
227 239 255
227 239 255
227 239 255
227 239 255
227 239 255
227 239 255
227 239 255
227 239 255
227 239 255
227 239 255
227 239 255
227 239 255
227 239 255
227 239 255
227 239 255
227 239 255
227 239 255
227 239 255
227 239 255
227 239 255
227 239 255
226 238 255
227 239 255
226 238 255
227 239 255
226 238 255
226 238 255
226 239 255
226 238 255
226 238 255
226 238 255
226 238 255
226 238 255
226 238 255
226 238 255
226 238 255
226 238 255
226 238 255
226 238 255
226 238 255
226 238 255
226 238 255
226 238 255
226 238 255
226 238 255
226 238 255
226 238 255
226 238 255
226 238 255
226 238 255
226 238 255
226 238 255
226 238 255
226 238 255
226 238 255
226 238 255
226 238 255
226 238 255
226 238 255
226 238 255
226 238 255
226 238 255
226 238 255
226 238 255
226 238 255
226 238 255
226 238 255
226 238 255
226 238 255
226 238 255
226 238 255
226 238 255
226 238 255
225 238 255
226 238 255
225 238 255
225 238 255
226 238 255
226 238 255
226 238 255
226 238 255
226 238 255
226 238 255
226 238 255
226 238 255
226 238 255
226 238 255
226 238 255
226 238 255
226 238 255
226 238 255
226 238 255
226 238 255
226 238 255
226 238 255
226 238 255
226 238 255
226 238 255
226 238 255
226 238 255
226 238 255
226 238 255
226 238 255
226 238 255
226 238 255
226 238 255
226 238 255
226 238 255
226 238 255
226 238 255
226 238 255
226 238 255
226 238 255
226 238 255
226 238 255
226 238 255
226 238 255
226 238 255
226 238 255
227 239 255
226 239 255
226 238 255
226 238 255
226 239 255
227 239 255
227 239 255
227 239 255
226 239 255
227 239 255
227 239 255
227 239 255
227 239 255
227 239 255
227 239 255
227 239 255
227 239 255
227 239 255
227 239 255
227 239 255
227 239 255
227 239 255
227 239 255
227 239 255
227 239 255
227 239 255
227 239 255
227 239 255
227 239 255
227 239 255
227 239 255
227 239 255
227 239 255
227 239 255
227 239 255
227 239 255
227 239 254
227 239 254
226 238 252
227 239 254
227 239 254
226 238 253
225 237 248
226 238 250
227 238 253
225 237 250
224 236 246
223 236 244
222 234 240
221 234 240
222 235 241
222 234 238
221 234 237
219 232 230
216 230 226
220 233 233
218 232 230
215 229 220
219 232 230
216 230 224
216 230 221
216 230 223
217 230 224
216 230 221
218 232 228
214 229 217
217 231 226
208 224 199
211 226 209
212 226 209
207 223 196
211 226 206
209 224 203
208 223 196
209 225 201
210 225 203
205 221 188
208 224 198
214 228 214
203 220 184
203 219 177
205 222 193
201 218 171
206 222 193
201 218 177
203 220 181
203 220 184
203 220 182
202 219 177
198 216 163
200 217 171
198 216 163
201 218 171
198 216 165
195 214 153
198 216 165
194 212 147
191 210 135
194 213 153
198 216 161
196 214 153
194 213 149
191 211 140
192 211 144
189 209 130
189 209 125
190 210 133
191 211 140
190 210 130
198 215 161
190 210 130
189 209 125
193 212 142
190 210 130
192 211 140
189 209 130
188 208 114
188 208 117
191 210 128
190 209 128
189 209 130
190 210 128
187 207 108
186 207 117
190 209 128
185 206 111
189 209 125
180 202 84
184 205 102
185 206 105
180 202 76
186 206 111
184 205 105
181 203 84
180 202 72
185 206 111
184 205 95
183 204 99
183 204 92
185 206 105
181 203 88
184 205 102
183 204 92
182 204 99
185 205 111
183 204 99
178 200 67
181 203 88
181 203 88
180 202 76
181 203 88
182 203 80
182 203 88
184 205 105
181 203 88
180 202 80
184 205 92
179 201 72
180 202 84
184 205 99
186 206 108
188 208 120
177 200 62
182 203 80
181 203 80
183 204 99
180 202 76
181 202 76
181 203 88
180 201 67
181 203 84
183 204 99
182 203 84
180 202 84
181 203 95
185 206 99
184 205 99
182 204 95
183 204 99
185 206 105
181 203 84
181 203 88
186 206 108
187 207 117
184 205 105
187 207 120
187 207 117
186 207 114
186 207 111
185 206 108
184 205 95
186 207 120
188 208 117
191 210 135
185 206 111
187 207 117
185 206 108
187 207 120
190 210 133
189 209 125
191 210 128
189 209 125
190 209 130
189 209 125
185 206 108
188 209 128
191 210 135
192 211 140
195 213 151
196 214 157
187 208 117
193 212 142
193 211 137
191 210 135
198 216 165
194 212 149
198 216 165
196 214 155
195 214 153
199 217 165
199 216 165
196 214 157
197 215 163
196 214 151
202 219 177
197 215 159
200 217 171
203 220 186
203 220 182
201 218 175
200 218 171
204 221 184
205 221 189
204 221 186
207 223 194
201 218 175
205 222 189
203 220 184
204 221 186
212 226 209
207 222 193
208 223 193
209 224 201
211 226 207
206 222 191
211 226 207
210 225 204
212 226 209
214 228 215
214 228 217
213 228 215
212 227 214
210 225 204
215 229 218
219 232 230
218 232 228
217 230 224
213 228 217
221 234 238
218 232 231
221 234 237
218 232 228
219 232 230
219 232 231
221 234 238
222 234 240
224 236 245
223 236 244
221 234 238
226 238 252
221 234 238
225 237 249
226 238 252
227 239 254
225 237 249
227 239 254
226 238 250
226 238 253
226 238 253
227 239 255
227 239 255
227 239 255
227 239 255
227 239 255
227 239 255
227 239 255
227 239 255
227 239 255
227 239 255
227 239 255
227 239 255
227 239 255
227 239 255
227 239 255
227 239 255
227 239 255
227 239 255
227 239 255
227 239 255
227 239 255
227 239 255
227 239 255
227 239 255
227 239 255
227 239 255
227 239 255
227 239 255
227 239 255
227 239 255
226 239 255
226 239 255
226 238 255
227 239 255
227 239 255
227 239 255
226 239 255
226 238 255
226 238 255
226 238 255
226 238 255
226 238 255
226 238 255
226 238 255
226 238 255
226 238 255
226 238 255
226 238 255
226 238 255
226 238 255
226 238 255
226 238 255
226 238 255
226 238 255
226 238 255
226 238 255
226 238 255
226 238 255
226 238 255
226 238 255
226 238 255
226 238 255
226 238 255
226 238 255
226 238 255
226 238 255
226 238 255
226 238 255
226 238 255
226 238 255
226 238 255
226 238 255
226 238 255
226 238 255
226 238 255
226 238 255
226 238 255
226 238 255
226 238 255
226 238 255
226 238 255
226 238 255
226 238 255
226 238 255
226 238 255
226 238 255
226 238 255
226 238 255
226 238 255
226 238 255
226 238 255
226 238 255
226 238 255
226 238 255
226 238 255
226 238 255
226 238 255
226 238 255
226 238 255
226 238 255
226 238 255
226 238 255
226 238 255
226 238 255
226 238 255
226 238 255
226 238 255
226 238 255
226 238 255
226 238 255
226 238 255
226 238 255
226 238 255
226 238 255
226 238 255
226 239 255
226 238 255
226 238 255
227 239 255
227 239 255
226 239 255
227 239 255
227 239 255
227 239 255
226 239 255
227 239 255
227 239 255
227 239 255
227 239 255
227 239 255
227 239 255
227 239 255
227 239 255
227 239 255
227 239 255
227 239 255
227 239 255
227 239 255
227 239 255
227 239 255
227 239 255
227 239 255
227 239 255
227 239 255
227 239 255
227 239 255
227 239 255
227 239 255
227 239 255
227 239 255
227 239 255
227 239 255
227 239 255
227 239 255
227 239 254
227 239 254
226 238 252
227 239 254
227 239 254
223 235 244
224 237 248
225 237 248
222 235 240
222 235 241
224 237 248
224 236 245
221 234 236
222 234 238
223 235 242
220 233 236
218 232 228
215 230 223
221 234 237
216 230 223
215 229 221
218 231 227
216 230 223
215 229 220
212 227 211
217 230 224
213 228 214
215 229 220
210 225 203
211 226 206
208 223 196
205 221 186
208 224 198
206 222 191
210 225 203
208 223 194
205 221 186
209 224 196
203 220 181
205 221 189
204 221 186
208 224 199
208 224 199
202 219 179
197 215 161
196 215 159
201 218 177
198 216 165
197 215 157
197 215 155
205 221 186
198 215 161
190 210 135
199 217 169
197 215 159
193 212 142
197 215 157
195 213 153
197 215 161
195 213 151
194 212 149
190 209 133
188 208 120
193 211 140
189 209 125
193 212 144
189 209 130
192 211 140
193 212 149
188 209 128
185 206 108
190 210 130
191 210 135
186 207 117
184 205 105
187 207 117
185 206 105
186 207 117
182 204 99
187 207 117
182 204 88
182 203 84
185 206 114
183 204 95
186 207 117
184 205 99
184 205 102
182 203 88
185 206 102
185 206 114
185 205 99
182 204 92
183 204 88
179 201 76
180 202 80
180 202 76
179 201 62
182 204 84
180 202 76
178 201 72
183 204 88
181 203 80
184 205 102
181 203 92
183 204 99
176 199 44
181 203 76
183 204 99
176 199 51
180 202 76
179 201 62
178 200 57
179 201 67
178 200 57
178 200 62
179 201 72
180 202 62
178 200 62
177 200 57
178 201 62
177 200 67
178 200 62
179 201 72
178 201 62
180 202 67
177 200 62
181 202 80
179 201 76
179 201 72
181 202 72
177 200 67
179 201 67
177 200 62
179 201 62
179 201 67
179 202 72
177 199 44
179 201 72
179 201 76
178 200 57
180 202 76
179 201 72
179 201 72
179 202 80
180 202 72
178 201 72
178 201 72
179 202 76
180 202 80
184 205 102
182 204 92
180 202 80
178 201 67
182 203 88
179 201 72
177 200 57
181 202 76
182 204 92
187 207 120
182 204 92
186 206 111
182 204 92
186 207 117
180 202 76
183 204 92
186 206 111
188 208 120
186 207 111
185 206 105
183 204 95
181 203 95
189 209 122
186 206 111
187 207 120
186 206 108
186 207 117
188 208 120
189 209 128
185 206 108
184 205 111
192 211 135
189 208 125
190 210 135
189 209 122
197 215 161
195 213 147
193 212 144
192 211 140
195 214 151
195 213 149
191 211 137
194 213 149
194 213 149
190 209 133
197 215 161
193 212 144
198 216 161
197 215 155
196 214 155
198 216 163
197 215 163
205 221 184
200 217 171
200 218 171
202 219 177
203 220 182
205 221 188
202 219 179
204 221 186
208 224 198
206 222 191
210 225 204
208 223 198
206 222 193
210 225 203
213 228 214
209 225 204
211 226 204
212 227 209
206 222 191
211 226 207
211 226 209
214 228 217
210 225 204
211 226 207
215 229 217
213 228 214
218 231 227
217 231 226
216 230 223
217 231 226
220 233 234
218 232 230
218 231 228
220 233 234
223 236 244
220 233 233
221 234 237
224 236 245
223 235 242
223 236 244
225 237 250
222 234 240
225 237 248
226 238 252
227 239 254
226 238 253
224 236 246
226 238 253
227 239 254
227 239 255
227 239 255
227 239 255
227 239 255
227 239 255
227 239 255
227 239 255
227 239 255
227 239 255
227 239 255
227 239 255
227 239 255
227 239 255
227 239 255
227 239 255
227 239 255
227 239 255
227 239 255
227 239 255
227 239 255
227 239 255
227 239 255
227 239 255
227 239 255
227 239 255
227 239 255
227 239 255
227 239 255
227 239 255
227 239 255
227 239 255
227 239 255
227 239 255
226 239 255
227 239 255
226 239 255
227 239 255
226 238 255
226 238 255
226 238 255
226 238 255
227 239 255
226 238 255
226 238 255
226 238 255
226 238 255
226 238 255
226 238 255
226 238 255
226 238 255
226 238 255
226 238 255
226 238 255
226 238 255
226 238 255
226 238 255
226 238 255
226 238 255
226 238 255
226 238 255
226 238 255
226 238 255
226 238 255
226 238 255
226 238 255
226 238 255
226 238 255
226 238 255
226 238 255
226 238 255
226 238 255
226 238 255
226 238 255
226 238 255
226 238 255
226 238 255
226 238 255
226 238 255
226 238 255
226 238 255
226 238 255
226 238 255
226 238 255
226 238 255
226 238 255
226 238 255
226 238 255
226 238 255
226 238 255
226 238 255
226 238 255
226 238 255
226 238 255
226 238 255
226 238 255
226 238 255
226 238 255
226 238 255
226 238 255
226 238 255
226 238 255
226 238 255
226 239 255
226 239 255
227 239 255
226 238 255
226 239 255
226 238 255
226 238 255
226 239 255
227 239 255
227 239 255
227 239 255
227 239 255
227 239 255
227 239 255
227 239 255
227 239 255
227 239 255
227 239 255
227 239 255
227 239 255
227 239 255
227 239 255
227 239 255
227 239 255
227 239 255
227 239 255
227 239 255
227 239 255
227 239 255
227 239 255
227 239 255
227 239 255
227 239 255
227 239 255
227 239 255
227 239 255
227 239 255
227 239 255
227 239 255
227 239 254
227 239 254
227 239 254
227 239 254
227 239 254
227 239 254
226 238 252
226 238 253
225 237 249
223 235 242
225 237 248
225 237 249
220 233 234
223 236 244
223 236 244
225 237 248
221 234 240
219 232 233
219 232 233
220 233 233
221 234 237
217 230 226
217 230 226
214 228 217
216 230 221
215 229 220
217 230 224
212 227 211
210 226 207
213 227 214
215 229 220
215 229 220
209 225 203
214 228 215
212 227 211
209 224 201
208 223 196
207 223 193
202 219 181
206 222 189
205 222 189
209 224 203
203 220 181
204 220 184
202 219 175
201 218 175
206 222 193
197 215 161
198 216 161
200 217 169
205 221 184
201 218 175
194 213 149
197 215 161
193 212 140
194 213 149
196 214 155
201 218 171
197 215 159
194 212 149
196 214 153
196 214 151
189 209 128
191 210 137
190 210 128
191 210 135
191 210 133
189 209 128
189 209 128
187 208 120
187 207 114
189 209 128
188 208 128
185 206 117
188 208 122
185 206 111
185 206 105
187 207 120
185 206 108
184 205 92
188 207 114
190 209 130
186 206 111
183 204 92
183 204 92
183 204 95
182 203 84
183 204 102
179 201 72
181 203 80
180 202 80
185 206 111
182 203 88
181 203 80
181 203 76
181 202 80
182 203 80
179 201 80
177 200 62
179 201 57
180 202 84
182 203 88
176 199 51
179 201 62
176 199 51
182 203 80
176 199 51
179 201 62
178 200 57
176 199 25
177 200 44
179 201 62
178 200 57
178 200 62
182 203 80
174 198 25
175 198 44
176 199 51
175 198 25
176 199 44
177 199 36
175 198 36
177 200 51
177 200 51
176 199 44
178 201 62
176 199 44
174 198 0
178 200 57
175 198 25
176 199 0
176 199 36
174 198 25
176 199 36
176 199 36
176 199 25
176 199 44
174 198 0
175 199 36
175 198 25
175 198 25
177 199 44
175 198 25
177 200 44
176 199 44
178 200 51
177 199 44
175 199 44
173 197 25
175 198 25
177 200 57
177 200 67
174 198 36
177 200 51
178 200 51
178 200 51
178 200 57
176 199 44
180 202 67
177 200 44
176 199 44
179 201 76
178 200 57
179 201 67
177 200 57
180 202 76
180 202 72
178 201 57
178 200 57
179 201 67
179 201 57
182 203 88
181 203 84
180 202 80
181 203 80
179 201 76
179 201 72
184 205 95
182 204 95
180 202 84
185 205 105
181 203 92
185 206 102
178 201 76
184 205 102
182 204 92
187 207 108
183 205 111
182 204 95
192 211 137
186 207 117
184 205 105
184 205 105
185 206 114
191 210 133
191 210 130
189 208 122
189 209 130
189 209 130
189 209 130
189 209 128
196 214 153
192 211 142
193 212 140
189 209 125
195 213 149
194 213 149
197 215 159
196 214 153
191 210 135
191 211 137
201 218 171
200 217 169
194 213 149
198 216 167
199 217 169
200 217 169
202 219 179
204 221 184
202 218 175
201 218 173
207 222 191
206 222 193
200 217 169
204 221 186
209 224 201
205 221 186
209 224 199
204 220 184
209 225 203
210 225 201
209 224 203
210 225 203
210 225 204
214 228 217
213 228 214
214 228 217
212 227 212
213 228 214
213 227 212
216 230 224
213 228 214
216 230 223
218 231 228
219 232 233
219 233 233
219 232 233
223 236 244
218 232 230
221 234 237
220 233 234
220 233 236
219 232 231
222 235 241
222 235 241
223 235 241
223 235 242
224 236 246
226 238 252
226 238 250
225 237 250
226 238 250
227 238 253
227 239 254
227 239 254
227 239 254
227 239 255
227 239 254
227 239 255
227 239 255
227 239 255
227 239 255
227 239 255
227 239 255
227 239 255
227 239 255
227 239 255
227 239 255
227 239 255
227 239 255
227 239 255
227 239 255
227 239 255
227 239 255
227 239 255
227 239 255
227 239 255
227 239 255
227 239 255
227 239 255
227 239 255
227 239 255
227 239 255
227 239 255
227 239 255
227 239 255
227 239 255
227 239 255
227 239 255
227 239 255
226 239 255
226 239 255
226 239 255
226 238 255
227 239 255
226 238 255
226 238 255
226 238 255
226 238 255
226 238 255
226 238 255
226 238 255
226 238 255
226 238 255
226 238 255
226 238 255
226 238 255
226 238 255
226 238 255
226 238 255
226 238 255
226 238 255
226 238 255
226 238 255
226 238 255
226 238 255
226 238 255
226 238 255
226 238 255
226 238 255
226 238 255
226 238 255
226 238 255
226 238 255
226 238 255
226 238 255
226 238 255
226 238 255
226 238 255
226 238 255
226 238 255
226 238 255
226 238 255
226 238 255
226 238 255
226 238 255
226 238 255
226 238 255
226 238 255
226 238 255
226 238 255
226 238 255
226 238 255
226 238 255
226 238 255
226 238 255
226 238 255
227 239 255
226 238 255
227 239 255
227 239 255
227 239 255
227 239 255
226 238 255
227 239 255
227 239 255
227 239 255
227 239 255
227 239 255
227 239 255
227 239 255
227 239 255
227 239 255
227 239 255
227 239 255
227 239 255
227 239 255
227 239 255
227 239 255
227 239 255
227 239 255
227 239 255
227 239 255
227 239 255
227 239 255
227 239 255
227 239 255
227 239 255
227 239 255
227 239 255
227 239 255
227 239 255
227 239 255
227 239 255
227 239 255
227 239 255
227 239 255
226 238 253
227 239 255
227 239 254
226 238 253
227 239 254
224 236 245
225 237 248
224 236 246
224 236 246
223 236 244
225 237 249
223 236 244
223 235 242
220 233 233
219 232 230
221 234 238
220 233 233
224 236 245
219 233 231
218 231 228
217 231 227
218 231 228
217 230 224
211 226 206
219 232 231
215 229 221
213 227 212
214 228 215
209 224 198
212 226 209
211 225 204
209 225 204
210 225 204
210 225 204
205 221 184
205 221 186
207 222 191
203 220 181
205 221 191
205 221 186
206 222 189
201 218 171
200 218 173
199 217 167
201 218 175
205 221 189
207 223 198
199 217 167
201 218 173
197 215 161
199 217 167
199 217 167
197 215 157
200 217 167
192 211 142
190 209 128
197 214 155
194 213 149
196 214 155
192 211 142
192 211 142
191 210 137
192 211 142
190 210 135
188 208 120
192 211 137
187 207 120
183 204 99
186 207 111
185 205 105
189 209 128
183 204 92
187 207 120
182 204 95
181 203 99
185 206 108
183 205 102
183 204 92
183 204 95
182 203 80
188 208 117
179 202 76
181 203 84
181 203 88
180 202 72
182 203 80
180 202 76
181 202 72
178 201 67
179 201 67
180 202 72
180 202 72
180 202 72
181 202 76
179 201 72
178 200 57
179 201 67
177 200 57
176 199 44
178 200 51
176 199 25
176 199 51
176 199 25
175 199 36
176 199 44
177 200 57
177 199 25
176 199 36
177 199 25
175 198 0
178 200 44
176 199 44
175 198 0
176 199 44
175 198 0
174 198 25
174 198 25
176 199 25
173 197 0
175 198 25
174 197 0
175 199 36
175 198 0
174 198 0
173 197 0
174 198 25
174 198 0
175 198 0
175 198 0
174 197 0
175 198 0
174 198 25
174 197 0
175 198 0
175 198 0
174 198 0
175 198 0
173 197 0
173 197 0
175 198 0
174 198 0
174 197 0
175 198 25
176 198 0
175 198 0
175 198 0
175 198 0
175 198 0
174 197 0
177 199 0
173 197 0
175 198 0
173 197 0
174 197 0
174 198 25
173 197 0
175 198 0
177 199 0
175 198 0
174 198 36
174 198 25
175 198 25
175 198 25
176 199 44
174 198 0
175 198 25
174 198 36
177 199 36
174 198 36
175 198 25
178 200 51
176 199 25
174 198 36
180 202 72
176 199 51
179 201 67
175 199 44
175 199 51
178 201 62
179 201 76
179 201 67
180 202 76
180 202 72
179 202 76
178 201 67
178 201 76
177 200 62
180 202 80
180 202 76
179 202 88
179 201 67
182 204 92
180 202 72
180 202 80
186 207 114
182 204 92
187 207 108
180 202 72
187 207 117
187 207 117
181 203 88
185 206 108
185 206 111
187 207 114
184 205 95
188 208 114
182 204 99
189 209 128
190 210 130
189 209 128
191 211 137
191 210 135
190 209 133
187 207 117
188 208 125
194 213 151
191 210 133
199 216 163
190 209 128
192 211 140
193 212 147
199 217 169
197 216 165
199 217 169
204 220 182
201 218 169
198 216 161
199 217 167
199 216 167
199 216 163
204 220 182
206 222 191
199 217 171
202 219 181
204 220 184
207 223 196
212 226 209
207 223 194
205 221 186
208 224 201
207 223 194
213 227 212
208 224 201
210 225 206
216 229 220
214 229 217
214 228 217
209 224 199
213 228 212
215 229 218
215 229 218
219 232 230
216 230 223
221 234 236
219 232 231
222 235 242
218 232 230
220 233 234
219 232 233
220 233 236
223 236 244
224 236 245
224 236 245
225 237 249
224 236 245
223 236 244
225 237 249
226 238 252
227 239 254
227 239 254
226 238 252
226 238 253
227 239 254
227 239 255
227 239 255
227 239 255
227 239 255
227 239 255
227 239 255
227 239 255
227 239 255
227 239 255
227 239 255
227 239 255
227 239 255
227 239 255
227 239 255
227 239 255
227 239 255
227 239 255
227 239 255
227 239 255
227 239 255
227 239 255
227 239 255
227 239 255
227 239 255
227 239 255
227 239 255
227 239 255
227 239 255
227 239 255
227 239 255
227 239 255
227 239 255
227 239 255
227 239 255
227 239 255
227 239 255
227 239 255
227 239 255
226 238 255
226 238 255
226 238 255
226 239 255
226 239 255
226 238 255
226 238 255
226 239 255
226 238 255
226 238 255
226 238 255
226 238 255
226 238 255
226 238 255
226 238 255
226 238 255
226 238 255
226 238 255
226 238 255
226 238 255
226 238 255
226 238 255
226 238 255
226 238 255
226 238 255
226 238 255
226 238 255
226 238 255
226 238 255
226 238 255
226 238 255
226 238 255
226 238 255
226 238 255
226 238 255
226 238 255
226 238 255
227 239 255
226 238 255
226 238 255
226 238 255
226 238 255
226 238 255
227 239 255
227 239 255
226 238 255
227 239 255
227 239 255
227 239 255
227 239 255
227 239 255
227 239 255
227 239 255
227 239 255
227 239 255
227 239 255
227 239 255
227 239 255
227 239 255
227 239 255
227 239 255
227 239 255
227 239 255
227 239 255
227 239 255
227 239 255
227 239 255
227 239 255
227 239 255
227 239 255
227 239 255
227 239 255
227 239 255
227 239 255
227 239 255
227 239 255
227 239 255
227 239 255
227 239 255
227 239 255
227 239 255
227 239 255
227 239 255
227 239 255
227 238 253
227 239 254
226 238 253
227 239 255
227 239 254
225 237 248
226 238 252
223 236 244
224 236 246
222 234 238
224 236 246
221 234 236
222 235 241
218 232 228
223 235 242
221 234 236
223 235 242
217 231 227
217 231 227
222 235 240
220 234 237
214 228 214
217 230 224
212 226 209
216 230 223
211 226 207
215 229 217
215 229 221
213 227 212
218 231 227
210 225 204
208 224 198
211 225 204
207 223 194
205 221 191
207 223 194
208 223 196
203 219 179
211 225 204
204 220 184
206 222 191
202 219 177
198 215 161
199 217 171
205 221 188
198 216 163
203 220 182
199 216 165
199 217 165
197 215 159
199 217 167
198 215 161
196 214 153
196 215 157
194 213 151
197 215 163
193 212 144
190 210 130
192 211 137
194 213 147
187 208 125
192 211 140
193 212 142
190 210 130
188 208 120
187 207 117
190 209 128
184 205 95
183 205 102
187 208 120
184 205 99
185 206 108
186 206 108
185 206 105
185 206 108
179 201 72
180 202 72
181 203 88
180 202 72
179 201 72
184 205 99
180 202 72
182 203 88
177 200 67
176 199 57
179 201 67
177 200 51
176 199 57
181 202 72
176 199 36
178 200 51
177 200 57
177 200 51
177 200 51
175 199 36
175 199 36
176 199 25
175 198 36
176 199 25
174 198 0
178 200 44
175 198 25
174 198 25
175 198 0
175 198 25
174 198 25
176 199 0
174 198 25
175 198 0
175 198 0
174 198 0
174 198 0
174 198 0
174 197 0
174 198 0
176 199 0
173 197 0
175 198 0
175 198 0
174 197 0
174 197 0
174 197 0
175 198 0
175 198 0
174 198 0
174 197 0
175 198 0
175 198 0
175 198 0
174 198 0
174 197 0
174 197 0
174 198 0
175 198 0
175 198 0
172 197 0
174 197 0
174 198 0
175 198 0
174 197 0
173 197 0
174 198 0
175 198 0
173 197 0
174 198 0
172 197 0
175 198 0
174 197 0
175 198 0
173 197 0
176 199 0
174 197 0
174 198 0
174 198 0
174 198 0
173 197 0
174 198 0
174 197 0
174 197 0
174 198 0
176 199 0
174 198 0
175 198 0
174 197 0
174 197 0
175 198 0
174 197 0
174 197 0
174 198 0
176 199 0
176 199 0
173 197 25
174 198 0
174 198 0
173 197 0
174 197 0
175 198 0
176 199 36
176 199 25
175 198 0
174 198 0
176 199 36
173 197 25
175 198 25
176 199 25
176 199 36
174 198 44
175 198 0
175 198 44
177 200 36
176 199 51
176 199 44
176 199 51
176 199 36
179 201 62
178 200 62
177 200 57
178 201 72
180 202 84
180 202 76
179 201 76
177 200 51
182 203 84
178 201 62
183 204 95
178 200 62
179 202 80
179 201 67
182 203 95
179 201 67
179 202 76
186 206 108
183 204 92
180 202 80
186 207 117
185 206 108
187 207 114
188 208 120
189 209 122
188 208 120
188 208 125
186 207 111
191 210 133
191 210 130
195 213 147
199 216 165
192 212 144
196 215 159
192 211 137
193 212 147
196 214 155
196 214 153
193 212 144
199 216 163
204 220 184
198 216 161
197 215 161
193 212 142
199 216 163
202 219 179
203 220 181
202 219 181
201 218 175
203 220 181
206 222 188
208 224 198
203 219 179
212 226 207
205 221 188
205 222 191
210 225 206
209 224 199
210 225 203
207 222 193
213 227 214
213 228 214
212 227 211
212 227 211
209 224 204
212 227 212
209 224 199
218 231 228
217 231 227
216 230 223
220 233 234
216 230 224
219 232 230
218 232 230
222 235 241
220 233 234
222 235 242
222 235 240
224 236 245
224 236 246
225 237 248
226 238 250
226 238 253
224 237 248
227 239 254
225 237 249
227 239 255
227 238 253
227 239 255
227 239 254
228 239 255
227 239 255
227 239 255
227 239 255
227 239 255
227 239 255
227 239 255
227 239 255
227 239 255
227 239 255
227 239 255
227 239 255
227 239 255
227 239 255
227 239 255
227 239 255
227 239 255
227 239 255
227 239 255
227 239 255
227 239 255
227 239 255
227 239 255
227 239 255
227 239 255
227 239 255
227 239 255
227 239 255
227 239 255
227 239 255
227 239 255
227 239 255
227 239 255
227 239 255
227 239 255
226 239 255
226 239 255
227 239 255
227 239 255
226 239 255
226 238 255
227 239 255
226 238 255
226 238 255
226 238 255
226 238 255
226 238 255
226 238 255
226 238 255
226 238 255
226 238 255
226 238 255
226 238 255
226 238 255
226 238 255
226 238 255
226 238 255
226 238 255
226 238 255
226 238 255
226 238 255
226 238 255
226 238 255
226 239 255
226 238 255
226 238 255
227 239 255
226 239 255
227 239 255
226 238 255
227 239 255
226 239 255
227 239 255
227 239 255
226 239 255
227 239 255
227 239 255
227 239 255
227 239 255
227 239 255
227 239 255
227 239 255
227 239 255
227 239 255
227 239 255
227 239 255
227 239 255
227 239 255
227 239 255
227 239 255
227 239 255
227 239 255
227 239 255
227 239 255
227 239 255
227 239 255
227 239 255
227 239 255
227 239 255
227 239 255
227 239 255
227 239 255
227 239 255
227 239 255
227 239 255
227 239 255
227 239 255
227 239 255
227 239 255
227 239 255
227 239 255
227 239 255
227 239 254
226 238 253
226 238 253
227 238 253
227 238 253
225 237 248
225 237 249
223 235 241
222 235 241
222 235 241
223 236 245
224 237 246
222 234 238
219 233 233
220 233 233
219 232 231
218 231 226
216 230 224
218 232 230
218 231 227
218 231 227
217 231 224
214 228 214
213 227 215
214 228 217
210 225 203
211 226 209
214 228 215
210 225 206
212 226 209
210 225 203
209 225 203
210 225 203
208 224 199
201 219 177
210 225 203
204 220 182
208 223 196
204 220 181
197 215 161
201 219 179
198 216 163
203 220 182
194 213 151
199 217 167
198 216 161
193 212 144
201 218 173
193 211 140
195 213 151
197 215 157
193 212 144
190 209 125
190 209 125
194 213 149
189 209 122
193 212 140
190 209 125
188 208 122
187 207 117
190 209 128
187 208 120
183 204 92
184 205 88
188 207 111
190 209 130
182 204 92
189 209 125
185 206 108
182 203 88
182 203 84
183 204 102
183 204 95
183 204 92
179 201 72
177 200 51
180 202 76
180 202 76
179 201 72
179 201 67
179 201 57
181 203 76
179 201 72
178 200 51
177 200 51
177 200 57
178 200 51
174 198 44
178 200 44
176 199 36
178 200 44
177 200 36
174 198 0
174 198 25
174 198 25
175 198 36
175 198 0
175 198 25
175 198 25
174 198 0
175 198 0
175 198 0
173 197 0
174 197 0
175 198 0
173 196 0
175 198 0
174 198 0
174 198 0
175 198 0
175 198 0
173 197 0
175 198 0
174 198 0
175 198 0
175 198 0
175 198 0
175 198 0
176 198 0
174 198 0
174 198 0
177 199 0
174 198 0
173 197 0
176 199 0
174 198 0
175 198 0
173 197 0
173 197 0
177 199 0
174 198 0
175 198 0
173 197 0
175 198 0
175 198 0
175 198 0
173 197 0
175 198 0
174 198 0
175 198 0
176 199 0
175 198 0
174 198 0
174 197 0
174 197 0
174 198 0
174 198 0
175 198 0
174 198 0
174 198 0
176 199 0
175 198 0
175 198 0
174 198 0
174 198 0
172 196 0
175 198 0
173 197 0
175 198 0
173 197 0
175 198 0
175 198 0
173 197 0
173 197 0
174 198 0
174 197 0
174 198 0
174 198 0
175 198 0
173 197 0
173 197 0
174 198 0
175 198 0
175 198 0
173 197 0
174 198 0
174 198 0
175 198 0
173 197 0
174 197 0
175 198 0
175 198 0
174 197 0
176 198 0
173 197 0
177 199 0
174 198 0
176 199 0
174 198 0
174 197 0
174 198 0
175 198 0
172 197 0
174 198 0
174 198 25
175 198 25
175 198 25
175 198 25
177 200 44
175 198 36
177 200 36
176 199 25
176 199 44
176 199 44
178 201 67
176 199 44
179 201 72
175 198 25
180 202 67
178 200 51
176 199 51
176 199 51
177 200 57
181 203 76
181 202 80
179 201 72
181 202 72
181 203 84
181 203 88
184 205 102
180 202 84
183 204 95
185 205 105
181 203 88
185 206 105
185 206 108
178 201 72
184 205 102
187 208 125
192 211 135
187 208 122
184 205 108
190 209 128
193 212 147
189 208 122
192 211 142
191 210 133
185 206 111
191 210 133
200 217 167
196 214 151
195 213 151
199 216 165
199 216 163
201 218 175
201 218 175
198 216 165
196 214 153
201 218 175
200 217 171
200 217 171
199 216 165
205 221 189
200 217 171
205 222 189
203 220 184
207 223 191
203 219 181
209 224 199
206 222 191
208 223 194
214 228 215
207 223 196
212 227 211
208 224 199
214 228 217
217 231 226
213 228 215
214 228 215
218 231 227
216 230 223
218 231 227
216 230 224
218 231 228
221 234 237
217 231 226
219 233 233
220 233 237
220 233 233
222 235 241
224 237 246
222 235 240
224 236 246
225 237 248
223 236 244
225 237 249
224 237 248
225 237 249
227 238 253
227 239 254
227 239 253
228 239 255
228 239 255
227 239 255
227 239 255
227 239 255
227 239 255
227 239 255
227 239 255
227 239 255
227 239 255
227 239 255
227 239 255
227 239 255
227 239 255
227 239 255
227 239 255
227 239 255
227 239 255
227 239 255
227 239 255
227 239 255
227 239 255
227 239 255
227 239 255
227 239 255
227 239 255
227 239 255
227 239 255
227 239 255
227 239 255
227 239 255
227 239 255
227 239 255
227 239 255
227 239 255
227 239 255
227 239 255
226 238 255
227 239 255
227 239 255
227 239 255
226 239 255
226 239 255
226 239 255
226 238 255
226 238 255
227 239 255
226 239 255
226 238 255
226 238 255
226 238 255
226 238 255
226 238 255
226 238 255
226 238 255
226 238 255
226 238 255
226 238 255
226 239 255
227 239 255
227 239 255
227 239 255
227 239 255
227 239 255
227 239 255
227 239 255
226 238 255
227 239 255
227 239 255
227 239 255
227 239 255
227 239 255
227 239 255
227 239 255
227 239 255
227 239 255
227 239 255
227 239 255
227 239 255
227 239 255
227 239 255
227 239 255
227 239 255
227 239 255
227 239 255
227 239 255
227 239 255
227 239 255
227 239 255
227 239 255
227 239 255
227 239 255
227 239 255
227 239 255
227 239 255
227 239 255
227 239 255
227 239 255
227 239 255
227 239 255
227 239 255
227 239 255
227 239 255
227 239 255
228 239 255
227 239 254
227 238 253
227 239 254
225 237 249
226 238 253
225 237 246
225 237 249
225 237 249
226 237 249
225 237 249
223 235 242
223 235 241
222 235 240
222 235 241
220 233 233
217 231 226
216 230 223
217 230 223
217 230 224
218 231 226
219 233 231
218 231 227
213 227 214
215 229 220
212 227 212
211 226 206
212 227 209
212 227 212
206 222 189
207 223 198
207 223 196
212 226 209
203 220 181
210 225 204
206 222 191
202 219 177
200 217 167
205 221 188
205 221 188
205 221 186
197 215 157
203 220 182
196 214 153
193 212 144
198 215 161
194 213 151
194 213 151
195 213 149
196 214 157
192 211 137
198 215 155
192 211 140
195 214 155
189 209 130
190 210 133
190 210 135
190 210 133
186 207 122
189 209 130
186 207 114
187 207 120
189 209 128
184 205 99
187 207 114
186 207 117
187 207 114
183 204 92
187 207 122
182 203 88
182 203 80
181 202 80
182 204 92
178 201 67
179 202 76
180 202 62
180 202 67
176 199 44
178 200 57
177 200 57
176 199 44
176 199 36
178 201 67
176 199 44
177 200 44
176 199 25
175 199 44
175 198 25
174 198 0
176 199 44
175 198 25
175 198 0
175 198 0
174 198 0
175 198 0
174 198 0
175 198 0
175 198 0
175 198 0
175 198 0
174 198 0
173 197 0
173 197 0
174 197 0
174 198 0
176 199 0
175 198 0
175 198 0
175 198 0
175 198 0
174 198 0
175 198 0
173 197 0
174 198 0
174 198 0
174 198 0
175 198 0
174 197 0
173 197 0
177 199 0
174 197 0
176 198 0
175 198 0
174 198 0
175 198 0
175 198 0
174 198 0
175 198 0
174 198 0
175 198 0
175 198 0
176 198 0
175 198 0
174 198 0
174 198 0
175 198 0
173 197 0
174 197 0
173 197 0
174 198 0
174 198 0
174 198 0
176 199 0
174 198 0
172 196 0
174 198 0
176 199 0
173 197 0
175 198 0
175 198 0
174 198 0
175 198 0
174 198 0
174 198 0
175 198 0
175 198 0
176 198 0
173 197 0
176 199 0
173 197 0
174 197 0
175 198 0
175 198 0
173 197 0
174 198 0
174 198 0
174 198 0
174 198 0
174 198 0
174 197 0
174 198 0
175 198 0
174 198 0
175 198 0
174 197 0
174 198 0
176 199 0
175 198 0
173 197 0
175 198 0
173 197 0
175 198 0
176 198 0
174 198 0
175 198 0
176 198 0
174 198 0
175 198 0
175 198 0
174 198 0
174 198 0
175 198 0
173 197 0
175 198 0
173 197 0
174 197 0
174 198 0
174 198 0
174 197 0
177 199 0
174 197 0
173 197 0
174 197 0
174 198 0
175 198 0
174 198 0
174 198 25
174 198 0
173 197 0
175 198 25
174 198 0
174 198 25
176 199 36
175 198 25
174 198 25
177 200 36
178 200 51
177 200 44
176 199 25
180 202 67
179 201 62
178 200 57
179 201 57
178 200 62
176 199 51
178 200 57
176 199 44
179 201 62
181 203 92
181 203 84
180 202 76
180 202 76
182 203 88
182 203 76
183 204 95
185 206 102
182 203 84
183 204 88
183 204 95
182 203 95
186 206 108
187 208 120
187 207 117
192 211 142
189 208 120
189 209 128
191 211 135
190 209 122
200 217 171
188 208 125
193 212 140
197 215 157
201 218 175
193 212 140
202 219 175
199 216 169
197 215 157
198 216 161
196 214 155
201 218 169
204 220 186
199 216 167
204 220 182
206 222 191
204 220 184
204 220 182
203 220 182
202 219 177
206 222 189
209 224 196
209 225 201
212 227 212
213 227 212
211 226 207
210 225 201
211 226 209
210 225 204
217 231 226
208 224 196
215 229 220
215 229 220
215 229 220
217 231 226
220 233 234
219 232 230
217 230 226
221 234 236
221 234 237
220 233 233
226 238 252
220 233 234
220 233 234
224 236 245
225 237 248
226 238 250
225 237 250
223 236 244
226 238 250
227 238 252
227 238 253
227 239 254
227 238 253
227 239 255
227 239 255
227 239 255
227 239 255
227 239 255
227 239 255
227 239 255
227 239 255
227 239 255
227 239 255
227 239 255
227 239 255
227 239 255
227 239 255
227 239 255
227 239 255
227 239 255
227 239 255
227 239 255
227 239 255
227 239 255
227 239 255
227 239 255
227 239 255
227 239 255
227 239 255
227 239 255
227 239 255
227 239 255
227 239 255
227 239 255
227 239 255
227 239 255
227 239 255
227 239 255
227 239 255
226 239 255
227 239 255
227 239 255
227 239 255
226 239 255
227 239 255
227 239 255
227 239 255
226 238 255
226 238 255
226 238 255
226 238 255
226 238 255
226 238 255
227 239 255
227 239 255
227 239 255
227 239 255
227 239 255
227 239 255
227 239 255
227 239 255
226 239 255
227 239 255
227 239 255
227 239 255
227 239 255
227 239 255
227 239 255
227 239 255
227 239 255
227 239 255
227 239 255
227 239 255
227 239 255
227 239 255
227 239 255
227 239 255
227 239 255
227 239 255
227 239 255
227 239 255
227 239 255
227 239 255
227 239 255
227 239 255
227 239 255
227 239 255
227 239 255
227 239 255
227 239 255
227 239 255
227 239 255
227 239 255
227 239 255
228 239 255
228 239 255
228 239 255
227 239 254
228 239 255
226 238 253
226 238 252
224 236 245
225 237 248
225 237 248
225 237 248
225 237 248
224 236 242
223 236 244
222 235 238
223 235 242
216 230 224
221 234 237
222 234 238
219 233 231
218 232 228
219 232 230
215 229 220
215 229 218
213 228 214
216 230 221
213 227 209
215 229 217
212 226 206
212 227 212
206 222 193
206 222 191
209 224 199
207 222 193
207 223 194
208 224 201
206 222 189
204 220 182
200 217 171
200 217 171
208 224 198
205 221 186
202 218 173
203 219 177
199 216 163
199 217 171
204 221 184
192 211 142
195 213 151
195 213 153
199 217 165
196 214 155
197 215 159
197 215 157
196 214 157
191 210 128
194 212 147
193 212 147
187 208 122
188 208 117
192 211 137
188 208 117
185 206 108
183 204 88
189 208 120
183 204 95
184 205 102
184 205 99
183 204 95
182 204 92
182 203 92
182 204 88
179 201 72
179 201 76
178 200 57
175 198 44
181 202 72
179 202 72
179 201 72
176 199 57
177 200 51
177 200 51
175 198 25
176 199 36
178 200 44
175 199 36
176 198 0
174 198 25
175 198 44
176 199 25
173 197 0
176 199 0
175 198 0
173 197 0
175 198 0
175 198 0
174 198 0
173 197 0
174 198 0
175 198 0
174 198 0
173 197 0
175 198 0
174 198 0
173 197 0
175 198 0
175 198 0
177 199 0
174 197 0
173 197 0
174 198 0
174 197 0
175 198 0
174 198 0
174 197 0
174 198 0
175 198 0
174 197 0
176 199 0
173 197 0
174 198 0
175 198 0
175 198 0
176 199 0
174 198 0
174 198 0
176 198 0
175 198 0
174 198 0
174 198 0
174 198 0
174 198 0
174 198 0
174 197 0
173 197 0
176 199 0
174 197 0
174 198 0
174 198 0
175 198 0
175 198 0
175 198 0
176 198 0
175 198 0
176 198 0
175 198 0
175 198 0
174 197 0
175 198 0
173 197 0
174 198 0
174 198 0
175 198 0
173 197 0
175 198 0
174 198 0
173 197 0
175 198 0
176 198 0
176 199 0
176 199 0
175 198 0
175 198 0
175 198 0
174 197 0
173 197 0
175 198 0
175 198 0
174 198 0
177 199 0
174 198 0
174 197 0
175 198 0
175 198 0
173 197 0
175 198 0
175 198 0
173 197 0
174 198 0
175 198 0
175 198 0
176 198 0
174 198 0
175 198 0
175 198 0
174 197 0
174 198 0
176 199 0
175 198 0
174 198 0
175 198 0
174 197 0
175 198 0
175 198 0
174 198 0
175 198 0
173 197 0
175 198 0
175 198 0
174 197 0
175 198 0
173 197 0
175 198 0
174 197 0
175 198 0
175 198 0
173 197 0
176 199 0
174 198 0
174 198 0
174 198 0
174 198 0
174 198 0
175 198 0
174 197 0
174 198 0
173 197 0
175 198 0
176 199 0
175 198 0
174 198 0
174 198 0
174 198 0
173 197 0
174 198 25
173 197 0
174 198 25
175 198 25
175 198 0
177 200 44
177 199 44
176 199 44
176 199 36
174 198 36
177 200 36
176 199 51
177 200 44
176 199 44
178 201 67
181 202 72
178 201 62
180 202 72
182 204 92
179 201 76
181 203 80
179 201 76
182 203 88
183 204 92
181 202 76
182 204 102
187 207 120
182 203 80
188 208 122
193 212 140
183 205 102
187 207 114
188 208 122
187 208 122
188 208 122
193 212 144
190 210 133
188 208 125
185 206 108
199 217 167
193 212 144
188 208 128
199 216 161
199 216 167
198 216 163
199 216 167
200 217 171
196 215 157
198 216 163
200 217 171
204 221 188
204 221 184
206 221 186
205 221 186
201 218 175
204 220 184
201 218 173
208 223 196
212 226 207
209 224 199
207 223 196
215 229 218
213 227 212
209 224 203
211 226 207
209 224 201
212 226 207
211 225 204
219 232 230
218 231 228
219 232 230
220 233 234
219 233 233
222 234 238
218 232 230
221 234 237
222 235 241
224 236 245
222 235 241
222 235 241
226 238 252
225 237 248
226 238 250
224 236 246
225 237 249
228 239 255
227 238 253
227 239 254
227 238 253
228 239 255
228 239 255
227 239 255
227 239 255
227 239 255
227 239 255
227 239 255
227 239 255
227 239 255
227 239 255
227 239 255
227 239 255
227 239 255
227 239 255
227 239 255
227 239 255
227 239 255
227 239 255
227 239 255
227 239 255
227 239 255
227 239 255
227 239 255
227 239 255
227 239 255
227 239 255
227 239 255
227 239 255
227 239 255
227 239 255
227 239 255
227 239 255
227 239 255
227 239 255
227 239 255
227 239 255
227 239 255
227 239 255
227 239 255
227 239 255
226 238 255
227 239 255
227 239 255
227 239 255
227 239 255
227 239 255
227 239 255
227 239 255
227 239 255
227 239 255
227 239 255
227 239 255
227 239 255
227 239 255
227 239 255
227 239 255
227 239 255
227 239 255
227 239 255
227 239 255
227 239 255
227 239 255
227 239 255
227 239 255
227 239 255
227 239 255
227 239 255
227 239 255
227 239 255
227 239 255
227 239 255
227 239 255
227 239 255
227 239 255
227 239 255
227 239 255
227 239 255
227 239 255
227 239 255
227 239 255
227 239 255
227 239 255
228 239 255
227 239 255
228 239 255
228 239 255
227 239 254
227 239 253
227 238 253
226 238 252
222 235 241
225 237 248
226 238 250
224 236 245
224 236 244
225 237 249
223 235 242
220 233 234
219 232 231
221 234 237
222 234 240
223 235 240
218 232 228
218 231 228
221 234 236
218 231 227
217 231 223
214 228 215
211 226 209
211 226 207
211 226 206
210 225 204
212 227 209
213 228 214
208 224 198
209 224 198
209 224 198
206 222 189
204 220 182
204 221 186
204 221 188
200 218 175
197 215 155
207 223 194
198 215 161
199 216 165
204 220 184
195 214 153
197 215 157
197 215 157
198 216 161
194 213 149
190 209 130
197 215 159
191 210 133
193 211 135
190 209 128
190 209 130
196 214 153
185 206 111
183 205 99
189 209 130
187 207 114
187 208 120
185 206 108
186 206 111
184 205 102
182 203 88
178 201 62
183 204 99
184 205 95
181 202 76
179 201 67
181 202 80
181 203 84
178 200 57
178 201 62
182 204 88
177 200 44
177 200 57
176 199 25
174 198 25
177 200 51
176 199 57
175 198 25
174 198 25
176 199 25
176 199 36
175 198 36
175 198 25
175 198 0
175 198 0
175 198 0
174 198 0
173 197 0
176 199 0
173 197 0
174 198 0
174 198 0
174 198 0
175 198 0
174 198 0
175 198 0
175 198 0
173 197 0
175 198 0
175 198 0
175 198 0
175 198 0
174 198 0
174 198 0
176 199 0
175 198 0
175 198 0
173 197 0
175 198 0
175 198 0
175 198 0
176 199 0
174 197 0
174 198 0
176 198 0
174 198 0
173 197 0
175 198 0
175 198 0
175 198 0
173 197 0
173 197 0
175 198 0
175 198 0
174 198 0
174 198 0
174 198 0
174 197 0
175 198 0
174 197 0
175 198 0
173 197 0
174 198 0
175 198 0
175 198 0
176 198 0
173 197 0
175 198 0
174 197 0
174 198 0
175 198 0
175 198 0
176 199 0
175 198 0
175 198 0
174 197 0
176 198 0
175 198 0
175 198 0
175 198 0
175 198 0
174 197 0
174 197 0
174 198 0
174 197 0
174 197 0
173 197 0
176 199 0
174 198 0
175 198 0
172 197 0
175 198 0
175 198 0
174 197 0
175 198 0
175 198 0
174 198 0
175 198 0
175 198 0
175 198 0
173 197 0
172 196 0
173 197 0
175 198 0
174 197 0
174 198 0
173 197 0
174 197 0
175 198 0
175 198 0
173 197 0
174 197 0
174 198 0
173 197 0
173 197 0
176 199 0
173 197 0
174 198 0
176 199 0
173 197 0
174 198 0
175 198 0
174 198 0
175 198 0
175 198 0
174 197 0
175 198 0
175 198 0
175 198 0
172 197 0
174 198 0
173 197 0
176 199 0
174 197 0
174 197 0
174 198 0
176 199 0
176 199 0
175 198 0
174 198 0
174 198 0
175 198 0
175 198 0
175 198 0
174 198 0
174 198 0
176 199 0
174 198 0
176 198 0
178 200 0
176 198 0
175 198 0
174 198 0
174 198 0
174 198 0
175 198 0
173 197 0
175 198 0
175 198 0
172 197 0
174 198 0
173 197 0
175 198 0
176 199 36
173 197 0
174 198 25
176 199 25
176 199 36
174 198 36
175 198 25
178 200 62
179 201 67
174 198 36
179 201 62
177 200 51
179 201 57
180 202 62
178 201 67
180 202 72
176 199 57
180 201 67
183 204 88
182 204 99
180 202 84
179 201 72
188 208 120
190 209 125
182 204 102
185 205 102
187 207 117
184 205 99
186 207 120
187 207 120
186 206 111
191 210 137
191 210 135
193 212 142
197 215 159
196 214 157
191 211 135
194 213 151
196 214 151
195 213 149
195 213 151
195 213 147
196 214 155
200 217 169
201 218 173
200 217 169
201 218 175
197 215 161
200 217 169
202 219 175
202 219 179
208 224 199
212 227 211
208 223 196
209 224 201
206 222 189
210 225 201
211 226 206
214 228 215
214 228 214
214 229 218
217 231 226
218 232 230
218 231 228
215 229 221
218 232 230
217 231 224
214 228 217
221 234 237
220 233 234
220 233 233
220 233 234
220 233 234
224 236 244
223 235 242
221 234 238
223 236 244
226 238 252
226 238 250
226 238 250
227 239 254
225 237 249
227 238 253
226 238 252
227 239 255
228 239 255
228 239 255
227 239 255
227 239 255
228 239 255
227 239 255
227 239 255
227 239 255
227 239 255
227 239 255
227 239 255
227 239 255
227 239 255
227 239 255
227 239 255
227 239 255
227 239 255
227 239 255
227 239 255
227 239 255
227 239 255
227 239 255
227 239 255
227 239 255
227 239 255
227 239 255
227 239 255
227 239 255
227 239 255
227 239 255
227 239 255
227 239 255
227 239 255
227 239 255
227 239 255
227 239 255
227 239 255
227 239 255
227 239 255
227 239 255
227 239 255
227 239 255
227 239 255
227 239 255
227 239 255
227 239 255
227 239 255
227 239 255
227 239 255
227 239 255
227 239 255
227 239 255
227 239 255
227 239 255
227 239 255
227 239 255
227 239 255
227 239 255
227 239 255
227 239 255
227 239 255
227 239 255
227 239 255
227 239 255
227 239 255
227 239 255
227 239 255
227 239 255
228 239 255
227 239 255
228 239 255
228 239 255
228 239 255
227 239 255
228 239 255
228 239 255
228 239 255
228 239 255
226 238 250
227 238 253
226 238 250
222 235 241
224 236 245
224 236 246
225 237 248
221 234 237
223 236 244
221 234 237
223 235 241
223 236 244
220 233 233
217 231 226
219 232 228
219 233 231
218 231 227
213 228 214
215 229 218
214 228 215
214 228 215
214 229 218
210 225 206
213 228 214
211 226 206
207 223 196
211 226 207
206 222 189
204 220 181
207 223 193
206 222 191
203 220 184
202 218 175
201 218 173
206 222 191
200 217 171
197 215 157
200 217 169
203 220 182
194 213 147
193 212 137
200 217 171
201 218 175
194 212 147
192 211 140
192 211 142
191 210 133
196 214 153
189 208 111
189 209 125
190 210 130
193 212 142
188 208 117
188 208 122
183 205 99
189 209 122
188 208 120
183 204 95
181 203 92
179 201 76
176 200 62
183 204 95
182 204 88
182 203 84
182 204 88
185 205 95
176 199 44
179 201 57
178 200 57
180 202 80
179 201 67
177 200 67
175 198 25
176 199 36
176 199 25
176 199 44
174 198 0
175 198 36
175 198 0
175 198 0
175 198 0
177 199 0
174 198 0
173 197 0
175 198 0
175 198 0
174 197 0
175 198 0
173 197 0
175 198 0
176 199 0
174 198 0
175 198 0
174 198 0
176 199 0
173 197 0
173 197 0
176 199 0
175 198 0
175 198 0
173 197 0
175 198 0
174 198 0
176 198 0
175 198 0
175 198 0
173 197 0
173 197 0
175 198 0
174 198 0
174 197 0
175 198 0
175 198 0
176 198 0
174 198 0
175 198 0
175 198 0
174 197 0
175 198 0
173 197 0
174 197 0
174 198 0
176 199 0
174 197 0
174 198 0
173 197 0
176 199 0
174 198 0
176 199 0
175 198 0
173 197 0
177 199 0
175 198 0
174 198 0
175 198 0
173 197 0
172 196 0
175 198 0
176 199 0
174 197 0
174 197 0
174 198 0
175 198 0
174 198 0
173 197 0
174 198 0
173 197 0
175 198 0
175 198 0
174 197 0
176 199 0
176 198 0
174 198 0
173 197 0
175 198 0
173 197 0
175 198 0
174 198 0
174 198 0
172 196 0
173 197 0
175 198 0
176 199 0
176 198 0
175 198 0
176 199 0
174 198 0
176 199 0
174 198 0
174 198 0
174 197 0
174 198 0
176 199 0
174 198 0
176 198 0
175 198 0
172 196 0
173 197 0
176 198 0
176 199 0
174 198 0
175 198 0
174 198 0
175 198 0
175 198 0
175 198 0
175 198 0
176 199 0
172 197 0
174 197 0
175 198 0
173 197 0
175 198 0
173 197 0
176 198 0
175 198 0
173 197 0
175 198 0
174 198 0
173 197 0
174 198 0
173 197 0
175 198 0
175 198 0
174 198 0
173 197 0
174 198 0
176 199 0
174 198 0
174 198 0
173 197 0
174 198 0
176 198 0
173 197 0
174 198 0
172 196 0
174 198 0
174 197 0
173 197 0
175 198 0
175 198 0
176 199 0
173 197 0
174 198 0
175 198 0
175 198 0
174 197 0
173 197 0
173 197 0
174 198 0
174 198 0
175 198 0
174 198 0
173 197 0
174 197 0
176 198 0
173 197 0
173 197 0
175 198 0
175 198 0
173 197 0
176 198 0
174 198 0
174 198 0
173 197 0
174 198 25
175 198 0
176 199 51
174 198 25
176 199 44
174 198 36
176 199 36
175 198 36
178 200 51
178 200 44
179 201 62
177 200 51
179 201 51
179 201 72
177 200 44
180 202 84
178 200 62
181 203 88
181 203 88
182 204 92
187 208 122
181 203 84
185 206 111
188 208 120
186 207 114
188 208 125
183 204 92
184 205 102
190 209 130
194 213 147
188 208 125
190 210 130
194 213 147
194 213 147
191 210 135
196 214 151
192 211 140
196 214 157
198 216 163
191 211 142
193 212 144
200 217 169
203 220 179
204 220 182
204 220 181
203 219 182
206 222 189
200 217 171
205 221 186
205 221 186
207 223 193
207 223 194
211 226 204
207 223 194
208 223 198
209 224 199
211 226 209
218 231 227
212 226 207
208 223 194
216 230 221
216 230 221
217 230 224
219 232 230
218 231 227
222 234 238
222 234 238
221 234 237
222 234 237
223 235 242
222 234 238
223 235 242
224 236 246
223 235 242
226 238 252
226 237 249
226 238 252
227 238 253
227 238 253
227 239 254
227 239 255
228 239 255
228 239 255
228 239 255
228 239 255
228 239 255
227 239 255
227 239 255
228 239 255
228 239 255
227 239 255
227 239 255
227 239 255
227 239 255
227 239 255
227 239 255
227 239 255
227 239 255
227 239 255
227 239 255
227 239 255
227 239 255
227 239 255
227 239 255
227 239 255
227 239 255
227 239 255
227 239 255
227 239 255
227 239 255
227 239 255
227 239 255
227 239 255
227 239 255
227 239 255
227 239 255
227 239 255
227 239 255
227 239 255
227 239 255
227 239 255
227 239 255
227 239 255
227 239 255
227 239 255
227 239 255
227 239 255
227 239 255
227 239 255
227 239 255
227 239 255
227 239 255
227 239 255
227 239 255
227 239 255
227 239 255
227 239 255
227 239 255
227 239 255
228 239 255
227 239 255
227 239 255
227 239 255
228 239 255
227 239 255
228 239 255
228 239 255
228 239 255
227 238 253
227 239 254
226 238 250
227 239 253
225 237 249
225 237 248
224 236 245
225 237 249
224 236 245
222 235 241
223 235 242
222 235 240
219 232 233
218 232 230
221 234 237
219 232 231
218 232 228
219 232 230
214 228 217
218 232 228
219 232 230
213 227 212
214 228 215
212 227 209
212 227 209
207 223 196
210 225 199
208 223 196
206 222 193
212 227 211
203 220 181
210 225 203
204 220 182
204 220 186
207 223 194
205 221 191
206 222 188
199 216 165
200 217 167
199 216 169
200 217 171
203 219 179
195 214 155
196 214 157
197 215 159
193 212 142
192 211 142
197 215 157
187 207 111
193 212 142
187 208 120
186 207 120
186 207 117
187 207 111
184 205 95
192 211 135
182 204 95
188 208 120
181 203 84
184 205 105
181 203 84
182 204 95
184 205 102
182 204 95
180 202 76
175 199 44
180 202 76
177 200 57
179 201 62
179 201 72
176 199 36
179 201 57
175 199 44
174 198 25
175 198 25
176 199 25
175 198 0
178 200 44
175 198 25
174 197 0
176 199 0
175 198 0
175 198 0
175 198 0
173 197 0
175 198 0
174 198 0
177 199 0
174 198 0
174 198 0
174 198 0
175 198 0
173 197 0
175 198 0
174 198 0
173 197 0
175 198 0
175 198 0
174 198 0
174 198 0
175 198 0
173 197 0
175 198 0
176 199 0
175 198 0
176 199 0
175 198 0
174 198 0
175 198 0
174 197 0
175 198 0
175 198 0
175 198 0
174 197 0
173 197 0
173 197 0
175 198 0
174 198 0
176 199 0
174 198 0
175 198 0
175 198 0
174 198 0
174 198 0
174 197 0
174 198 0
174 197 0
175 198 0
175 198 0
174 197 0
174 198 0
175 198 0
173 197 0
174 198 0
174 198 0
175 198 0
175 198 0
176 199 0
175 198 0
175 198 0
174 197 0
175 198 0
174 197 0
174 198 0
174 197 0
175 198 0
174 197 0
173 197 0
174 198 0
173 197 0
174 198 0
174 198 0
175 198 0
175 198 0
173 197 0
175 198 0
174 198 0
175 198 0
175 198 0
175 198 0
175 198 0
174 198 0
174 198 0
176 198 0
174 198 0
174 198 0
173 197 0
174 198 0
174 198 0
175 198 0
175 198 0
176 198 0
174 197 0
175 198 0
174 198 0
174 198 0
175 198 0
175 198 0
173 196 0
174 197 0
172 197 0
176 199 0
176 199 0
174 197 0
174 198 0
175 198 0
174 198 0
174 198 0
173 197 0
174 198 0
176 199 0
176 199 0
173 197 0
174 198 0
174 198 0
175 198 0
175 198 0
176 198 0
175 198 0
175 198 0
174 198 0
173 197 0
175 198 0
175 198 0
173 197 0
175 198 0
173 197 0
173 197 0
174 197 0
175 198 0
176 198 0
174 198 0
173 197 0
174 198 0
173 197 0
174 197 0
173 197 0
175 198 0
174 198 0
175 198 0
175 198 0
173 197 0
174 198 0
175 198 0
175 198 0
176 198 0
174 198 0
175 198 0
175 198 0
176 199 0
174 197 0
175 198 0
174 197 0
175 198 0
175 198 0
174 198 0
175 198 0
175 198 0
174 198 0
175 198 0
174 198 0
176 199 0
174 198 0
174 198 0
173 197 0
176 199 0
175 198 0
174 198 0
174 197 0
174 197 0
175 198 0
174 198 0
175 198 0
175 198 0
174 198 0
174 197 0
174 198 0
176 198 0
174 197 0
176 198 0
174 198 0
177 199 36
176 199 25
176 199 25
175 198 25
175 199 36
177 199 0
178 201 67
178 200 51
177 200 62
178 200 67
185 205 105
180 202 67
179 201 72
182 203 92
185 206 102
179 202 76
182 204 88
183 204 99
183 204 92
183 204 95
187 207 120
186 207 111
183 204 95
189 209 125
187 208 122
189 209 128
194 212 149
187 207 117
189 209 130
193 212 142
197 215 159
192 211 144
198 215 161
196 214 155
196 214 153
191 211 140
196 214 157
200 217 171
200 217 169
202 219 175
202 219 175
206 221 188
206 222 189
205 221 188
207 222 189
200 217 171
206 222 193
202 218 175
208 223 194
211 226 209
209 224 199
213 228 214
212 226 206
214 228 215
214 229 218
218 231 227
218 231 227
219 232 231
216 230 221
217 231 227
220 233 234
221 234 237
219 233 233
219 232 230
223 235 242
221 234 236
225 237 246
224 236 244
225 237 248
226 238 249
226 238 252
227 238 253
225 237 249
228 239 255
227 238 253
228 239 255
228 239 255
228 239 255
228 239 255
227 239 255
227 239 255
227 239 255
228 239 255
227 239 255
227 239 255
228 239 255
227 239 255
227 239 255
227 239 255
227 239 255
227 239 255
227 239 255
227 239 255
227 239 255
227 239 255
227 239 255
227 239 255
227 239 255
227 239 255
227 239 255
227 239 255
227 239 255
227 239 255
227 239 255
227 239 255
227 239 255
227 239 255
227 239 255
227 239 255
227 239 255
227 239 255
227 239 255
227 239 255
227 239 255
227 239 255
227 239 255
227 239 255
227 239 255
227 239 255
227 239 255
227 239 255
227 239 255
227 239 255
227 239 255
227 239 255
227 239 255
227 239 255
227 239 255
228 239 255
227 239 255
228 239 255
228 239 255
228 239 255
228 239 255
228 239 255
227 239 254
228 239 255
226 238 252
227 239 254
226 238 252
225 237 248
223 235 242
224 236 246
225 237 249
224 236 245
220 233 236
220 233 231
221 234 238
220 233 234
223 235 242
220 233 234
215 229 220
215 229 220
212 227 212
215 229 218
214 228 215
213 228 214
212 227 211
215 229 220
214 228 214
209 225 203
215 229 215
210 225 204
206 222 191
207 222 193
207 222 191
205 221 188
209 225 203
203 220 184
203 219 179
204 220 179
200 218 171
198 216 165
199 217 165
196 215 161
197 215 161
198 216 163
192 211 137
197 215 159
191 211 135
199 216 163
196 214 153
188 208 122
189 209 128
190 210 135
183 205 102
188 208 120
182 203 88
186 207 114
186 206 111
187 207 114
188 208 122
183 204 95
185 205 102
181 202 80
184 205 99
181 203 84
177 199 51
180 202 67
178 200 57
179 201 67
178 200 51
178 200 51
178 201 62
178 200 36
175 199 36
177 199 36
175 198 36
177 199 36
174 198 0
174 197 0
175 198 0
177 199 0
174 197 0
174 198 0
174 198 0
173 197 0
175 198 0
174 198 0
175 198 0
174 198 0
174 198 0
174 197 0
173 197 0
174 198 0
176 198 0
175 198 0
175 198 0
173 197 0
176 199 0
174 198 0
175 198 0
174 198 0
175 198 0
175 198 0
175 198 0
173 197 0
174 198 0
174 198 0
174 198 0
175 198 0
175 198 0
173 197 0
174 198 0
175 198 0
175 198 0
173 197 0
174 198 0
174 198 0
175 198 0
174 198 0
175 198 0
174 198 0
173 197 0
175 198 0
174 198 0
174 198 0
175 198 0
175 198 0
175 198 0
174 197 0
175 198 0
173 197 0
174 198 0
173 197 0
175 198 0
174 198 0
173 197 0
175 198 0
173 197 0
173 197 0
173 197 0
173 197 0
174 198 0
175 198 0
173 197 0
174 197 0
174 198 0
174 198 0
174 197 0
173 197 0
175 198 0
173 196 0
174 198 0
174 198 0
176 198 0
176 199 0
174 198 0
176 198 0
175 198 0
174 197 0
171 196 0
174 198 0
175 198 0
174 197 0
174 197 0
175 198 0
176 199 0
173 197 0
174 198 0
176 199 0
174 198 0
175 198 0
173 197 0
175 198 0
173 197 0
173 197 0
174 197 0
175 198 0
174 198 0
175 198 0
173 197 0
176 198 0
173 197 0
171 196 0
176 199 0
175 198 0
174 197 0
174 198 0
174 198 0
175 198 0
176 198 0
175 198 0
176 199 0
174 197 0
172 196 0
172 196 0
172 197 0
174 198 0
175 197 0
175 198 0
174 198 0
174 198 0
174 197 0
174 198 0
174 198 0
174 198 0
174 198 0
174 198 0
176 199 0
174 197 0
174 198 0
175 198 0
173 197 0
176 198 0
173 197 0
175 198 0
174 198 0
176 198 0
175 198 0
176 198 0
174 197 0
173 197 0
175 198 0
175 198 0
175 198 0
173 197 0
174 198 0
175 198 0
176 199 0
174 198 0
175 198 0
175 198 0
175 198 0
173 197 0
176 198 0
174 198 0
173 197 0
174 197 0
174 198 0
175 198 0
176 199 0
174 197 0
175 198 0
175 198 0
176 199 0
174 197 0
175 198 0
174 198 0
175 198 0
175 198 0
175 198 0
173 197 0
175 198 0
174 198 0
174 197 0
175 198 0
173 197 0
175 198 0
174 198 0
174 198 0
175 198 0
175 198 0
174 198 0
174 197 0
173 197 0
174 198 0
174 198 0
175 198 0
175 198 0
174 197 0
175 198 0
175 198 0
175 198 25
174 198 0
173 197 0
175 198 0
175 198 25
173 197 0
176 199 51
177 199 51
175 199 36
177 200 51
179 201 62
179 201 76
175 199 51
179 201 62
179 202 76
177 200 62
178 201 72
181 203 84
183 204 88
180 202 76
180 202 84
184 205 105
183 205 105
187 207 120
188 208 120
181 202 80
188 208 122
188 208 125
187 207 114
187 207 122
191 211 140
192 211 142
195 213 151
194 213 151
189 209 130
197 215 159
190 209 130
203 219 177
192 211 140
201 218 169
199 216 167
200 217 167
203 220 184
200 218 175
203 220 182
203 220 184
209 224 198
205 222 189
215 229 221
207 223 194
208 223 194
205 222 191
212 226 207
214 228 217
212 226 209
210 225 204
214 228 215
215 229 218
215 229 218
215 229 218
216 230 223
220 233 236
219 232 231
219 232 231
220 233 234
221 234 237
221 234 236
220 233 234
223 236 242
224 236 245
224 236 246
225 237 249
225 237 249
226 238 252
226 238 250
227 239 253
227 239 253
227 239 254
227 239 254
228 239 255
228 239 255
227 239 255
228 239 255
227 239 255
228 239 255
228 239 255
228 239 255
227 239 255
228 239 255
227 239 255
227 239 255
227 239 255
227 239 255
227 239 255
227 239 255
227 239 255
227 239 255
227 239 255
227 239 255
227 239 255
227 239 255
227 239 255
227 239 255
227 239 255
227 239 255
227 239 255
227 239 255
227 239 255
227 239 255
227 239 255
227 239 255
227 239 255
227 239 255
228 239 255
227 239 255
227 239 255
227 239 255
227 239 255
227 239 255
227 239 255
227 239 255
228 239 255
228 239 255
228 239 255
228 239 255
228 239 255
228 239 255
228 239 255
228 239 255
227 238 253
227 239 254
226 238 250
226 238 252
224 236 245
224 236 245
224 236 244
224 236 245
223 235 241
222 235 240
221 233 236
222 234 238
220 233 234
218 231 228
215 229 217
218 232 228
216 230 223
212 227 209
216 230 223
214 228 217
215 229 218
214 228 215
212 227 211
213 227 214
210 225 203
209 224 201
207 222 191
211 226 206
207 223 194
206 222 189
199 217 169
200 217 169
207 223 196
202 219 173
200 217 171
198 216 165
198 216 163
194 213 149
198 216 163
190 210 135
194 213 151
194 213 151
193 211 140
192 211 137
190 210 133
193 212 144
188 208 128
188 208 122
190 209 128
189 209 122
189 209 130
187 207 111
191 210 130
180 202 80
182 204 84
182 203 88
182 204 95
179 201 62
181 203 84
184 205 102
181 203 84
178 200 57
180 202 76
179 201 76
178 200 57
176 199 51
179 201 72
179 201 62
174 198 25
175 198 25
175 199 36
174 198 25
175 198 0
175 198 0
175 198 0
174 198 0
176 198 0
175 198 0
175 198 0
175 198 0
174 197 0
174 198 0
175 198 0
176 198 0
175 198 0
175 198 0
176 199 0
175 198 0
175 198 0
174 198 0
174 197 0
175 198 0
175 198 0
175 198 0
175 198 0
173 197 0
175 198 0
174 198 0
175 198 0
175 198 0
175 198 0
174 198 0
176 199 0
174 198 0
176 198 0
176 198 0
175 198 0
175 198 0
173 197 0
174 198 0
174 198 0
173 197 0
174 198 0
174 198 0
173 197 0
175 198 0
174 198 0
174 197 0
173 197 0
174 197 0
174 197 0
175 198 0
173 197 0
172 197 0
173 197 0
174 198 0
173 197 0
174 197 0
173 197 0
174 198 0
176 198 0
174 198 0
175 198 0
175 198 0
174 198 0
173 197 0
173 197 0
176 199 0
174 197 0
176 198 0
174 198 0
175 198 0
175 198 0
174 198 0
176 198 0
174 198 0
175 198 0
173 197 0
173 197 0
175 198 0
173 197 0
174 197 0
176 198 0
174 197 0
175 198 0
174 197 0
174 197 0
175 198 0
173 197 0
174 197 0
175 198 0
174 198 0
174 198 0
174 198 0
174 197 0
175 198 0
175 198 0
174 197 0
174 198 0
174 197 0
173 197 0
174 197 0
174 197 0
174 197 0
176 198 0
175 198 0
172 196 0
176 199 0
174 198 0
174 197 0
175 198 0
173 197 0
175 198 0
174 198 0
174 197 0
173 197 0
175 198 0
175 198 0
173 197 0
174 197 0
175 198 0
175 198 0
175 198 0
175 198 0
175 198 0
175 198 0
177 199 0
174 197 0
175 198 0
174 198 0
174 198 0
176 198 0
175 198 0
175 198 0
174 197 0
173 197 0
175 198 0
173 197 0
175 198 0
174 198 0
173 197 0
174 198 0
174 197 0
175 198 0
175 198 0
174 198 0
175 198 0
173 197 0
174 197 0
174 197 0
175 198 0
174 198 0
174 198 0
174 198 0
174 198 0
176 199 0
174 198 0
177 199 0
175 198 0
174 198 0
175 198 0
175 198 0
174 198 0
174 198 0
174 198 0
174 198 0
176 199 0
175 198 0
174 197 0
175 198 0
173 197 0
175 198 0
175 198 0
175 198 0
175 198 0
173 197 0
174 197 0
175 198 0
173 197 0
175 198 0
174 197 0
175 198 0
175 198 0
176 199 0
175 198 0
176 199 0
174 198 0
175 198 0
174 198 0
176 198 0
174 197 0
174 198 0
173 197 0
173 197 0
175 198 0
174 198 0
173 197 0
175 198 0
175 198 0
174 198 0
173 197 0
175 198 0
173 197 0
174 198 0
175 198 0
176 198 0
174 197 0
174 198 0
175 198 0
173 197 0
174 198 0
175 198 25
179 201 57
176 199 51
175 198 25
177 199 44
176 199 44
178 201 67
178 201 57
179 201 72
177 200 51
183 204 88
179 201 67
182 203 84
180 202 80
183 204 99
180 202 80
187 207 111
189 209 122
182 203 92
183 204 95
182 204 95
185 206 108
193 212 144
190 210 135
190 209 130
191 211 137
191 210 135
194 213 151
194 213 149
190 210 133
193 212 142
199 216 163
198 216 161
194 213 147
199 216 165
204 220 184
203 219 175
205 221 186
205 221 189
204 221 184
204 220 182
203 220 184
203 220 181
204 221 184
203 220 182
207 222 191
209 224 201
210 225 203
210 225 204
215 229 218
213 228 214
217 231 224
216 230 223
218 232 228
216 230 223
216 230 221
218 232 227
224 236 245
220 233 234
222 234 240
221 234 238
221 234 236
222 235 240
221 234 236
223 235 242
225 237 249
226 237 249
228 239 255
227 239 254
227 239 254
227 239 253
228 239 255
228 239 255
228 239 255
228 239 255
228 239 255
228 239 255
228 239 255
228 239 255
228 239 255
227 239 255
227 239 255
228 239 255
227 239 255
227 239 255
227 239 255
227 239 255
227 239 255
227 239 255
227 239 255
227 239 255
227 239 255
227 239 255
227 239 255
227 239 255
227 239 255
227 239 255
227 239 255
227 239 255
228 239 255
227 239 255
227 239 255
228 239 255
228 239 255
227 239 255
228 239 255
227 239 255
228 239 255
228 239 255
228 239 255
228 239 255
228 239 255
228 239 255
228 239 255
227 238 253
227 239 254
227 239 254
226 238 250
227 238 253
227 239 254
224 236 245
224 236 244
223 236 244
223 235 241
220 233 234
221 234 236
216 230 221
221 234 237
217 231 224
220 233 234
215 229 220
215 229 218
215 229 221
218 231 226
215 229 218
214 228 215
215 229 217
209 224 199
212 227 212
210 225 203
212 226 211
210 225 204
208 224 199
207 223 196
204 221 184
204 220 184
195 214 155
205 221 186
201 218 171
198 215 157
196 215 159
198 216 161
201 218 175
198 216 165
188 208 128
192 211 137
194 213 149
192 211 137
191 210 137
189 209 125
191 211 140
189 209 125
188 208 120
187 208 120
186 207 114
188 208 117
184 205 105
184 205 102
187 208 120
186 206 105
180 202 76
183 204 95
178 201 72
179 201 67
179 201 67
181 202 76
182 203 84
179 201 57
180 202 72
176 199 36
177 200 51
175 198 36
176 199 51
173 197 25
174 198 25
174 198 0
175 198 25
176 198 0
175 198 0
175 198 0
174 198 0
174 198 0
175 198 0
173 197 0
174 198 0
175 198 0
177 199 0
174 197 0
176 199 0
173 197 0
173 197 0
174 198 0
174 198 0
174 198 0
174 198 0
175 198 0
174 197 0
176 198 0
175 198 0
174 198 0
176 199 0
176 199 0
174 198 0
176 199 0
175 198 0
174 198 0
175 198 0
175 198 0
174 198 0
174 197 0
175 198 0
175 198 0
175 198 0
175 198 0
174 198 0
175 198 0
173 197 0
175 198 0
175 198 0
175 198 0
175 198 0
175 198 0
174 198 0
173 197 0
175 198 0
176 199 0
174 197 0
174 198 0
175 198 0
174 197 0
175 198 0
174 198 0
174 198 0
174 198 0
176 199 0
175 198 0
174 198 0
174 198 0
174 198 0
175 198 0
176 199 0
174 198 0
174 198 0
175 198 0
174 197 0
173 197 0
174 198 0
175 198 0
175 198 0
174 198 0
175 198 0
173 197 0
173 197 0
175 198 0
174 197 0
174 198 0
174 198 0
174 198 0
175 198 0
173 197 0
175 198 0
175 198 0
175 198 0
172 197 0
176 198 0
175 198 0
175 198 0
174 197 0
173 197 0
174 197 0
173 197 0
173 197 0
175 198 0
176 199 0
173 197 0
174 197 0
174 198 0
174 198 0
173 197 0
174 198 0
173 197 0
175 198 0
174 198 0
174 198 0
175 198 0
174 198 0
175 198 0
174 198 0
174 197 0
175 198 0
175 198 0
175 198 0
175 198 0
175 198 0
174 198 0
175 198 0
175 198 0
174 197 0
175 198 0
174 197 0
173 197 0
174 197 0
174 197 0
175 198 0
175 198 0
174 197 0
175 198 0
174 198 0
175 198 0
174 198 0
175 198 0
173 197 0
175 198 0
172 196 0
174 198 0
174 197 0
175 198 0
176 199 0
175 198 0
175 198 0
176 199 0
175 198 0
173 197 0
175 198 0
175 198 0
174 197 0
174 197 0
175 198 0
175 198 0
175 198 0
175 198 0
175 198 0
174 198 0
173 197 0
174 198 0
176 198 0
176 199 0
173 197 0
174 198 0
175 198 0
175 198 0
175 198 0
174 197 0
174 198 0
174 197 0
175 198 0
174 197 0
176 198 0
174 197 0
175 198 0
175 198 0
175 198 0
175 198 0
173 197 0
174 198 0
172 197 0
175 198 0
174 198 0
175 198 0
174 198 0
175 198 0
173 197 0
176 199 0
174 198 0
174 197 0
174 198 0
174 197 0
175 198 0
175 198 0
174 198 0
174 198 0
175 198 0
175 198 0
175 198 0
174 198 0
174 198 0
175 198 0
172 197 0
175 198 0
173 197 0
174 198 0
173 197 0
176 198 0
174 198 0
172 197 0
175 198 0
173 197 0
175 198 0
174 198 0
175 198 0
174 197 0
174 198 0
175 198 0
176 199 25
176 199 0
175 198 25
175 199 25
175 199 44
177 200 51
174 198 0
177 200 51
177 200 44
178 200 51
177 200 51
176 199 51
183 204 88
181 203 84
178 200 51
182 204 99
181 203 80
183 204 99
180 202 67
184 205 99
185 206 111
186 206 108
185 206 105
187 207 117
190 210 133
192 211 144
192 211 140
188 208 122
188 208 128
189 209 128
192 211 140
188 208 128
201 218 173
196 214 155
194 212 147
201 218 175
202 219 175
202 219 173
193 212 147
200 217 169
202 219 179
200 217 169
205 221 189
206 222 188
210 225 204
208 223 194
209 224 198
211 226 207
206 222 194
210 225 203
215 229 220
212 226 207
214 228 214
215 229 217
213 228 215
215 229 220
222 234 240
219 232 230
216 229 220
220 233 233
221 234 236
219 232 230
225 237 249
222 235 238
224 236 245
225 237 249
223 236 244
224 236 244
224 236 244
226 238 249
226 238 250
228 239 254
228 239 255
228 239 255
228 239 255
228 239 255
228 239 255
228 239 255
228 239 255
227 239 255
228 239 255
228 239 255
227 239 255
227 239 255
227 239 255
227 239 255
227 239 255
227 239 255
227 239 255
227 239 255
227 239 255
227 239 255
227 239 255
227 239 255
228 239 255
228 239 255
227 239 255
228 239 255
228 239 255
228 239 255
228 239 255
228 239 255
228 239 255
228 239 255
228 239 255
228 239 255
227 239 254
227 238 253
227 238 252
227 238 252
226 238 250
226 238 250
228 239 255
225 237 248
225 237 246
221 234 236
223 236 244
221 234 236
220 233 231
219 232 231
219 232 230
218 231 227
217 230 224
218 231 224
219 232 228
218 231 227
215 229 220
214 228 217
219 232 230
206 222 191
207 223 194
212 227 209
207 223 193
203 220 181
208 223 193
206 222 188
201 218 173
206 222 191
205 221 186
199 217 165
207 222 191
194 213 151
195 214 153
193 212 149
199 217 167
203 219 177
194 212 142
196 215 157
191 210 135
188 208 120
191 210 130
188 208 122
191 211 137
188 208 117
191 210 128
186 206 111
189 209 122
188 208 120
184 205 102
181 203 76
184 205 99
184 205 108
181 202 80
181 203 84
179 201 72
180 202 76
181 203 84
180 202 67
178 201 57
180 202 67
178 200 36
177 200 57
176 199 51
175 198 25
174 198 0
175 198 0
176 199 36
174 197 0
174 198 0
175 198 0
174 198 0
175 198 0
174 198 0
173 197 0
175 198 0
174 198 0
176 198 0
175 198 0
176 198 0
173 197 0
175 198 0
174 198 0
174 198 0
175 198 0
173 197 0
173 197 0
174 198 0
172 196 0
174 197 0
175 198 0
174 198 0
175 198 0
175 198 0
177 199 0
176 198 0
176 199 0
176 198 0
173 197 0
173 197 0
176 198 0
174 198 0
174 198 0
173 197 0
175 198 0
174 198 0
174 198 0
174 198 0
174 198 0
175 198 0
174 198 0
175 198 0
174 197 0
174 198 0
176 199 0
175 198 0
175 198 0
174 198 0
174 198 0
174 198 0
174 198 0
173 197 0
175 198 0
175 198 0
173 197 0
174 198 0
176 199 0
175 198 0
173 197 0
173 197 0
176 199 0
175 198 0
175 198 0
174 198 0
175 198 0
174 198 0
174 198 0
174 198 0
174 198 0
174 197 0
174 198 0
176 199 0
174 198 0
174 198 0
176 199 0
173 197 0
174 197 0
173 197 0
172 196 0
174 197 0
173 197 0
174 198 0
175 198 0
174 197 0
174 197 0
174 197 0
174 197 0
174 197 0
176 199 0
175 198 0
176 199 0
173 197 0
174 198 0
174 197 0
175 198 0
175 198 0
176 198 0
174 198 0
175 198 0
175 198 0
175 198 0
172 196 0
175 198 0
175 198 0
176 199 0
174 198 0
174 197 0
173 197 0
175 198 0
173 197 0
176 198 0
174 198 0
175 198 0
174 198 0
175 198 0
172 196 0
176 198 0
174 198 0
174 197 0
174 198 0
174 198 0
175 198 0
172 196 0
175 198 0
174 198 0
173 197 0
175 198 0
174 198 0
176 199 0
173 197 0
173 197 0
175 198 0
175 198 0
173 197 0
174 198 0
172 197 0
173 197 0
176 199 0
175 198 0
173 197 0
176 198 0
173 197 0
173 196 0
174 198 0
174 198 0
175 198 0
174 197 0
175 198 0
174 198 0
174 198 0
175 197 0
174 198 0
174 198 0
172 197 0
173 197 0
175 198 0
174 198 0
174 197 0
175 198 0
176 198 0
174 197 0
175 198 0
174 198 0
174 198 0
175 198 0
174 197 0
174 198 0
175 198 0
176 198 0
174 198 0
173 197 0
175 198 0
175 198 0
174 198 0
173 197 0
174 197 0
175 198 0
175 198 0
175 198 0
174 198 0
173 197 0
173 197 0
174 198 0
173 197 0
176 199 0
175 198 0
174 197 0
173 197 0
174 198 0
176 199 0
174 198 0
175 198 0
173 197 0
175 198 0
174 197 0
175 198 0
173 197 0
175 198 0
174 198 0
175 198 0
173 197 0
174 197 0
176 199 0
175 198 0
174 198 0
174 198 0
174 198 0
174 198 0
175 198 0
175 198 0
175 198 0
176 199 0
175 198 0
174 197 0
174 197 0
174 198 0
176 199 0
173 197 0
172 197 0
174 198 0
175 198 0
175 198 0
174 197 0
175 198 0
175 198 0
175 198 0
175 198 25
175 198 25
175 198 25
174 198 0
172 197 0
176 199 44
176 199 25
178 200 57
176 199 44
179 201 62
179 201 72
179 201 67
184 205 95
182 204 92
180 202 72
183 204 92
182 203 92
185 206 108
180 202 76
184 205 102
187 207 111
186 207 120
186 207 114
187 208 120
189 209 128
193 212 142
189 209 133
187 207 114
195 213 147
190 210 128
190 210 130
193 212 142
200 218 171
196 214 157
195 213 147
201 218 173
200 217 163
196 214 155
199 216 163
203 219 179
204 220 184
206 222 191
204 220 181
200 218 173
200 218 175
202 219 177
207 223 194
209 224 199
206 222 191
214 228 212
213 227 209
211 226 206
213 227 214
217 231 224
219 232 230
219 232 228
217 231 226
218 231 226
222 234 238
221 234 236
218 232 228
218 231 227
221 234 236
224 236 244
223 236 242
226 237 249
225 237 249
224 236 244
227 239 253
227 239 253
228 239 255
227 239 254
227 239 254
228 239 255
228 239 255
228 239 255
228 239 255
228 239 255
228 239 255
228 239 255
228 239 255
228 239 255
227 239 255
228 239 255
228 239 255
227 239 255
228 239 255
228 239 255
228 239 255
228 239 255
228 239 255
228 239 255
228 239 255
228 239 255
228 239 255
228 239 255
227 239 254
228 239 255
227 239 254
227 239 254
227 239 254
226 237 249
224 236 245
225 237 249
224 236 245
223 236 244
221 233 234
223 235 241
220 233 233
219 232 228
221 234 236
221 234 237
219 232 230
220 233 233
214 228 214
217 230 224
215 229 220
214 228 217
211 226 206
213 227 212
209 224 201
208 224 196
208 223 194
208 223 193
209 224 201
205 221 188
209 224 199
207 222 186
202 218 171
197 215 161
196 214 155
203 219 179
200 217 169
199 217 167
199 216 165
190 210 133
197 215 155
198 216 161
196 214 153
192 211 140
189 209 125
191 210 130
189 209 125
190 209 130
185 206 108
190 209 128
184 205 105
187 207 117
182 204 88
184 205 99
182 204 92
186 206 108
181 203 92
180 202 76
181 203 88
181 203 84
178 201 72
181 203 72
178 201 57
179 200 36
179 201 62
178 200 51
176 199 57
178 200 57
175 198 0
175 198 0
175 198 0
174 198 0
173 197 0
174 198 0
176 199 0
175 198 0
174 198 0
176 199 0
174 198 0
176 199 0
175 198 0
174 198 0
174 198 0
175 198 0
174 198 0
174 197 0
176 198 0
174 198 0
174 198 0
174 198 0
175 198 0
174 197 0
174 197 0
175 198 0
174 197 0
173 197 0
175 198 0
174 197 0
174 197 0
174 198 0
174 198 0
174 198 0
175 198 0
174 198 0
176 199 0
174 198 0
175 198 0
174 197 0
175 198 0
174 198 0
175 198 0
176 199 0
174 198 0
173 197 0
174 197 0
175 198 0
175 198 0
175 198 0
172 196 0
175 198 0
174 197 0
174 198 0
174 198 0
175 198 0
173 197 0
175 198 0
172 197 0
174 197 0
174 198 0
173 197 0
174 198 0
174 198 0
174 197 0
175 198 0
176 199 0
173 197 0
173 197 0
175 198 0
174 198 0
174 198 0
174 198 0
174 198 0
174 198 0
174 198 0
173 197 0
175 198 0
174 198 0
175 198 0
174 198 0
176 199 0
175 198 0
175 198 0
174 198 0
175 198 0
176 198 0
174 197 0
174 198 0
174 198 0
174 198 0
174 198 0
175 198 0
173 197 0
173 197 0
174 197 0
174 198 0
174 197 0
174 198 0
173 197 0
175 198 0
175 198 0
175 198 0
176 198 0
173 197 0
174 198 0
174 197 0
174 197 0
171 196 0
174 198 0
175 198 0
174 197 0
175 198 0
173 197 0
175 198 0
175 198 0
174 197 0
174 197 0
174 198 0
174 197 0
174 198 0
174 197 0
176 198 0
174 197 0
174 197 0
174 198 0
176 198 0
175 198 0
174 198 0
175 198 0
173 197 0
174 197 0
172 196 0
175 198 0
174 198 0
173 197 0
174 198 0
175 198 0
174 197 0
174 198 0
175 198 0
174 198 0
175 198 0
173 197 0
174 197 0
175 198 0
174 198 0
175 198 0
175 198 0
176 199 0
174 197 0
175 198 0
177 199 0
173 197 0
174 198 0
174 197 0
175 198 0
175 198 0
173 197 0
173 197 0
174 198 0
174 198 0
175 198 0
175 198 0
174 198 0
173 197 0
172 197 0
175 198 0
176 198 0
173 197 0
174 197 0
173 197 0
175 198 0
173 197 0
173 197 0
174 198 0
174 198 0
175 198 0
175 198 0
174 198 0
174 198 0
174 198 0
175 198 0
173 197 0
175 198 0
174 198 0
174 197 0
174 198 0
174 198 0
174 198 0
174 197 0
175 198 0
173 197 0
175 198 0
174 198 0
174 198 0
176 198 0
174 198 0
176 198 0
175 198 0
175 198 0
174 198 0
173 197 0
172 197 0
174 197 0
174 198 0
174 198 0
175 198 0
175 198 0
175 198 0
174 197 0
173 197 0
174 198 0
175 198 0
173 197 0
174 198 0
174 198 0
175 198 0
174 198 0
175 198 0
173 197 0
175 198 0
176 199 0
175 198 0
175 198 0
175 198 0
176 198 0
174 198 0
173 197 0
174 198 0
175 198 0
176 199 0
175 198 0
173 197 0
175 198 0
176 199 0
174 197 0
174 198 0
175 198 0
176 199 0
174 197 0
175 198 0
175 198 0
177 200 25
175 198 25
175 199 36
175 198 0
175 198 25
175 199 44
176 199 44
181 202 72
179 201 62
178 200 57
179 201 72
179 201 72
179 201 67
180 202 80
181 203 84
182 203 88
188 208 120
188 208 122
183 204 95
186 206 108
182 204 99
187 207 114
193 212 142
190 209 128
185 206 111
190 210 130
188 208 122
193 212 144
190 210 135
193 212 142
192 211 142
200 217 167
196 214 155
199 216 165
198 216 165
196 214 157
198 216 165
201 218 171
201 218 171
204 220 182
204 221 182
209 224 198
205 221 189
203 219 179
208 223 194
210 225 199
216 230 221
213 228 214
216 230 221
214 228 215
210 225 206
220 233 233
218 231 227
217 230 223
217 231 223
219 232 231
219 232 228
223 235 242
223 235 241
224 236 244
221 234 237
223 235 241
223 236 242
225 237 246
223 236 244
226 238 250
227 239 253
224 237 246
227 239 254
228 239 255
228 239 254
228 239 255
228 239 255
228 239 255
228 239 255
228 239 255
228 239 255
227 239 255
228 239 255
228 239 255
228 239 255
228 239 255
228 239 255
228 239 255
228 239 255
227 239 253
227 239 254
226 238 252
226 238 250
227 239 254
225 237 248
224 236 244
226 237 248
222 235 241
222 235 240
220 233 234
222 235 238
222 234 238
223 235 241
222 234 237
218 231 227
220 233 231
216 230 223
218 232 228
216 229 220
218 231 226
211 226 207
214 228 215
215 229 220
209 225 201
213 227 212
210 225 201
208 223 194
208 223 194
208 223 198
203 220 184
204 221 186
200 217 171
202 219 177
201 218 179
205 221 189
198 215 157
193 212 144
191 211 137
194 213 147
193 212 144
197 215 155
192 211 137
190 210 133
189 209 128
194 213 147
187 207 117
187 207 117
186 206 108
185 206 105
189 209 122
180 202 80
185 206 108
181 203 84
181 203 92
183 204 95
181 203 88
185 205 99
178 200 62
179 201 67
178 200 57
179 201 62
178 200 51
177 200 44
176 199 44
178 200 51
177 200 51
175 198 0
173 197 0
175 198 0
175 198 0
174 198 0
174 198 0
174 198 0
174 198 0
174 198 0
175 198 0
174 197 0
174 198 0
174 197 0
173 197 0
176 198 0
175 198 0
174 198 0
175 198 0
174 198 0
175 198 0
174 198 0
174 198 0
174 198 0
175 198 0
174 197 0
173 197 0
174 198 0
175 198 0
175 198 0
176 199 0
174 198 0
173 197 0
175 198 0
175 198 0
174 197 0
177 199 0
173 197 0
174 197 0
175 198 0
174 198 0
174 198 0
175 198 0
174 198 0
174 198 0
175 198 0
174 198 0
175 198 0
173 197 0
175 198 0
175 198 0
175 198 0
175 198 0
175 198 0
175 198 0
175 198 0
174 198 0
174 197 0
174 197 0
173 197 0
173 197 0
174 197 0
174 197 0
174 198 0
175 198 0
174 198 0
175 198 0
173 197 0
175 198 0
174 198 0
174 198 0
174 198 0
175 198 0
175 198 0
175 198 0
173 197 0
174 198 0
174 198 0
173 197 0
175 198 0
176 199 0
174 198 0
173 197 0
173 197 0
175 198 0
174 198 0
176 199 0
173 197 0
174 198 0
173 197 0
175 198 0
175 198 0
175 198 0
174 197 0
174 198 0
174 198 0
175 198 0
175 198 0
173 196 0
175 198 0
177 199 0
175 198 0
175 198 0
176 199 0
174 198 0
173 197 0
175 198 0
175 198 0
175 198 0
173 197 0
175 198 0
175 197 0
174 197 0
176 199 0
176 199 0
174 198 0
175 198 0
174 197 0
175 198 0
174 197 0
174 198 0
173 197 0
176 198 0
175 198 0
174 198 0
174 197 0
175 198 0
174 198 0
174 197 0
174 197 0
174 197 0
175 198 0
176 198 0
172 197 0
173 196 0
174 198 0
174 198 0
175 198 0
174 197 0
174 198 0
174 198 0
173 196 0
173 197 0
174 198 0
173 197 0
173 196 0
174 197 0
175 198 0
174 197 0
173 197 0
174 198 0
175 198 0
174 197 0
175 198 0
175 198 0
173 197 0
174 198 0
175 198 0
175 198 0
173 197 0
175 198 0
174 198 0
175 198 0
173 197 0
175 198 0
174 198 0
175 198 0
175 198 0
175 198 0
177 199 0
175 198 0
176 199 0
174 198 0
175 198 0
175 198 0
174 198 0
175 198 0
174 197 0
174 197 0
174 197 0
174 197 0
174 198 0
174 197 0
173 197 0
172 197 0
176 199 0
172 197 0
174 198 0
173 197 0
174 198 0
174 198 0
173 197 0
175 198 0
174 198 0
175 198 0
175 198 0
175 198 0
175 198 0
174 198 0
174 197 0
174 198 0
174 198 0
175 198 0
175 198 0
175 198 0
176 198 0
175 198 0
174 197 0
174 198 0
176 198 0
173 197 0
175 198 0
175 198 0
175 198 0
174 198 0
175 198 0
175 198 0
175 198 0
174 198 0
175 198 0
174 198 0
172 197 0
173 197 0
174 198 0
174 198 0
174 198 0
174 197 0
176 199 0
175 198 0
175 198 0
173 197 0
173 197 0
174 198 0
175 198 0
174 197 0
174 198 0
175 198 0
174 198 0
174 198 0
176 199 0
173 197 0
174 198 0
177 199 0
175 198 0
176 199 0
176 199 0
175 198 0
174 198 0
174 198 0
174 198 0
175 198 0
174 198 0
175 198 0
174 197 0
174 198 25
174 198 0
176 199 0
175 198 25
175 198 25
178 200 51
178 200 51
177 200 51
179 201 57
177 200 51
182 203 84
179 201 72
180 202 72
183 204 95
180 202 80
181 203 88
184 205 102
184 205 102
185 206 111
187 207 108
188 208 120
191 210 135
185 206 111
188 208 125
190 209 133
192 211 140
194 213 147
193 212 142
196 214 153
197 215 159
198 215 159
199 217 169
199 216 163
193 212 142
200 217 171
198 216 161
197 215 159
200 218 171
205 221 184
205 221 188
203 220 181
209 224 201
212 227 211
209 224 199
206 222 193
211 226 206
210 225 204
215 229 220
213 227 212
212 227 211
216 230 223
218 231 226
215 229 217
218 231 227
214 228 217
220 233 236
219 232 231
222 235 240
223 235 242
223 235 241
224 236 244
226 238 249
225 237 248
224 236 245
225 237 249
227 239 253
226 238 252
227 239 254
227 239 254
228 239 255
227 239 254
228 239 255
228 239 255
228 239 255
228 239 255
227 239 254
228 239 255
227 239 254
227 239 253
227 238 252
225 237 249
225 237 249
225 237 248
224 236 245
225 237 248
224 236 244
221 234 237
218 232 227
220 233 233
220 233 234
221 234 237
216 230 220
219 233 233
219 232 228
214 228 215
212 227 207
212 226 209
214 228 215
208 224 199
209 224 199
211 225 204
211 226 204
209 225 201
205 221 186
203 220 181
209 224 199
205 221 184
202 219 177
205 221 184
204 220 179
201 218 173
200 217 169
201 218 171
200 218 173
198 215 155
194 213 147
191 210 135
188 208 122
195 213 147
193 212 142
194 212 144
187 207 117
188 208 120
189 209 130
187 207 111
184 205 99
184 205 99
186 206 108
183 204 95
183 204 88
184 205 95
183 204 92
180 202 72
179 201 62
177 200 51
178 200 57
176 199 44
176 199 36
176 199 51
174 198 25
178 200 51
176 199 25
174 198 25
175 198 0
175 198 25
175 198 0
175 198 0
175 198 0
173 197 0
174 198 0
174 198 0
175 198 0
175 198 0
175 198 0
176 199 0
175 198 0
175 198 0
176 199 0
174 198 0
174 198 0
175 198 0
175 198 0
172 197 0
174 197 0
174 198 0
175 198 0
174 198 0
174 197 0
175 198 0
174 197 0
175 198 0
175 198 0
175 198 0
175 198 0
175 198 0
175 198 0
174 198 0
174 198 0
175 198 0
174 198 0
173 197 0
175 198 0
174 198 0
176 199 0
175 198 0
175 198 0
175 198 0
175 198 0
175 198 0
173 197 0
174 197 0
175 198 0
175 198 0
173 197 0
175 198 0
175 198 0
173 197 0
175 198 0
175 198 0
174 198 0
175 198 0
173 197 0
175 198 0
175 198 0
174 198 0
175 198 0
175 198 0
175 198 0
174 198 0
174 198 0
173 197 0
172 197 0
176 199 0
173 197 0
174 198 0
176 198 0
174 198 0
175 198 0
175 198 0
174 198 0
174 198 0
174 198 0
175 198 0
176 198 0
174 198 0
174 198 0
175 198 0
175 198 0
174 198 0
173 197 0
174 198 0
174 198 0
177 199 0
174 198 0
174 198 0
175 198 0
173 197 0
174 198 0
174 197 0
175 198 0
174 197 0
176 199 0
174 197 0
176 199 0
173 197 0
174 198 0
175 198 0
175 198 0
175 198 0
174 197 0
175 198 0
174 198 0
175 198 0
174 198 0
174 197 0
176 199 0
174 198 0
173 197 0
174 198 0
174 198 0
173 197 0
174 197 0
175 198 0
176 198 0
175 198 0
174 198 0
175 198 0
175 198 0
175 198 0
174 197 0
174 197 0
175 197 0
175 198 0
174 197 0
174 197 0
174 197 0
173 196 0
174 197 0
174 198 0
173 196 0
173 197 0
173 197 0
175 198 0
175 198 0
174 197 0
173 196 0
175 198 0
175 198 0
174 197 0
174 197 0
176 199 0
172 196 0
174 197 0
174 197 0
174 198 0
174 198 0
176 199 0
172 196 0
173 197 0
173 196 0
173 196 0
174 198 0
176 198 0
174 197 0
173 197 0
175 198 0
172 196 0
173 197 0
174 197 0
174 198 0
174 197 0
176 198 0
173 197 0
175 198 0
176 198 0
172 196 0
175 198 0
175 198 0
175 198 0
174 198 0
175 198 0
173 197 0
175 198 0
174 197 0
175 198 0
174 198 0
174 197 0
174 198 0
175 198 0
174 198 0
174 198 0
175 198 0
175 198 0
174 198 0
175 198 0
173 197 0
176 198 0
174 198 0
176 199 0
173 197 0
175 198 0
174 197 0
174 198 0
174 198 0
174 198 0
177 199 0
174 198 0
174 198 0
176 199 0
174 198 0
173 197 0
176 199 0
174 197 0
175 198 0
174 198 0
174 197 0
174 198 0
175 198 0
174 198 0
175 198 0
173 197 0
175 198 0
175 198 0
174 197 0
174 198 0
175 198 0
175 198 0
173 197 0
175 198 0
173 197 0
174 197 0
176 199 0
172 196 0
172 197 0
174 198 0
173 197 0
175 198 0
175 198 0
176 198 0
175 198 0
174 198 0
175 198 0
174 197 0
175 198 0
174 198 0
174 198 0
174 198 0
174 197 0
176 199 0
175 198 0
175 198 0
174 198 0
175 198 0
174 198 0
174 198 0
176 199 0
174 198 0
173 197 0
174 197 0
174 198 0
173 197 0
175 198 0
173 197 0
174 197 0
174 198 0
175 198 0
174 198 0
176 199 0
174 198 25
176 199 36
176 199 36
178 200 51
178 200 67
178 201 67
181 202 76
177 200 62
183 204 99
179 201 67
184 205 99
184 205 102
181 203 84
187 208 125
185 206 105
184 205 102
188 208 120
189 208 120
184 205 108
185 206 114
191 210 135
192 211 140
193 212 142
194 212 147
191 210 137
195 213 151
194 213 147
194 213 149
193 212 147
196 214 153
201 218 171
199 216 163
195 213 153
200 217 169
200 217 169
207 223 193
202 219 181
209 224 196
202 219 179
207 223 191
207 222 193
212 226 209
211 226 206
213 228 214
217 231 224
213 228 215
210 225 203
214 228 214
218 231 226
214 228 215
219 232 230
220 233 233
221 233 234
220 233 233
225 237 248
220 233 234
224 236 245
224 236 244
224 236 244
225 237 246
227 238 253
227 239 254
227 239 254
226 238 250
228 239 255
228 239 255
228 239 255
228 239 255
226 238 252
227 239 253
226 238 249
225 237 246
224 236 244
224 236 245
224 236 242
221 233 234
223 235 241
222 234 238
218 231 227
213 228 215
214 228 217
216 230 224
218 232 228
220 233 233
211 226 207
215 229 218
213 228 214
214 228 214
210 225 203
207 223 193
208 223 196
205 221 186
206 222 189
207 223 193
204 220 182
203 219 181
205 221 186
200 217 169
199 217 169
199 216 165
197 215 157
194 213 149
201 218 173
194 213 144
187 207 111
194 213 151
197 215 163
193 212 142
187 207 108
194 212 142
187 207 120
187 207 111
185 206 105
186 206 105
187 207 111
184 205 105
185 206 105
185 205 102
181 202 76
180 202 84
179 201 72
176 199 51
180 202 72
179 201 62
179 201 57
177 200 51
176 199 36
175 198 36
175 198 25
174 198 25
174 198 0
175 198 0
175 198 0
175 198 0
175 198 0
174 198 0
174 197 0
173 197 0
175 198 0
175 198 0
175 198 0
174 198 0
175 198 0
173 197 0
173 197 0
176 199 0
173 197 0
176 198 0
175 198 0
174 198 0
174 197 0
174 197 0
176 199 0
173 197 0
174 198 0
176 199 0
174 198 0
175 198 0
175 198 0
175 198 0
175 198 0
174 198 0
174 198 0
175 198 0
174 197 0
176 198 0
174 198 0
174 198 0
175 198 0
174 198 0
175 198 0
174 198 0
173 197 0
175 198 0
175 198 0
175 198 0
175 198 0
173 197 0
175 198 0
175 198 0
174 198 0
175 198 0
174 197 0
174 198 0
174 198 0
174 198 0
174 198 0
174 197 0
175 198 0
175 198 0
172 197 0
174 197 0
174 197 0
176 199 0
174 198 0
175 198 0
175 197 0
176 199 0
174 197 0
174 198 0
174 198 0
174 197 0
174 198 0
176 199 0
175 198 0
176 198 0
173 197 0
174 197 0
175 198 0
175 198 0
175 198 0
175 198 0
173 197 0
176 198 0
177 199 0
174 198 0
174 197 0
174 198 0
174 198 0
175 198 0
174 197 0
174 197 0
173 197 0
174 198 0
175 198 0
174 197 0
175 198 0
175 198 0
174 198 0
175 198 0
174 197 0
173 196 0
175 198 0
174 198 0
173 197 0
174 197 0
174 198 0
174 198 0
174 197 0
175 198 0
174 198 0
175 198 0
173 197 0
175 198 0
175 198 0
173 197 0
173 197 0
175 198 0
174 197 0
175 198 0
174 197 0
174 197 0
174 198 0
174 198 0
173 197 0
172 196 0
175 198 0
175 198 0
174 197 0
173 197 0
174 197 0
172 196 0
175 198 0
174 198 0
174 197 0
175 198 0
174 197 0
174 197 0
174 197 0
175 198 0
174 197 0
173 197 0
174 197 0
175 198 0
175 198 0
174 197 0
172 197 0
173 196 0
174 197 0
174 197 0
175 198 0
175 198 0
174 198 0
175 198 0
173 197 0
173 195 11
174 197 16
176 199 11
175 197 11
174 197 0
174 198 0
176 199 0
173 197 0
173 197 0
174 197 0
175 198 0
175 198 0
175 198 0
174 198 0
175 198 0
174 197 0
173 197 0
174 198 0
175 198 0
175 198 0
175 198 0
174 197 0
176 198 0
174 198 0
174 197 0
175 198 0
174 198 0
174 198 0
173 197 0
175 198 0
175 198 0
176 199 0
177 199 0
173 196 0
174 197 0
177 199 0
174 198 0
174 198 0
174 197 0
172 196 0
175 198 0
174 198 0
174 197 0
174 198 0
175 198 0
175 198 0
175 198 0
174 197 0
173 197 0
174 197 0
174 198 0
175 198 0
174 197 0
175 198 0
174 198 0
173 197 0
175 198 0
173 197 0
176 199 0
175 198 0
173 196 0
175 198 0
175 198 0
175 198 0
174 198 0
175 198 0
176 199 0
174 198 0
175 198 0
175 198 0
173 197 0
175 198 0
177 199 0
175 198 0
175 198 0
175 198 0
173 197 0
173 197 0
174 198 0
176 198 0
174 198 0
175 198 0
176 199 0
175 198 0
174 197 0
174 198 0
176 198 0
174 198 0
174 197 0
176 199 0
175 198 0
175 198 0
175 198 0
175 198 0
173 197 0
174 198 0
175 198 0
173 197 0
175 198 0
174 198 0
175 198 0
174 198 0
174 198 0
175 198 0
173 197 0
174 198 0
176 199 0
174 198 0
175 198 0
174 198 0
175 198 0
173 197 0
176 199 0
174 198 0
174 198 0
175 198 0
175 198 0
175 198 0
175 198 0
175 198 25
175 198 0
176 199 25
175 198 25
176 199 36
178 201 57
179 201 67
177 200 57
180 202 67
180 202 67
183 204 88
177 200 72
182 203 80
182 203 88
186 207 111
182 203 84
186 206 111
185 205 95
185 206 111
183 204 92
186 207 117
187 208 128
192 211 140
197 215 155
191 211 135
199 216 163
198 216 163
195 213 151
196 214 153
196 214 155
198 216 163
203 220 182
198 216 165
202 219 179
204 220 186
201 218 175
206 222 189
205 221 186
204 220 184
202 219 179
212 227 211
207 223 194
210 225 204
213 227 211
214 228 215
213 228 215
216 229 220
214 228 214
217 231 226
217 230 223
215 229 220
220 233 233
220 233 234
222 235 238
224 236 244
225 237 246
223 236 242
226 238 249
224 236 245
227 238 252
225 237 248
227 239 253
226 238 250
221 234 237
223 235 241
225 237 246
221 233 233
219 233 231
223 236 242
221 234 237
218 231 226
218 231 228
216 230 221
217 230 223
213 227 211
216 230 220
212 226 207
214 229 217
209 224 199
214 228 217
209 224 196
211 226 207
207 222 194
205 221 184
206 222 188
203 219 179
201 218 175
205 221 188
203 220 181
200 217 165
199 217 165
204 221 186
200 217 169
198 216 163
196 214 151
192 211 140
190 210 130
195 213 147
191 210 140
187 208 120
188 208 120
196 214 155
188 208 120
185 206 102
185 206 111
187 207 120
186 206 105
184 205 105
184 205 99
178 201 72
182 203 76
176 199 51
176 199 36
180 202 80
177 200 51
177 200 36
176 199 44
176 199 44
177 199 44
175 198 25
175 198 25
174 198 0
174 197 0
174 197 0
173 197 0
176 198 0
174 198 0
173 197 0
174 197 0
174 198 0
175 198 0
174 198 0
175 198 0
176 198 0
173 197 0
175 198 0
174 197 0
174 197 0
173 197 0
174 198 0
175 198 0
174 198 0
175 198 0
174 197 0
174 198 0
174 197 0
174 198 0
172 197 0
175 198 0
175 198 0
175 198 0
174 197 0
175 198 0
175 198 0
175 198 0
172 196 0
175 198 0
174 198 0
173 197 0
173 197 0
175 198 0
175 198 0
173 197 0
174 198 0
174 197 0
174 198 0
175 198 0
176 199 0
175 198 0
175 198 0
174 198 0
177 199 0
174 198 0
175 198 0
176 198 0
174 198 0
174 198 0
175 198 0
173 197 0
175 198 0
174 198 0
173 197 0
174 197 0
175 198 0
174 198 0
175 198 0
174 198 0
172 197 0
176 198 0
174 198 0
175 198 0
175 198 0
175 198 0
176 199 0
175 198 0
174 198 0
173 197 0
173 197 0
174 198 0
173 197 0
175 198 0
174 197 0
175 198 0
174 198 0
175 198 0
176 199 0
175 198 0
174 198 0
175 198 0
175 198 0
172 197 0
174 197 0
175 198 0
173 196 0
174 197 0
174 198 0
173 197 0
175 198 0
175 198 0
174 198 0
174 198 0
175 198 0
172 196 0
174 198 0
177 199 0
174 198 0
174 197 0
173 196 0
176 199 0
173 197 0
175 198 0
176 199 0
175 198 0
174 198 0
174 198 0
174 198 0
177 199 0
174 198 0
173 197 0
175 198 0
173 197 0
173 196 0
173 196 0
175 198 0
175 197 0
173 197 0
173 197 0
175 198 0
174 197 0
176 199 0
174 198 0
174 198 0
174 198 0
174 197 0
174 197 0
173 197 0
175 198 0
176 199 0
175 198 0
173 197 0
170 195 0
175 198 0
173 197 0
173 196 0
174 198 0
175 198 0
175 198 0
173 197 0
173 197 0
173 196 0
175 198 0
174 198 0
174 197 0
173 197 0
174 197 0
175 198 0
173 197 0
174 197 11
175 197 19
171 190 36
172 188 42
167 178 46
171 182 54
166 178 47
171 187 43
170 184 44
170 188 38
174 195 25
175 198 0
175 197 5
175 198 0
174 197 0
175 198 0
174 198 0
174 198 0
173 197 0
173 197 0
175 198 0
175 198 0
174 197 0
174 197 0
174 198 0
174 198 0
174 198 0
173 197 0
175 198 0
174 197 0
173 197 0
175 198 0
175 198 0
174 197 0
176 198 0
173 197 0
175 198 0
174 198 0
176 198 0
174 197 0
174 197 0
173 197 0
174 198 0
174 198 0
175 198 0
175 198 0
174 198 0
175 198 0
174 197 0
175 198 0
174 198 0
174 197 0
174 197 0
174 198 0
175 198 0
174 198 0
174 198 0
175 198 0
174 197 0
174 197 0
173 197 0
175 198 0
172 197 0
174 198 0
176 199 0
177 199 0
174 197 0
174 198 0
175 198 0
174 197 0
175 198 0
174 197 0
174 197 0
174 198 0
174 197 0
174 198 0
176 198 0
175 198 0
174 198 0
175 198 0
175 198 0
174 198 0
174 198 0
175 198 0
173 197 0
174 197 0
174 197 0
175 198 0
174 198 0
174 198 0
174 198 0
175 198 0
175 198 0
174 198 0
174 197 0
175 198 0
175 198 0
175 198 0
175 198 0
174 198 0
175 198 0
176 198 0
176 198 0
173 197 0
174 198 0
175 198 0
175 198 0
174 198 0
175 198 0
175 198 0
172 197 0
174 198 0
174 197 0
175 198 0
174 198 0
173 197 0
174 198 0
173 197 0
175 198 0
174 198 0
175 198 0
175 198 0
174 198 0
175 198 0
173 197 0
174 198 0
175 198 25
175 198 0
173 197 0
174 198 25
174 198 25
176 199 36
177 200 51
179 201 67
178 200 57
177 200 57
180 202 80
178 201 62
179 201 72
179 202 80
182 204 95
184 205 99
180 203 88
187 207 114
182 203 88
187 207 117
185 206 111
192 211 140
190 209 128
189 209 125
191 210 133
193 212 144
192 211 142
193 212 142
196 214 155
195 213 151
195 213 149
198 215 161
200 217 169
197 214 153
203 219 175
198 216 161
208 224 196
204 220 184
204 221 184
210 225 204
205 221 188
211 226 206
209 224 198
212 226 206
213 227 214
213 227 209
212 226 207
213 227 212
218 231 227
217 230 223
217 230 223
215 229 220
218 231 228
224 236 245
220 233 234
221 234 236
220 233 233
221 234 238
224 236 244
224 236 245
221 234 237
223 235 242
219 232 231
220 233 233
217 230 223
218 232 230
214 228 215
213 227 211
214 228 211
214 228 217
211 226 204
212 227 209
213 227 209
214 228 215
205 221 188
209 224 199
207 223 193
206 222 191
209 224 199
205 221 188
199 216 163
202 219 177
199 216 167
197 215 157
196 214 159
193 212 142
195 213 149
194 213 147
194 213 147
188 208 125
194 213 151
192 211 137
189 209 130
187 207 114
184 205 105
189 209 128
184 205 102
186 206 111
182 204 95
184 205 105
185 205 102
183 205 105
181 203 80
177 200 57
179 201 67
180 202 84
178 201 62
178 200 57
177 200 62
175 199 36
176 199 25
177 199 25
174 198 0
174 198 0
175 198 25
175 198 0
172 197 0
174 197 0
174 198 0
173 197 0
173 197 0
174 198 0
175 198 0
175 198 0
174 198 0
173 197 0
175 198 0
173 197 0
173 197 0
175 198 0
176 198 0
175 198 0
174 197 0
174 198 0
176 198 0
175 198 0
174 198 0
173 197 0
174 198 0
173 197 0
175 198 0
175 198 0
175 198 0
174 198 0
176 199 0
175 198 0
174 198 0
174 198 0
174 198 0
174 198 0
174 198 0
175 198 0
173 197 0
175 198 0
175 198 0
175 198 0
175 198 0
175 198 0
173 197 0
175 198 0
175 198 0
173 197 0
175 198 0
175 198 0
175 198 0
174 197 0
175 198 0
173 197 0
172 197 0
175 198 0
174 198 0
175 198 0
175 198 0
174 197 0
175 198 0
176 198 0
175 198 0
175 198 0
175 198 0
172 196 0
174 198 0
174 197 0
175 198 0
176 199 0
174 198 0
175 198 0
174 198 0
175 198 0
174 197 0
174 197 0
174 197 0
173 197 0
174 197 0
175 198 0
174 197 0
175 198 0
174 198 0
176 198 0
174 198 0
174 198 0
174 197 0
175 198 0
173 197 0
176 198 0
176 199 0
174 198 0
174 198 0
174 197 0
174 198 0
175 198 0
175 198 0
177 199 0
175 198 0
175 198 0
175 198 0
175 198 0
172 197 0
174 197 0
173 197 0
173 197 0
174 197 0
174 198 0
174 198 0
175 198 0
174 198 0
175 198 0
173 197 0
174 197 0
173 197 0
174 198 0
174 197 0
174 197 0
174 198 0
176 198 0
174 197 0
172 196 0
174 197 0
173 197 0
175 198 0
175 198 0
173 196 0
174 198 0
175 198 0
172 195 0
174 197 0
173 197 0
173 196 0
173 197 0
174 197 0
174 197 0
172 196 0
175 198 0
175 198 0
175 198 0
172 196 0
174 197 0
172 196 0
173 197 0
173 197 0
176 198 0
176 199 0
175 198 0
174 197 0
173 197 0
174 198 0
171 195 0
174 197 0
175 197 0
171 195 0
174 197 0
172 197 0
173 197 0
172 194 19
172 192 28
172 188 42
173 182 67
162 165 62
166 166 76
167 169 78
167 166 80
165 161 79
164 157 78
162 160 81
169 172 73
164 172 58
168 178 54
172 189 40
171 194 19
174 198 0
172 196 0
175 198 0
173 197 0
175 198 0
174 198 0
175 198 0
173 197 0
176 198 0
176 199 0
174 198 0
174 198 0
174 198 0
176 198 0
175 197 0
175 198 0
175 198 0
175 198 0
174 197 0
175 198 0
173 197 0
174 198 0
175 198 0
175 198 0
174 198 0
174 198 0
174 198 0
174 198 0
175 198 0
173 197 0
173 197 0
174 197 0
175 198 0
176 199 0
175 198 0
174 198 0
174 198 0
175 198 0
175 198 0
174 197 0
174 197 0
174 198 0
175 198 0
174 197 0
173 197 0
174 197 0
175 197 0
175 198 0
176 198 0
174 198 0
175 198 0
175 198 0
175 198 0
173 197 0
174 197 0
175 198 0
174 198 0
174 198 0
175 198 0
174 198 0
174 198 0
174 198 0
176 199 0
174 198 0
174 197 0
176 199 0
175 198 0
174 198 0
176 199 0
174 198 0
172 197 0
176 199 0
175 198 0
174 197 0
175 198 0
174 198 0
175 198 0
176 199 0
175 198 0
175 198 0
176 199 0
174 198 0
174 197 0
176 199 0
175 198 0
176 199 0
176 198 0
173 197 0
175 198 0
175 198 0
175 198 0
173 197 0
174 197 0
173 197 0
174 198 0
175 198 0
174 198 0
174 197 0
174 198 0
175 198 0
174 198 0
175 198 0
174 197 0
175 198 0
174 198 0
174 197 0
175 198 0
174 198 0
175 198 0
174 198 0
174 198 0
173 197 0
174 198 0
173 197 0
173 197 0
174 198 0
174 198 0
175 198 0
175 198 0
175 198 25
173 197 0
172 197 0
176 199 44
175 198 36
178 200 44
181 203 76
177 200 51
181 203 84
177 200 62
182 204 99
184 205 95
180 202 76
181 203 84
180 202 76
185 205 102
186 206 105
190 209 128
185 206 105
189 209 125
190 210 135
188 208 120
196 214 153
188 208 122
195 213 147
195 213 147
194 213 151
195 213 149
190 209 122
202 219 177
198 216 165
205 221 188
202 219 179
204 220 181
207 223 194
204 220 184
204 220 184
210 225 204
209 225 201
212 227 209
214 228 215
209 225 201
215 229 218
209 224 201
212 227 214
217 231 226
216 229 220
217 230 224
217 231 226
216 230 221
221 234 236
219 232 230
221 233 234
220 233 234
219 232 230
219 232 228
215 229 215
214 229 218
210 225 204
215 229 220
214 228 217
209 224 198
212 226 207
208 223 196
207 222 191
204 220 182
207 222 189
197 215 163
204 220 184
196 214 153
196 214 159
202 219 177
192 211 137
198 216 161
195 213 149
191 210 137
193 212 140
196 214 153
191 211 137
192 211 133
189 209 125
193 212 140
183 204 99
187 207 120
190 210 130
186 207 114
183 204 102
184 205 105
185 206 108
180 202 72
178 200 57
179 201 72
178 201 62
178 201 62
177 200 51
178 200 57
176 199 25
175 198 25
174 197 0
175 198 0
176 199 0
175 198 0
174 198 0
173 197 0
174 198 0
174 198 0
175 198 0
174 198 0
173 197 0
174 198 0
175 198 0
175 198 0
175 198 0
173 197 0
174 198 0
174 198 0
175 198 0
175 198 0
175 198 0
175 198 0
175 198 0
176 198 0
175 198 0
174 198 0
174 198 0
177 199 0
174 198 0
175 198 0
176 199 0
174 198 0
173 197 0
175 198 0
174 198 0
176 199 0
175 198 0
175 198 0
173 197 0
173 197 0
175 198 0
175 198 0
175 198 0
174 198 0
174 198 0
174 198 0
173 197 0
174 198 0
175 198 0
176 198 0
174 198 0
173 197 0
175 198 0
174 198 0
175 198 0
175 198 0
174 198 0
174 198 0
174 198 0
174 198 0
176 198 0
175 198 0
175 198 0
175 198 0
174 198 0
174 198 0
175 198 0
174 198 0
173 197 0
173 197 0
174 197 0
175 198 0
175 198 0
174 198 0
174 197 0
175 198 0
173 197 0
174 198 0
175 198 0
174 198 0
175 198 0
175 198 0
175 198 0
173 197 0
175 198 0
174 198 0
174 198 0
175 198 0
175 198 0
176 199 0
174 197 0
175 198 0
174 198 0
175 198 0
175 198 0
175 198 0
175 198 0
175 198 0
175 198 0
174 197 0
173 197 0
175 198 0
172 196 0
176 198 0
174 197 0
174 198 0
174 198 0
173 196 0
175 198 0
176 199 0
174 197 0
174 198 0
174 198 0
175 197 0
173 197 0
174 198 0
176 199 0
174 198 0
176 198 0
175 198 0
175 198 0
174 197 0
173 197 0
174 197 0
175 198 0
174 198 0
174 197 0
174 198 0
174 197 0
173 197 0
175 198 0
174 197 0
173 197 0
174 197 0
174 197 0
174 197 0
174 197 0
175 197 0
174 197 0
174 197 0
174 197 0
174 197 0
175 198 0
174 198 0
174 198 0
174 198 0
174 197 0
173 196 0
175 198 0
173 197 0
174 197 0
175 198 0
174 197 0
174 197 0
174 198 0
174 197 0
173 196 0
175 198 0
174 196 0
174 197 0
174 197 0
175 198 0
175 197 0
172 195 0
171 195 0
174 198 0
173 192 25
170 183 45
166 173 59
164 166 65
164 157 85
169 161 95
163 153 96
161 149 90
163 152 95
163 152 95
167 157 99
163 153 97
165 159 93
162 153 87
167 164 82
165 166 67
171 182 56
171 193 22
175 198 0
174 198 0
173 197 0
174 198 0
173 197 0
175 198 0
176 198 0
175 198 0
173 197 0
173 197 0
174 198 0
173 197 0
174 197 0
175 198 0
175 198 0
174 197 0
175 198 0
173 197 0
175 197 0
173 197 0
173 197 0
176 199 0
174 198 0
174 197 0
175 198 0
173 197 0
173 197 0
175 198 0
174 198 0
174 197 0
174 197 0
173 197 0
174 198 0
175 198 0
174 198 0
173 197 0
174 197 0
174 198 0
174 197 0
174 198 0
174 198 0
174 198 0
175 198 0
174 197 0
175 198 0
173 197 0
175 198 0
173 197 0
174 197 0
175 198 0
174 197 0
175 198 0
175 198 0
175 198 0
175 198 0
175 198 0
175 198 0
173 197 0
173 197 0
175 198 0
174 198 0
175 198 0
174 197 0
175 198 0
173 197 0
176 199 0
175 198 0
176 199 0
174 198 0
174 198 0
174 198 0
176 199 0
175 198 0
174 197 0
174 198 0
175 198 0
173 197 0
175 198 0
175 198 0
173 197 0
174 198 0
173 197 0
174 198 0
175 198 0
173 197 0
174 198 0
174 198 0
174 198 0
174 198 0
174 198 0
174 197 0
173 197 0
173 197 0
176 198 0
175 198 0
173 197 0
174 198 0
175 198 0
173 197 0
175 198 0
176 199 0
175 198 0
175 198 0
172 197 0
175 198 0
175 198 0
174 197 0
174 197 0
176 199 0
176 199 0
175 198 0
174 198 0
176 198 0
174 198 0
174 197 0
175 198 0
175 198 0
174 198 0
174 198 0
173 197 0
174 197 0
175 198 0
174 198 0
176 199 25
176 199 25
175 198 36
174 198 25
175 199 36
181 202 67
177 200 57
178 200 51
179 201 67
177 200 67
183 205 99
179 202 72
181 203 95
181 203 84
185 206 105
185 206 114
192 211 140
186 207 114
188 208 125
188 208 125
190 210 128
193 212 142
189 208 120
192 211 135
192 211 140
200 217 165
194 213 149
194 213 149
198 215 159
201 218 171
198 215 159
203 220 181
199 216 167
202 219 177
205 221 189
203 219 181
204 221 186
207 222 191
210 225 201
204 220 182
215 229 220
212 227 209
213 228 215
211 226 204
213 227 214
215 229 218
216 230 220
218 231 227
212 226 209
214 228 215
212 227 211
212 227 211
208 224 198
211 226 206
205 221 188
203 220 182
202 219 179
201 218 171
200 217 171
205 221 186
202 219 177
202 219 177
197 215 155
200 217 169
195 214 153
195 213 151
190 210 135
193 212 142
192 211 142
194 212 144
187 208 122
189 209 128
186 206 108
189 209 120
186 206 105
186 206 108
185 206 105
186 207 111
181 203 84
181 203 80
183 204 92
181 202 76
182 204 88
178 201 62
178 200 57
177 199 44
176 199 51
175 198 44
176 199 36
177 199 25
175 198 0
173 197 0
176 198 0
173 197 0
174 198 0
176 199 0
174 197 0
174 198 0
174 198 0
177 199 0
176 199 0
174 198 0
174 198 0
175 198 0
174 198 0
174 198 0
175 198 0
175 198 0
176 198 0
174 198 0
174 198 0
176 198 0
174 198 0
172 197 0
174 198 0
174 197 0
176 198 0
175 198 0
176 199 0
173 197 0
174 198 0
174 198 0
175 198 0
174 198 0
174 198 0
173 197 0
175 198 0
175 198 0
173 197 0
174 198 0
174 198 0
175 198 0
174 197 0
174 198 0
175 198 0
174 197 0
174 197 0
176 198 0
175 198 0
174 198 0
174 198 0
176 198 0
176 199 0
174 198 0
174 198 0
174 198 0
173 197 0
174 198 0
175 198 0
176 199 0
173 197 0
175 198 0
173 197 0
175 198 0
175 198 0
175 198 0
173 197 0
175 198 0
176 199 0
174 198 0
173 197 0
175 198 0
175 198 0
173 197 0
174 198 0
174 198 0
174 197 0
175 198 0
174 197 0
174 197 0
176 199 0
175 198 0
175 198 0
175 198 0
176 199 0
175 198 0
173 197 0
173 197 0
175 198 0
176 199 0
175 198 0
173 197 0
174 198 0
173 197 0
173 197 0
176 199 0
175 198 0
174 198 0
175 198 0
173 196 0
174 197 0
174 198 0
174 197 0
175 198 0
174 198 0
174 198 0
174 197 0
174 197 0
174 197 0
174 197 0
174 198 0
176 198 0
174 198 0
174 198 0
174 198 0
174 197 0
175 198 0
174 198 0
175 198 0
175 198 0
175 197 0
172 196 0
175 198 0
175 198 0
174 197 0
174 197 0
172 197 0
175 198 0
174 197 0
174 197 0
175 198 0
175 198 0
173 197 0
174 198 0
173 196 0
173 197 0
172 196 0
175 198 0
175 198 0
174 198 0
173 196 0
174 197 0
173 197 0
175 198 0
172 195 0
171 195 0
174 197 0
172 196 0
175 198 0
171 195 0
173 196 0
174 197 0
172 196 0
173 196 0
174 197 0
175 198 0
175 198 0
173 197 0
174 197 0
173 197 0
173 197 0
174 197 0
175 198 0
174 198 0
174 197 0
177 199 0
172 195 0
173 197 0
172 191 30
172 183 58
161 163 64
170 165 88
166 155 93
164 154 97
160 150 95
168 159 100
166 157 101
168 160 104
165 157 100
169 163 106
162 153 97
164 155 98
163 152 94
162 151 93
165 156 91
168 164 82
164 170 57
170 183 43
172 195 16
175 198 0
174 197 0
173 197 0
174 198 0
174 197 0
173 197 0
172 196 0
175 198 0
173 196 0
175 198 0
176 199 0
174 198 0
175 198 0
175 198 0
175 198 0
174 198 0
175 197 0
174 198 0
175 198 0
173 197 0
174 198 0
175 198 0
175 198 0
175 198 0
174 198 0
173 197 0
175 198 0
175 198 0
174 197 0
174 197 0
174 197 0
175 198 0
175 198 0
175 198 0
176 199 0
174 197 0
174 198 0
174 198 0
175 198 0
174 198 0
174 198 0
174 198 0
175 198 0
174 197 0
176 198 0
173 197 0
173 197 0
174 198 0
175 198 0
175 198 0
173 197 0
175 198 0
174 198 0
174 198 0
175 198 0
175 198 0
175 198 0
173 197 0
174 198 0
175 198 0
175 198 0
174 197 0
174 198 0
174 197 0
175 198 0
175 198 0
175 198 0
175 198 0
174 198 0
175 198 0
175 198 0
174 197 0
173 197 0
173 197 0
175 198 0
174 198 0
175 198 0
176 199 0
173 197 0
174 197 0
175 198 0
174 198 0
175 198 0
174 197 0
174 197 0
174 198 0
175 198 0
174 198 0
175 198 0
173 197 0
174 198 0
174 197 0
174 198 0
175 198 0
175 198 0
174 198 0
174 198 0
174 198 0
176 199 0
174 197 0
175 198 0
175 198 0
173 197 0
174 197 0
175 198 0
173 197 0
174 197 0
175 198 0
174 198 0
176 198 0
177 199 0
175 198 0
174 198 0
175 198 0
174 198 0
175 198 0
175 198 0
175 198 0
175 198 0
173 197 0
174 198 0
175 198 0
175 198 0
176 198 0
177 199 0
176 199 0
175 198 0
177 200 36
177 200 44
177 200 51
176 199 25
177 200 57
176 199 44
179 201 62
177 200 72
181 203 80
182 203 76
183 204 92
181 203 84
184 205 95
183 204 95
185 205 102
187 207 114
187 207 120
188 208 114
193 211 137
187 207 117
192 211 140
196 214 153
197 215 159
194 212 147
196 214 151
194 213 149
199 217 167
196 214 155
202 219 179
198 216 169
199 216 165
203 220 184
202 219 179
206 222 189
208 223 198
202 219 177
208 224 199
206 222 189
209 224 201
216 229 220
212 226 209
215 229 218
214 228 215
211 225 204
210 225 204
208 223 194
202 219 177
207 222 189
206 222 188
205 221 186
204 221 186
197 215 155
195 213 149
203 219 179
200 217 169
193 211 137
196 214 149
193 212 140
189 209 125
190 210 133
184 205 99
191 210 133
185 206 114
186 207 117
188 208 120
181 203 84
181 203 80
187 207 117
181 203 80
180 202 76
179 201 72
178 201 57
177 200 51
179 201 67
179 201 62
178 200 57
175 198 25
176 199 36
175 198 0
177 199 25
176 198 0
174 197 0
175 198 0
175 198 0
177 199 0
174 198 0
175 198 0
175 198 0
174 198 0
174 198 0
174 197 0
174 198 0
175 198 0
175 198 0
176 199 0
173 197 0
176 199 0
174 198 0
175 198 0
176 199 0
175 198 0
174 198 0
174 198 0
175 198 0
174 198 0
174 198 0
175 198 0
174 198 0
174 198 0
174 198 0
175 198 0
174 198 0
174 197 0
174 197 0
176 198 0
173 197 0
175 198 0
174 197 0
174 198 0
174 197 0
175 198 0
175 198 0
174 197 0
175 198 0
174 197 0
175 198 0
175 198 0
175 198 0
175 198 0
176 199 0
174 198 0
176 198 0
174 198 0
174 198 0
175 198 0
173 197 0
175 198 0
176 198 0
174 197 0
173 197 0
174 198 0
175 198 0
175 198 0
174 198 0
173 197 0
174 198 0
174 198 0
174 197 0
174 198 0
175 198 0
176 199 0
176 198 0
174 197 0
174 198 0
172 196 0
175 198 0
176 199 0
174 197 0
175 198 0
173 197 0
174 197 0
173 197 0
174 198 0
173 197 0
174 198 0
175 198 0
176 198 0
175 198 0
175 198 0
175 198 0
174 198 0
175 198 0
175 198 0
176 198 0
174 198 0
173 197 0
175 198 0
172 197 0
175 198 0
174 197 0
173 197 0
176 198 0
175 198 0
175 198 0
175 198 0
174 198 0
174 197 0
174 198 0
175 198 0
173 197 0
173 197 0
174 197 0
174 198 0
175 198 0
175 198 0
175 198 0
174 198 0
175 198 0
174 197 0
174 198 0
175 198 0
174 197 0
174 197 0
176 199 0
172 196 0
174 198 0
173 197 0
175 198 0
173 197 0
173 197 0
173 197 0
173 196 0
173 197 0
172 197 0
174 197 0
174 198 0
172 196 0
174 197 0
175 198 0
173 196 0
172 196 0
173 197 0
173 197 0
172 195 0
173 197 0
173 196 0
169 193 0
175 198 0
173 196 0
175 198 0
172 196 0
172 195 0
175 198 0
174 197 0
175 198 0
174 197 0
174 197 0
174 197 0
173 197 0
172 194 0
173 196 0
173 197 0
174 197 0
174 196 0
173 196 0
173 196 0
174 197 0
175 198 0
174 197 0
173 195 0
172 193 12
169 188 30
168 175 57
170 166 83
167 160 90
164 152 90
168 159 99
169 163 106
169 163 107
163 155 99
168 162 106
169 163 106
164 157 101
170 164 107
164 158 102
165 160 104
165 157 100
168 160 102
160 148 90
171 160 98
163 157 84
166 169 65
172 188 43
174 196 16
174 197 0
174 198 0
173 196 0
174 198 0
174 197 0
172 196 0
175 198 0
173 197 0
175 198 0
175 198 0
173 197 0
174 197 0
174 197 0
174 197 0
174 198 0
175 197 0
173 197 0
174 198 0
174 198 0
175 198 0
173 197 0
174 198 0
174 198 0
174 198 0
174 197 0
174 197 0
176 199 0
172 197 0
176 198 0
176 198 0
173 197 0
174 197 0
173 197 0
174 198 0
175 198 0
174 197 0
176 198 0
174 197 0
174 197 0
174 198 0
173 197 0
175 198 0
174 198 0
174 198 0
175 198 0
175 198 0
175 198 0
173 197 0
174 198 0
174 198 0
174 198 0
174 198 0
174 197 0
174 198 0
175 198 0
175 198 0
175 198 0
173 197 0
174 198 0
174 197 0
175 198 0
176 198 0
175 198 0
175 198 0
175 198 0
175 198 0
174 197 0
174 197 0
173 197 0
175 198 0
176 198 0
174 197 0
174 198 0
174 198 0
174 198 0
175 198 0
174 198 0
175 198 0
173 197 0
176 198 0
173 197 0
176 199 0
176 198 0
175 198 0
176 199 0
175 198 0
174 198 0
174 197 0
175 198 0
174 198 0
174 198 0
174 197 0
174 198 0
176 199 0
175 198 0
175 198 0
174 197 0
173 197 0
175 198 0
173 197 0
175 198 0
176 198 0
175 198 0
174 198 0
175 198 0
176 198 0
174 197 0
175 198 0
176 198 0
174 198 0
174 198 0
175 198 0
175 198 0
174 198 0
174 198 0
175 198 0
175 198 0
176 199 0
177 199 0
175 198 0
174 198 0
175 198 0
174 197 0
174 198 0
173 197 0
175 198 0
175 198 0
175 198 0
175 198 0
177 199 25
173 197 25
176 199 36
177 200 62
176 199 36
178 200 51
176 199 51
176 199 44
180 202 84
178 200 67
178 201 62
178 201 62
183 204 95
183 204 99
183 204 99
186 206 108
185 206 108
189 208 122
188 208 117
186 206 108
189 209 128
191 210 135
196 214 151
198 216 161
190 210 133
190 209 130
195 213 147
192 211 142
197 215 157
193 212 144
201 218 173
203 220 182
202 219 175
204 220 182
206 222 188
202 219 179
204 220 181
213 227 211
209 224 201
204 220 184
201 218 175
204 220 181
209 224 198
202 219 175
199 216 163
198 215 159
192 211 137
197 215 161
194 212 149
196 214 153
195 213 149
192 211 135
192 211 137
191 211 137
188 208 122
189 208 117
180 202 80
183 204 92
182 203 84
180 202 84
181 203 92
183 204 92
180 202 76
180 202 72
180 202 76
177 200 57
176 199 51
175 199 44
176 199 44
174 198 0
174 198 25
173 197 0
174 198 0
174 198 0
175 198 0
175 198 0
176 198 0
175 198 0
174 198 0
174 198 0
176 199 0
175 198 0
175 198 0
173 197 0
175 198 0
174 197 0
174 198 0
176 199 0
175 198 0
175 198 0
174 198 0
177 199 0
175 198 0
175 198 0
174 198 0
175 198 0
174 198 0
174 198 0
173 197 0
174 198 0
176 199 0
174 198 0
176 199 0
175 198 0
173 197 0
176 198 0
174 197 0
173 197 0
175 198 0
174 198 0
174 198 0
174 198 0
174 198 0
176 199 0
175 198 0
174 197 0
174 198 0
173 197 0
174 198 0
174 198 0
175 198 0
176 199 0
175 198 0
172 197 0
174 198 0
174 198 0
175 198 0
175 198 0
175 198 0
176 199 0
173 197 0
175 198 0
174 198 0
174 198 0
174 197 0
175 198 0
174 198 0
173 197 0
174 198 0
174 198 0
176 198 0
173 197 0
176 198 0
176 199 0
174 198 0
175 198 0
175 198 0
174 197 0
175 198 0
174 197 0
174 197 0
176 199 0
173 197 0
175 198 0
173 197 0
173 197 0
173 197 0
175 198 0
174 197 0
176 198 0
174 197 0
174 198 0
173 197 0
174 198 0
174 198 0
175 198 0
174 198 0
174 198 0
176 199 0
174 198 0
175 198 0
177 199 0
174 197 0
175 198 0
174 197 0
174 197 0
174 197 0
174 197 0
174 198 0
173 197 0
172 197 0
173 197 0
174 197 0
173 196 0
174 197 0
173 196 0
175 198 0
174 197 0
172 197 0
174 197 0
174 198 0
174 197 0
175 198 0
174 197 0
175 198 0
172 197 0
173 197 0
175 198 0
174 198 0
171 195 0
175 198 0
174 197 0
174 197 0
173 197 0
172 196 0
173 197 0
175 198 0
172 196 0
173 196 0
175 198 0
173 197 0
172 196 0
174 197 0
173 197 0
174 197 0
173 195 0
173 196 0
174 198 0
173 197 0
174 197 0
175 198 0
173 197 0
173 197 0
172 196 0
173 196 0
173 196 0
175 198 0
173 196 0
173 196 0
173 196 0
174 197 0
173 197 0
173 197 0
174 197 0
174 197 0
172 196 0
171 195 0
174 197 0
173 196 0
174 197 0
174 198 0
173 197 0
172 196 0
173 196 0
174 196 0
174 198 0
172 195 0
170 187 34
168 178 54
167 166 78
167 158 92
168 159 99
165 157 100
168 161 102
167 159 102
172 166 109
168 163 107
166 162 107
169 164 107
169 165 109
170 166 109
167 161 106
168 161 104
168 161 104
166 159 103
166 156 97
166 156 95
164 153 94
167 163 82
162 167 57
172 188 35
173 196 11
173 197 0
174 198 0
175 197 0
173 196 0
176 198 0
173 197 0
175 198 0
175 198 0
175 198 0
173 196 0
176 197 0
175 198 0
173 197 0
176 198 0
175 198 0
174 198 0
173 197 0
175 198 0
175 198 0
174 197 0
175 198 0
176 199 0
174 198 0
174 198 0
175 198 0
173 197 0
175 198 0
176 198 0
175 198 0
174 197 0
174 197 0
174 198 0
175 198 0
173 197 0
174 198 0
176 198 0
175 198 0
175 198 0
174 197 0
175 198 0
174 197 0
174 197 0
175 198 0
173 197 0
175 198 0
173 197 0
175 198 0
174 198 0
173 197 0
174 197 0
175 198 0
174 197 0
174 198 0
174 198 0
176 199 0
173 197 0
175 198 0
174 198 0
175 198 0
175 198 0
173 197 0
174 198 0
174 198 0
174 197 0
174 198 0
175 198 0
175 198 0
175 198 0
174 198 0
174 197 0
175 198 0
174 198 0
174 197 0
174 198 0
172 197 0
175 198 0
173 197 0
172 196 0
175 198 0
174 198 0
174 198 0
174 197 0
174 198 0
176 198 0
174 198 0
177 199 0
175 198 0
174 198 0
175 198 0
174 198 0
175 198 0
176 198 0
175 198 0
174 198 0
174 198 0
176 198 0
174 198 0
174 198 0
174 198 0
176 199 0
173 197 0
173 197 0
175 198 0
173 197 0
175 198 0
176 199 0
174 198 0
177 199 0
171 196 0
174 198 0
173 196 0
174 197 0
176 199 0
173 197 0
175 198 0
174 198 0
175 198 0
175 198 0
173 197 0
175 198 0
174 198 0
176 199 0
176 198 0
173 197 0
177 199 0
174 198 0
174 197 0
176 199 0
175 198 0
174 198 0
175 198 0
175 198 0
176 199 25
174 198 0
177 200 44
175 199 25
177 199 44
177 200 51
178 200 51
178 200 51
179 202 76
179 201 62
179 202 76
183 204 99
181 203 84
181 203 92
183 204 92
184 205 102
188 208 125
185 206 105
187 207 111
186 207 117
185 206 108
190 210 133
195 213 147
193 212 142
196 214 155
192 211 142
190 209 128
193 212 142
196 215 157
198 216 167
202 219 175
203 219 179
205 221 186
205 221 188
203 220 181
201 218 175
199 217 167
200 217 169
198 216 163
190 210 128
191 211 137
191 210 133
191 210 137
192 211 137
193 211 137
188 208 122
187 207 111
186 207 111
184 205 95
183 204 95
185 206 108
182 203 92
184 205 102
184 204 95
179 201 51
180 202 72
178 201 67
175 198 36
179 201 57
176 199 36
176 199 25
174 198 25
173 197 0
176 199 0
174 198 0
175 198 0
174 198 0
174 198 0
175 198 0
175 198 0
174 197 0
175 198 0
174 197 0
175 198 0
174 198 0
175 198 0
175 198 0
174 197 0
174 197 0
175 198 0
177 199 0
176 198 0
174 197 0
174 197 0
174 198 0
175 198 0
178 200 0
174 197 0
175 198 0
174 198 0
176 198 0
176 198 0
176 199 0
174 198 0
173 197 0
175 198 0
175 198 0
175 198 0
175 198 0
174 198 0
174 198 0
176 199 0
176 199 0
175 198 0
176 199 0
174 197 0
174 198 0
173 197 0
174 198 0
176 199 0
175 198 0
176 198 0
173 197 0
174 198 0
175 198 0
176 199 0
175 198 0
173 197 0
174 197 0
174 198 0
175 198 0
174 198 0
173 197 0
174 198 0
173 197 0
174 198 0
173 197 0
173 197 0
175 198 0
174 197 0
174 198 0
174 197 0
174 198 0
176 199 0
175 198 0
172 197 0
176 198 0
175 198 0
174 198 0
176 199 0
174 197 0
174 197 0
174 197 0
173 197 0
175 198 0
175 198 0
175 198 0
174 198 0
174 198 0
174 197 0
174 198 0
175 198 0
174 197 0
174 197 0
175 198 0
174 197 0
174 198 0
174 198 0
176 198 0
175 198 0
176 199 0
173 197 0
173 197 0
174 197 0
174 197 0
172 196 0
173 197 0
175 198 0
176 198 0
174 198 0
174 197 0
174 197 0
176 198 0
174 197 0
174 198 0
174 198 0
174 197 0
173 197 0
174 197 0
176 199 0
173 197 0
175 198 0
173 197 0
175 198 0
174 198 0
176 199 0
174 198 0
175 198 0
175 198 0
175 198 0
173 196 0
173 197 0
173 197 0
175 198 0
174 197 0
175 198 0
172 197 0
173 197 0
174 198 0
173 196 0
175 198 0
173 197 0
172 196 0
175 198 0
175 198 0
173 196 0
173 196 0
174 198 0
174 198 0
173 197 0
172 196 0
174 198 0
173 196 0
176 198 0
174 198 0
174 198 0
173 196 0
173 196 0
172 196 0
173 197 0
172 195 0
173 196 0
173 197 0
174 197 0
168 192 0
172 196 0
171 194 0
172 196 0
174 197 0
172 196 0
173 197 0
175 197 0
174 198 0
173 196 0
176 199 0
172 195 0
173 197 0
173 196 0
173 196 0
173 196 0
173 197 0
174 196 0
171 190 19
168 176 56
164 160 69
159 148 79
160 150 89
158 151 93
165 158 101
168 161 102
167 162 106
167 161 105
172 167 109
169 165 110
166 160 104
164 159 105
168 164 107
168 164 108
171 166 109
172 168 111
169 163 106
171 165 108
172 163 103
165 156 97
162 151 90
163 158 82
171 178 62
173 194 22
176 198 0
174 197 0
175 198 0
174 197 0
173 197 0
175 198 0
176 198 0
175 198 0
174 198 0
174 197 0
174 198 0
175 197 0
173 197 0
174 197 0
174 197 0
175 198 0
173 197 0
173 197 0
175 198 0
175 198 0
173 197 0
174 197 0
175 198 0
175 198 0
175 198 0
175 198 0
175 198 0
175 198 0
173 197 0
173 197 0
174 198 0
176 198 0
175 198 0
174 197 0
174 197 0
174 198 0
176 198 0
174 197 0
173 197 0
175 198 0
174 197 0
174 197 0
175 198 0
175 198 0
174 198 0
174 198 0
175 198 0
175 198 0
175 198 0
175 198 0
174 198 0
175 198 0
175 198 0
176 199 0
174 198 0
175 198 0
175 198 0
176 198 0
174 197 0
175 198 0
176 199 0
175 198 0
174 197 0
174 198 0
173 197 0
175 198 0
175 198 0
173 197 0
174 198 0
173 197 0
175 198 0
174 198 0
174 197 0
174 198 0
174 198 0
174 198 0
175 198 0
174 197 0
175 198 0
173 197 0
175 198 0
176 198 0
175 198 0
173 197 0
175 198 0
175 198 0
174 197 0
173 197 0
174 198 0
174 198 0
173 197 0
175 198 0
173 197 0
175 198 0
173 197 0
175 198 0
175 198 0
174 198 0
174 198 0
174 198 0
174 197 0
176 199 0
174 198 0
174 198 0
174 198 0
173 197 0
175 198 0
174 198 0
175 198 0
175 198 0
176 198 0
175 198 0
174 198 0
173 197 0
176 198 0
175 198 0
175 198 0
173 197 0
174 198 0
176 198 0
176 198 0
174 198 0
175 198 0
174 197 0
176 199 0
174 198 0
176 198 0
176 199 0
174 198 0
176 198 0
174 198 0
175 198 0
176 198 0
174 198 0
174 198 0
174 198 0
174 198 0
176 199 0
174 198 0
176 198 0
175 198 36
176 199 36
177 199 36
175 198 36
180 202 80
179 201 72
179 202 72
177 200 57
177 200 44
180 202 80
182 203 95
188 208 114
183 204 99
183 205 102
189 209 128
187 207 114
187 207 114
187 208 117
193 212 144
190 210 133
194 213 147
190 209 125
196 214 157
199 216 165
194 213 149
199 216 165
203 220 182
192 211 140
193 212 142
195 214 153
188 208 122
194 212 144
186 206 111
185 206 105
181 203 92
185 206 108
185 206 105
183 204 84
182 203 84
179 202 72
179 201 67
179 200 44
179 201 62
177 200 51
176 199 51
177 200 57
176 199 25
177 200 44
176 199 36
173 197 0
174 198 0
173 197 0
174 197 0
174 198 0
175 198 0
176 199 0
175 198 0
175 198 0
175 198 0
175 198 0
174 198 0
176 198 0
174 198 0
174 197 0
175 198 0
173 197 0
175 198 0
176 199 0
175 198 0
174 198 0
176 198 0
174 198 0
173 197 0
175 198 0
175 198 0
174 198 0
175 198 0
175 198 0
174 198 0
174 197 0
175 198 0
175 198 0
175 198 0
175 198 0
175 198 0
174 198 0
174 198 0
174 198 0
174 198 0
175 198 0
174 198 0
173 197 0
172 197 0
176 199 0
174 198 0
174 198 0
174 198 0
175 198 0
174 197 0
173 197 0
173 197 0
175 198 0
175 198 0
174 198 0
175 198 0
173 197 0
174 197 0
173 197 0
174 198 0
175 198 0
176 199 0
176 199 0
174 197 0
175 198 0
173 197 0
175 198 0
174 198 0
173 197 0
176 199 0
175 198 0
175 198 0
176 199 0
175 198 0
174 198 0
176 198 0
175 198 0
174 198 0
174 197 0
175 198 0
175 198 0
173 197 0
176 198 0
176 198 0
175 198 0
175 198 0
175 198 0
173 197 0
175 198 0
175 198 0
173 197 0
173 197 0
174 198 0
175 198 0
175 198 0
176 199 0
174 198 0
173 197 0
175 198 0
174 198 0
175 198 0
175 198 0
175 198 0
174 198 0
174 198 0
175 198 0
174 197 0
174 197 0
174 198 0
175 198 0
174 198 0
174 197 0
173 197 0
173 197 0
175 198 0
174 198 0
175 198 0
173 197 0
172 196 0
173 197 0
174 197 0
173 197 0
175 198 0
174 197 0
175 198 0
174 198 0
174 198 0
173 197 0
175 198 0
173 197 0
174 197 0
174 197 0
175 198 0
175 198 0
173 197 0
174 198 0
175 198 0
174 198 0
175 198 0
173 197 0
172 195 0
174 197 0
176 198 0
174 198 0
175 198 0
175 198 0
173 197 0
173 197 0
173 197 0
174 197 0
175 198 0
174 197 0
172 196 0
172 196 0
173 196 0
173 197 0
174 197 0
173 196 0
173 196 0
173 197 0
172 196 0
174 197 0
171 195 0
175 197 0
174 197 0
173 196 0
173 197 0
175 197 0
174 197 0
172 196 0
174 197 0
172 195 31
169 193 31
168 190 47
171 194 36
173 197 0
170 192 0
173 196 0
173 196 0
171 194 0
171 194 0
171 193 0
172 195 0
172 195 0
174 195 16
165 178 40
158 161 55
164 155 86
160 152 91
163 155 98
167 160 103
164 158 101
168 161 104
164 159 104
164 160 106
168 163 108
169 166 110
169 165 109
169 165 110
167 162 106
172 168 111
171 168 111
168 163 106
169 162 104
171 165 107
164 155 98
166 156 96
162 152 95
164 153 92
155 151 66
169 180 51
176 196 23
175 198 0
173 196 0
173 196 0
175 198 0
177 199 0
174 197 0
174 196 0
176 199 0
176 199 0
173 197 0
174 197 0
174 197 0
174 198 0
175 198 0
173 197 0
175 198 0
174 197 0
174 197 0
175 197 0
174 197 0
173 197 0
176 199 0
174 198 0
175 197 0
175 198 0
173 197 0
174 197 0
174 197 0
174 197 0
175 198 0
174 197 0
175 198 0
175 198 0
173 197 0
175 198 0
177 199 0
176 198 0
175 198 0
175 198 0
174 198 0
175 198 0
173 197 0
174 197 0
173 197 0
175 198 0
175 198 0
173 197 0
174 198 0
175 198 0
173 197 0
174 198 0
174 198 0
175 198 0
175 198 0
176 199 0
176 199 0
174 198 0
174 198 0
174 198 0
173 197 0
174 197 0
174 197 0
175 198 0
175 198 0
174 197 0
174 198 0
173 197 0
175 198 0
174 197 0
175 198 0
174 197 0
173 197 0
173 197 0
175 198 0
176 198 0
175 198 0
175 198 0
173 197 0
173 197 0
175 198 0
174 198 0
175 198 0
175 198 0
174 197 0
175 198 0
174 198 0
175 198 0
173 197 0
174 197 0
174 198 0
175 198 0
174 198 0
174 197 0
176 198 0
174 198 0
176 199 0
174 197 0
174 198 0
175 198 0
176 199 0
175 198 0
175 198 0
174 198 0
173 197 0
174 198 0
174 198 0
175 198 0
174 198 0
176 198 0
175 198 0
175 198 0
177 199 0
175 198 0
173 197 0
174 198 0
173 197 0
176 199 0
175 198 0
175 198 0
174 198 0
176 198 0
175 198 0
175 198 0
174 198 0
175 198 0
174 198 0
174 198 0
176 199 0
176 198 0
175 198 0
173 197 0
175 198 0
174 197 0
173 197 0
176 199 0
174 198 0
174 198 0
176 198 0
175 198 0
174 198 0
173 197 0
176 199 25
174 198 25
174 198 0
175 198 25
177 200 57
177 199 36
176 199 51
176 199 57
177 200 57
176 199 51
180 202 72
182 203 88
185 206 102
183 204 95
180 202 84
188 208 120
183 204 95
186 207 114
189 209 125
189 209 122
193 212 140
189 209 128
191 210 135
195 213 149
196 214 155
192 211 137
187 207 114
184 205 102
187 207 117
189 208 120
185 205 105
186 206 108
182 203 92
180 202 84
178 201 72
178 201 62
180 202 67
176 199 25
179 201 67
174 198 25
178 200 44
174 198 0
175 198 36
175 198 25
176 198 0
174 198 0
174 198 0
174 198 0
174 198 0
174 197 0
174 197 0
175 198 0
176 199 0
175 198 0
174 198 0
176 199 0
174 198 0
174 197 0
175 198 0
175 198 0
176 199 0
175 198 0
172 197 0
176 199 0
174 197 0
176 198 0
174 197 0
175 198 0
175 198 0
176 199 0
173 197 0
177 199 0
175 198 0
175 198 0
175 198 0
174 198 0
174 198 0
174 198 0
176 199 0
174 198 0
174 198 0
174 198 0
173 197 0
173 197 0
175 198 0
173 197 0
175 198 0
174 198 0
173 197 0
173 197 0
174 198 0
174 197 0
174 198 0
175 198 0
174 198 0
174 198 0
175 198 0
176 198 0
173 197 0
173 197 0
174 197 0
174 198 0
174 198 0
175 198 0
175 198 0
173 197 0
175 198 0
173 197 0
174 197 0
175 198 0
174 197 0
174 197 0
174 197 0
175 198 0
173 197 0
175 198 0
175 198 0
175 198 0
173 197 0
174 198 0
175 198 0
175 198 0
173 197 0
176 199 0
175 198 0
173 197 0
174 198 0
174 198 0
175 198 0
174 198 0
176 199 0
175 198 0
174 198 0
176 198 0
174 197 0
174 198 0
173 197 0
173 197 0
173 197 0
175 198 0
175 198 0
173 197 0
174 198 0
175 198 0
173 197 0
175 198 0
172 197 0
173 197 0
176 199 0
174 198 0
174 198 0
176 199 0
174 197 0
175 197 0
175 198 0
175 198 0
175 198 0
174 197 0
174 197 0
173 197 0
174 197 0
174 197 0
174 197 0
172 196 0
175 198 0
174 198 0
174 198 0
174 198 0
174 198 0
174 197 0
172 196 0
175 198 0
174 197 0
172 196 0
174 197 0
172 196 0
175 198 0
176 198 0
172 196 0
172 196 0
175 198 0
175 198 0
173 197 0
174 198 0
174 197 0
172 196 0
173 197 0
172 196 0
174 197 0
173 197 0
172 195 0
171 196 0
173 197 0
173 197 0
174 198 0
174 197 0
173 197 0
173 196 0
173 196 0
173 197 0
171 195 0
172 196 0
174 197 0
172 195 0
172 196 0
173 197 0
171 194 0
171 194 0
174 198 0
175 198 0
175 198 0
174 197 0
172 196 0
171 194 0
170 194 40
152 177 92
127 153 130
106 134 151
86 117 167
78 111 172
71 106 176
77 110 173
98 127 159
108 136 151
141 165 111
159 182 75
175 198 0
171 195 0
173 197 0
173 196 0
172 194 2
169 186 36
166 174 54
161 155 74
160 151 85
163 156 97
159 153 94
167 160 103
164 158 103
162 158 103
168 164 109
169 165 109
171 166 109
173 169 112
172 169 112
169 166 111
173 168 111
171 167 110
172 165 107
170 166 108
172 166 108
171 164 103
167 159 100
166 156 96
173 164 98
171 160 91
159 148 82
165 167 63
169 187 28
175 198 0
174 196 0
174 197 0
175 198 0
176 198 0
174 198 0
173 197 0
173 196 0
175 198 0
175 197 0
174 197 0
176 199 0
173 197 0
173 196 0
174 197 0
173 197 0
174 198 0
173 197 0
175 198 0
176 199 0
174 198 0
172 196 0
175 198 0
175 198 0
172 197 0
173 196 0
175 198 0
176 198 0
174 197 0
173 197 0
175 198 0
174 198 0
175 198 0
174 197 0
174 198 0
174 198 0
174 198 0
175 198 0
174 197 0
174 197 0
175 198 0
174 198 0
176 198 0
176 199 0
175 198 0
175 198 0
176 198 0
173 197 0
176 199 0
174 197 0
174 198 0
174 197 0
175 197 0
174 198 0
173 197 0
174 198 0
175 198 0
176 198 0
174 197 0
175 198 0
174 198 0
174 198 0
174 198 0
174 198 0
173 197 0
174 197 0
174 198 0
174 197 0
175 198 0
175 198 0
174 198 0
174 198 0
174 197 0
173 197 0
173 197 0
175 198 0
174 198 0
174 197 0
173 197 0
175 198 0
175 198 0
174 197 0
174 197 0
175 198 0
175 198 0
176 199 0
174 198 0
172 196 0
176 199 0
174 197 0
175 198 0
176 199 0
173 197 0
175 198 0
174 198 0
174 197 0
175 198 0
174 198 0
175 198 0
174 198 0
175 198 0
174 198 0
176 199 0
173 197 0
175 198 0
172 197 0
173 197 0
174 198 0
174 198 0
175 198 0
174 198 0
174 198 0
173 197 0
175 198 0
174 198 0
175 198 0
175 198 0
176 199 0
174 198 0
175 198 0
174 197 0
174 197 0
174 198 0
174 198 0
173 197 0
174 198 0
174 198 0
175 198 0
176 199 0
174 198 0
174 197 0
175 198 0
177 199 0
175 198 0
175 198 0
174 198 0
174 198 0
173 197 0
175 198 0
174 198 0
176 199 0
173 197 0
174 198 0
174 198 0
174 198 0
175 198 0
175 198 0
174 198 0
176 199 25
177 200 51
177 200 51
178 200 51
178 201 57
177 200 44
178 201 67
180 202 76
180 202 84
183 204 92
183 205 99
183 204 95
183 204 84
184 205 99
183 204 95
187 207 117
190 210 130
190 210 130
188 208 122
182 204 92
185 205 99
180 202 84
186 206 108
183 204 84
179 201 67
177 200 57
180 202 76
176 199 36
179 201 62
177 199 44
175 198 0
173 197 0
176 199 25
173 197 0
175 198 0
174 198 0
173 197 0
176 199 0
176 198 0
175 198 0
176 199 0
174 198 0
175 198 0
174 198 0
174 198 0
174 198 0
173 197 0
175 198 0
175 198 0
174 197 0
173 197 0
174 197 0
174 198 0
174 197 0
175 198 0
174 198 0
174 197 0
177 199 0
175 198 0
175 198 0
174 198 0
175 198 0
174 197 0
173 197 0
174 197 0
174 198 0
174 197 0
175 198 0
176 198 0
175 198 0
174 197 0
175 198 0
174 198 0
174 197 0
174 197 0
176 199 0
174 198 0
176 198 0
176 199 0
174 197 0
174 198 0
175 198 0
176 199 0
175 198 0
175 198 0
174 198 0
174 197 0
174 197 0
175 198 0
177 199 0
174 198 0
175 198 0
175 198 0
176 199 0
173 197 0
175 198 0
174 198 0
174 198 0
174 197 0
173 197 0
175 198 0
172 197 0
174 198 0
174 198 0
173 197 0
174 198 0
174 197 0
174 198 0
174 198 0
175 198 0
174 198 0
175 198 0
175 198 0
174 197 0
174 198 0
175 198 0
175 198 0
174 198 0
174 198 0
175 198 0
175 198 0
175 198 0
175 198 0
172 197 0
172 197 0
176 198 0
173 197 0
173 197 0
176 198 0
173 197 0
175 198 0
174 197 0
174 198 0
175 198 0
175 198 0
172 197 0
173 197 0
173 197 0
173 197 0
175 198 0
174 198 0
175 198 0
174 198 0
174 197 0
174 198 0
174 198 0
173 197 0
175 198 0
174 198 0
175 198 0
175 198 0
174 197 0
175 198 0
173 197 0
175 198 0
175 198 0
174 197 0
174 197 0
174 198 0
173 196 0
175 198 0
173 196 0
175 198 0
176 199 0
174 197 0
174 197 0
173 197 0
174 197 0
175 198 0
175 198 0
174 197 0
175 198 0
174 197 0
173 197 0
174 197 0
172 196 0
176 198 0
171 195 0
175 198 0
173 197 0
172 196 0
173 197 0
172 196 0
174 198 0
176 198 0
174 196 0
172 196 0
175 198 0
173 196 0
173 196 0
172 195 0
173 197 0
173 197 0
173 196 0
170 193 0
174 197 0
172 196 0
172 196 0
174 196 0
172 196 0
172 196 0
172 195 0
171 195 0
171 194 0
173 197 0
171 194 18
140 165 108
92 122 163
62 99 181
62 99 181
62 99 181
62 99 181
61 99 181
61 98 181
61 98 181
61 99 181
61 99 181
62 99 181
62 99 181
105 134 153
152 176 92
166 189 36
172 195 0
172 194 0
164 177 39
159 161 57
157 147 75
158 146 83
157 150 93
159 152 96
163 155 97
163 157 102
161 156 103
165 161 106
165 162 108
169 165 109
170 167 111
173 170 113
172 167 110
175 171 112
175 170 113
171 168 110
171 168 111
173 166 106
168 161 103
172 165 103
171 164 99
173 163 101
164 153 88
171 160 94
157 154 61
166 180 40
173 195 11
173 197 0
172 195 0
174 196 0
173 197 0
174 197 0
175 198 0
174 198 0
172 195 0
175 198 0
174 197 0
175 198 0
175 198 0
173 196 0
175 198 0
174 198 0
173 197 0
172 196 0
174 197 0
173 197 0
174 197 0
175 198 0
175 198 0
175 198 0
173 197 0
174 197 0
174 197 0
174 198 0
174 198 0
175 198 0
174 198 0
173 197 0
173 197 0
175 198 0
175 198 0
174 197 0
174 198 0
174 197 0
175 198 0
176 199 0
174 198 0
173 197 0
173 197 0
174 198 0
174 197 0
174 197 0
174 197 0
174 198 0
174 197 0
174 198 0
175 198 0
175 198 0
175 198 0
175 198 0
174 197 0
175 198 0
173 197 0
174 197 0
174 197 0
175 198 0
173 197 0
175 198 0
174 197 0
175 198 0
175 198 0
174 198 0
174 197 0
175 198 0
174 197 0
174 197 0
174 198 0
174 197 0
174 197 0
175 198 0
173 197 0
176 199 0
176 199 0
175 198 0
173 197 0
175 198 0
174 197 0
174 197 0
176 198 0
174 198 0
175 198 0
174 198 0
175 198 0
176 198 0
175 198 0
174 197 0
174 197 0
174 198 0
175 198 0
175 198 0
174 198 0
174 197 0
174 198 0
174 198 0
176 198 0
175 198 0
173 197 0
175 198 0
174 197 0
176 199 0
175 198 0
175 198 0
175 198 0
177 199 0
173 197 0
174 198 0
175 198 0
174 198 0
175 198 0
174 197 0
176 198 0
175 198 0
174 198 0
174 198 0
175 198 0
174 197 0
176 199 0
173 197 0
174 197 0
174 198 0
174 198 0
174 198 0
176 198 0
174 198 0
176 199 0
172 197 0
174 197 0
173 197 0
175 198 0
173 197 0
173 197 0
174 198 0
176 198 0
174 198 0
177 199 0
174 197 0
174 198 0
176 198 0
173 197 0
174 198 0
176 199 0
174 197 0
174 198 0
175 198 0
174 198 0
177 199 0
175 198 0
174 198 25
176 199 25
174 197 0
177 200 44
177 200 51
178 201 62
177 199 44
182 204 88
178 200 57
183 204 92
181 203 76
184 205 99
181 203 76
186 206 111
184 205 99
178 201 67
178 200 51
179 201 62
180 202 62
180 202 72
175 198 25
178 200 25
176 199 36
175 198 0
175 198 25
174 198 0
176 199 0
174 197 0
174 198 0
175 198 0
176 199 0
176 199 0
176 198 0
174 198 0
174 198 0
174 198 0
175 198 0
175 198 0
174 198 0
174 197 0
175 198 0
174 198 0
173 197 0
175 198 0
174 198 0
174 197 0
176 199 0
176 199 0
174 198 0
175 198 0
175 198 0
173 197 0
174 197 0
175 198 0
174 198 0
175 198 0
174 198 0
175 198 0
175 198 0
175 198 0
173 197 0
173 197 0
176 198 0
173 197 0
173 197 0
174 197 0
175 198 0
175 198 0
175 198 0
175 198 0
175 198 0
174 198 0
175 198 0
176 199 0
174 198 0
174 198 0
175 198 0
174 197 0
175 198 0
173 197 0
175 198 0
174 198 0
174 198 0
176 199 0
175 198 0
175 198 0
173 197 0
174 198 0
176 198 0
175 198 0
175 198 0
173 197 0
174 198 0
173 197 0
175 198 0
174 198 0
174 197 0
174 197 0
175 198 0
175 198 0
173 197 0
173 197 0
175 198 0
173 197 0
174 198 0
175 198 0
174 198 0
173 197 0
174 198 0
172 197 0
175 198 0
174 197 0
172 196 0
173 197 0
174 197 0
174 197 0
174 197 0
176 199 0
175 198 0
174 198 0
174 197 0
175 198 0
175 198 0
175 198 0
175 198 0
174 198 0
176 199 0
174 197 0
176 198 0
173 197 0
174 197 0
174 198 0
173 197 0
174 198 0
175 198 0
174 198 0
173 196 0
175 198 0
174 197 0
173 197 0
174 197 0
172 197 0
172 196 0
174 198 0
175 198 0
175 198 0
174 197 0
174 197 0
173 197 0
174 197 0
175 198 0
175 198 0
175 198 0
174 197 0
174 198 0
174 197 0
175 198 0
174 197 0
175 198 0
174 197 0
174 197 0
175 198 0
176 198 0
173 197 0
173 196 0
174 197 0
173 197 0
173 197 0
174 197 0
175 198 0
173 196 0
173 197 0
175 198 0
176 198 0
172 196 0
173 197 0
173 197 0
174 198 0
175 198 0
176 198 0
172 196 0
175 198 0
173 196 0
172 195 0
174 198 0
174 197 0
172 195 0
174 197 0
174 197 0
173 196 0
171 195 0
172 196 0
172 196 0
173 197 0
173 197 0
173 197 0
170 193 0
172 195 0
171 195 0
173 196 0
174 197 0
146 170 95
98 126 156
61 98 177
61 99 180
62 99 180
61 98 181
61 99 181
62 99 181
62 99 181
61 99 181
61 99 181
61 98 181
62 99 181
61 99 181
61 99 180
62 98 176
61 98 178
90 121 160
151 175 90
169 188 18
161 164 52
151 148 67
152 142 84
154 147 91
153 145 90
148 142 93
151 147 95
159 155 101
158 154 102
160 158 106
164 160 106
172 167 111
169 166 112
171 167 109
173 169 110
171 169 113
175 169 109
175 170 111
173 168 109
174 167 103
172 165 106
171 164 102
172 164 100
167 159 97
168 159 96
162 152 85
162 153 78
165 171 47
172 194 11
174 196 0
176 198 0
174 197 0
173 197 0
172 195 0
175 197 0
174 198 0
176 198 0
174 197 0
175 198 0
174 197 0
175 198 0
174 197 0
175 198 0
172 196 0
175 198 0
174 197 0
176 199 0
174 197 0
173 197 0
175 198 0
174 197 0
172 196 0
174 198 0
175 198 0
175 197 0
174 197 0
175 198 0
174 198 0
174 198 0
173 197 0
175 198 0
175 198 0
176 199 0
173 197 0
177 199 0
174 198 0
174 197 0
175 198 0
174 198 0
175 198 0
174 197 0
172 196 0
175 198 0
175 198 0
174 197 0
175 198 0
173 197 0
174 198 0
176 198 0
174 197 0
171 196 0
175 198 0
176 198 0
175 198 0
173 197 0
174 197 0
173 197 0
176 198 0
176 199 0
175 198 0
174 198 0
176 199 0
174 198 0
175 198 0
176 198 0
174 198 0
175 198 0
174 197 0
175 198 0
173 197 0
175 198 0
174 197 0
172 197 0
173 197 0
175 198 0
174 198 0
175 198 0
174 197 0
173 197 0
175 198 0
175 198 0
176 199 0
174 197 0
172 196 0
175 198 0
174 198 0
173 197 0
174 197 0
176 199 0
176 199 0
174 197 0
175 198 0
174 198 0
174 198 0
174 198 0
173 197 0
173 197 0
175 198 0
175 198 0
173 197 0
176 199 0
176 199 0
174 198 0
174 197 0
175 198 0
176 199 0
172 197 0
174 198 0
174 198 0
173 197 0
174 198 0
173 197 0
175 198 0
175 198 0
174 197 0
174 198 0
174 197 0
176 199 0
175 198 0
176 199 0
176 198 0
174 198 0
174 197 0
174 198 0
177 199 0
175 198 0
174 197 0
173 197 0
174 198 0
174 198 0
175 198 0
174 198 0
175 198 0
174 198 0
175 198 0
173 197 0
174 198 0
175 198 0
175 198 0
175 198 0
173 197 0
175 198 0
172 197 0
175 198 0
174 198 0
174 197 0
174 198 0
174 198 0
175 198 0
176 199 0
174 198 0
176 198 0
173 197 0
174 197 0
173 197 0
176 199 25
174 198 0
176 199 36
177 200 51
178 200 44
179 201 72
180 202 76
178 201 67
179 202 76
180 201 67
179 201 51
175 198 36
176 199 44
175 198 36
174 197 0
173 197 0
176 199 0
174 198 0
175 198 0
175 198 0
175 198 0
175 198 0
174 197 0
175 198 0
176 199 0
175 198 0
175 198 0
176 198 0
176 199 0
175 198 0
175 198 0
173 197 0
175 198 0
176 198 0
173 197 0
176 199 0
174 198 0
176 198 0
175 198 0
176 198 0
175 198 0
174 197 0
173 197 0
173 197 0
175 198 0
175 198 0
176 199 0
174 198 0
175 198 0
174 198 0
175 198 0
176 199 0
176 199 0
176 199 0
175 198 0
176 199 0
174 198 0
175 198 0
175 198 0
174 197 0
174 198 0
176 199 0
172 196 0
175 198 0
175 198 0
175 198 0
177 199 0
174 198 0
175 198 0
175 198 0
175 198 0
175 198 0
174 198 0
175 198 0
175 198 0
175 198 0
175 198 0
175 198 0
174 198 0
174 198 0
175 198 0
175 198 0
173 197 0
176 199 0
173 197 0
175 198 0
175 198 0
174 198 0
173 197 0
174 198 0
172 197 0
174 198 0
174 197 0
173 197 0
175 198 0
174 198 0
175 198 0
173 197 0
173 197 0
175 198 0
175 198 0
174 198 0
174 198 0
174 198 0
173 197 0
173 197 0
173 197 0
175 198 0
173 197 0
175 198 0
174 198 0
175 198 0
175 198 0
176 199 0
174 198 0
176 199 0
173 197 0
173 197 0
175 198 0
172 197 0
176 199 0
174 198 0
173 197 0
174 197 0
175 198 0
174 197 0
172 197 0
175 198 0
174 198 0
175 198 0
176 198 0
176 199 0
173 197 0
172 196 0
176 199 0
174 198 0
174 198 0
174 197 0
174 198 0
173 197 0
173 197 0
172 196 0
176 199 0
174 197 0
176 198 0
174 198 0
172 196 0
175 198 0
174 198 0
175 198 0
174 198 0
174 198 0
175 198 0
174 198 0
173 197 0
173 197 0
176 198 0
173 196 0
174 198 0
175 198 0
176 198 0
175 198 0
174 197 0
173 197 0
174 197 0
174 197 0
173 197 0
174 197 0
173 196 0
172 196 0
172 196 0
173 197 0
173 197 0
173 197 0
171 195 0
174 198 0
175 197 0
174 198 0
174 197 0
174 198 0
171 195 0
174 197 0
170 193 0
173 197 0
171 195 0
176 198 0
173 197 0
174 197 0
170 195 0
170 194 0
172 195 0
173 197 0
169 192 0
173 196 18
140 165 108
65 102 175
62 99 176
62 99 181
62 99 180
62 99 181
62 99 180
61 99 181
61 99 181
62 99 181
62 99 181
61 99 181
62 99 181
61 99 181
62 99 178
61 99 180
61 98 177
62 99 180
62 98 176
78 110 164
134 152 117
156 158 52
149 143 73
147 137 81
141 133 83
145 140 92
148 144 94
147 144 95
151 147 100
154 151 102
164 161 106
161 158 107
166 164 108
170 167 111
170 165 109
169 165 108
173 169 108
175 170 110
173 168 108
169 165 105
176 168 104
173 166 106
172 165 101
167 159 96
173 164 100
169 161 92
163 153 86
163 153 80
164 165 58
170 186 28
174 197 0
173 196 0
173 196 0
174 196 0
173 197 0
173 196 0
174 197 0
174 197 0
174 197 0
174 197 0
174 197 0
174 197 0
173 196 0
173 196 0
175 198 0
174 197 0
175 198 0
174 197 0
176 199 0
172 195 0
174 198 0
174 198 0
174 197 0
174 198 0
175 198 0
174 197 0
175 198 0
174 197 0
173 197 0
173 197 0
174 197 0
174 198 0
175 198 0
175 198 0
174 198 0
175 198 0
174 198 0
173 197 0
175 198 0
175 198 0
174 197 0
173 196 0
175 198 0
174 198 0
176 198 0
174 197 0
174 197 0
175 198 0
174 197 0
173 197 0
174 198 0
173 197 0
176 199 0
173 197 0
176 199 0
175 198 0
175 198 0
173 197 0
173 197 0
173 197 0
174 197 0
175 198 0
172 197 0
173 197 0
175 198 0
173 197 0
174 198 0
173 197 0
175 198 0
174 198 0
173 197 0
174 198 0
174 198 0
175 198 0
174 197 0
175 198 0
177 199 0
173 197 0
173 197 0
175 198 0
175 198 0
175 198 0
176 199 0
174 197 0
175 198 0
175 198 0
176 198 0
174 197 0
172 197 0
173 197 0
173 197 0
173 197 0
172 196 0
174 198 0
175 198 0
174 198 0
174 197 0
174 198 0
175 198 0
173 197 0
175 198 0
174 197 0
176 199 0
174 198 0
174 198 0
175 198 0
176 199 0
173 197 0
175 198 0
173 197 0
175 198 0
174 198 0
174 197 0
175 198 0
174 198 0
175 198 0
176 199 0
174 198 0
175 198 0
174 198 0
175 198 0
173 197 0
176 199 0
175 198 0
173 197 0
173 197 0
176 198 0
174 198 0
174 198 0
175 198 0
174 198 0
174 198 0
175 198 0
175 198 0
173 197 0
175 198 0
174 198 0
174 198 0
174 198 0
174 197 0
175 198 0
173 197 0
175 198 0
174 198 0
176 199 0
175 198 0
175 198 0
175 198 0
175 198 0
176 199 0
174 198 0
174 198 0
175 198 0
174 198 0
174 197 0
176 198 0
174 197 0
176 199 0
173 197 0
174 197 0
175 198 25
175 198 0
176 199 25
179 201 67
176 199 44
175 198 25
174 198 0
174 198 0
174 198 0
173 197 0
174 198 0
175 198 0
174 198 0
175 198 0
176 199 0
174 198 0
174 198 0
176 199 0
175 198 0
175 198 0
173 197 0
173 197 0
173 197 0
174 198 0
174 198 0
173 197 0
174 197 0
176 199 0
175 198 0
173 197 0
175 198 0
176 198 0
173 197 0
175 198 0
175 198 0
175 198 0
176 198 0
175 198 0
174 198 0
174 198 0
173 197 0
175 198 0
177 199 0
173 197 0
172 197 0
174 198 0
175 198 0
175 198 0
175 198 0
176 199 0
175 198 0
175 198 0
174 198 0
172 197 0
175 198 0
173 197 0
174 198 0
174 198 0
174 198 0
174 198 0
176 199 0
176 198 0
175 198 0
176 198 0
176 199 0
174 198 0
175 198 0
173 197 0
174 197 0
175 198 0
174 198 0
175 198 0
174 198 0
175 198 0
175 198 0
175 198 0
174 198 0
176 198 0
175 198 0
176 199 0
173 197 0
175 198 0
175 198 0
175 198 0
175 198 0
174 198 0
175 198 0
175 198 0
174 197 0
176 199 0
174 198 0
175 198 0
175 198 0
174 197 0
174 197 0
174 198 0
173 197 0
174 197 0
174 198 0
174 198 0
175 198 0
173 197 0
173 197 0
175 198 0
176 199 0
173 197 0
174 198 0
175 198 0
176 198 0
173 197 0
175 198 0
172 197 0
174 198 0
172 197 0
176 198 0
174 198 0
173 197 0
175 198 0
174 198 0
175 198 0
175 198 0
175 198 0
174 198 0
175 198 0
176 198 0
174 198 0
173 197 0
175 198 0
175 198 0
175 198 0
175 198 0
173 197 0
174 198 0
174 198 0
174 197 0
174 198 0
174 198 0
175 198 0
173 197 0
174 198 0
174 197 0
174 198 0
174 198 0
174 198 0
174 198 0
173 196 0
174 197 0
173 196 0
174 197 0
172 196 0
175 198 0
176 199 0
174 198 0
174 198 0
175 198 0
174 197 0
173 197 0
174 197 0
174 198 0
173 197 0
175 198 0
172 196 0
173 197 0
174 197 0
176 199 0
174 196 0
174 198 0
174 197 0
174 197 0
173 196 0
175 198 0
173 197 0
175 198 0
173 196 0
170 194 0
175 198 0
172 195 0
173 197 0
173 196 0
172 196 0
171 195 0
171 194 0
172 195 0
173 196 0
172 195 0
171 194 0
174 197 0
172 194 0
169 193 36
121 147 135
62 99 177
62 99 181
61 99 179
61 99 179
61 99 181
62 99 181
61 98 181
62 99 181
62 99 181
62 99 181
61 99 181
61 99 181
62 99 180
62 99 180
62 99 181
62 99 181
62 99 180
61 98 177
62 99 178
61 98 177
61 97 172
112 121 125
147 138 71
147 140 80
140 134 85
138 133 84
140 137 93
152 148 99
141 138 94
151 150 102
153 149 100
164 160 107
166 162 107
170 166 107
175 170 112
174 169 108
174 170 109
175 170 110
177 171 111
173 167 103
177 170 106
174 166 100
170 163 101
173 165 98
170 161 96
168 157 86
160 149 78
157 147 80
163 163 67
161 176 27
174 197 11
174 197 0
173 195 0
174 196 0
172 196 0
174 197 0
174 197 0
174 197 0
174 197 0
175 198 0
174 198 0
174 197 0
174 198 0
173 197 0
173 196 0
175 198 0
174 197 0
173 197 0
172 195 0
175 198 0
173 197 0
174 198 0
173 197 0
175 198 0
174 197 0
175 198 0
174 198 0
173 197 0
173 197 0
174 198 0
175 198 0
174 197 0
174 197 0
174 198 0
174 198 0
176 199 0
174 197 0
175 198 0
174 198 0
175 198 0
173 197 0
174 198 0
174 198 0
174 198 0
173 197 0
173 197 0
175 197 0
174 197 0
174 197 0
174 198 0
173 197 0
176 199 0
174 197 0
174 198 0
174 198 0
174 197 0
172 197 0
176 198 0
175 198 0
173 197 0
174 197 0
174 198 0
175 198 0
174 197 0
174 198 0
174 198 0
174 197 0
176 198 0
174 197 0
175 198 0
174 198 0
174 198 0
174 198 0
174 198 0
173 197 0
174 198 0
176 199 0
174 197 0
174 198 0
174 197 0
174 197 0
175 198 0
176 198 0
173 197 0
175 198 0
174 198 0
173 197 0
173 197 0
174 198 0
176 199 0
173 197 0
174 197 0
177 199 0
176 199 0
175 198 0
173 197 0
173 197 0
174 198 0
174 198 0
174 197 0
175 198 0
174 197 0
174 197 0
173 197 0
174 198 0
174 198 0
175 198 0
174 197 0
175 198 0
174 198 0
175 198 0
175 198 0
175 198 0
173 197 0
173 197 0
174 198 0
173 197 0
173 197 0
176 199 0
174 198 0
173 197 0
175 198 0
175 198 0
174 198 0
175 198 0
174 198 0
173 197 0
174 198 0
174 198 0
175 198 0
175 198 0
174 198 0
176 199 0
176 199 0
173 197 0
173 197 0
175 198 0
173 197 0
174 198 0
175 198 0
172 197 0
173 197 0
174 197 0
175 198 0
175 198 0
175 198 0
175 198 0
175 198 0
174 198 0
174 198 0
173 197 0
173 197 0
175 198 0
175 198 0
176 198 0
174 198 0
175 198 0
175 198 0
175 198 0
174 197 0
176 199 0
175 198 0
174 198 0
174 198 0
175 198 25
175 198 0
177 199 0
176 199 0
175 198 0
175 198 0
176 198 0
176 199 0
173 197 0
175 198 0
175 198 0
175 198 0
174 198 0
174 197 0
173 197 0
175 198 0
175 198 0
174 198 0
175 198 0
174 198 0
175 198 0
173 197 0
173 197 0
175 198 0
174 198 0
174 198 0
174 198 0
174 198 0
174 198 0
174 198 0
175 198 0
176 198 0
175 198 0
173 197 0
174 198 0
174 198 0
174 197 0
174 198 0
173 197 0
175 198 0
175 198 0
174 198 0
173 197 0
175 198 0
175 198 0
174 198 0
174 198 0
175 198 0
175 198 0
175 198 0
175 198 0
174 197 0
174 198 0
175 198 0
175 198 0
175 198 0
174 198 0
174 198 0
174 197 0
175 198 0
174 197 0
175 198 0
175 198 0
173 197 0
173 197 0
175 198 0
175 198 0
177 199 0
174 197 0
173 197 0
173 197 0
175 198 0
175 198 0
174 198 0
174 197 0
175 198 0
175 198 0
175 198 0
175 198 0
173 197 0
174 198 0
175 198 0
174 197 0
175 198 0
175 198 0
174 198 0
173 197 0
174 198 0
175 198 0
175 198 0
176 198 0
176 199 0
174 198 0
174 197 0
174 197 0
174 198 0
176 199 0
175 198 0
173 197 0
173 197 0
175 198 0
175 198 0
175 198 0
175 198 0
175 198 0
176 199 0
176 199 0
174 198 0
172 196 0
173 197 0
174 198 0
173 197 0
174 198 0
175 198 0
174 198 0
175 198 0
176 198 0
173 197 0
173 197 0
176 199 0
174 198 0
172 196 0
174 198 0
175 198 0
175 198 0
174 197 0
174 198 0
176 199 0
174 197 0
175 198 0
173 197 0
174 198 0
175 198 0
176 199 0
175 198 0
174 198 0
174 198 0
174 197 0
174 197 0
173 197 0
176 199 0
173 196 0
175 198 0
176 199 0
174 197 0
174 197 0
172 196 0
173 197 0
174 197 0
175 198 0
174 197 0
175 198 0
172 196 0
174 197 0
172 197 0
175 198 0
174 197 0
174 197 0
175 198 0
174 197 0
173 196 0
171 194 0
175 197 0
175 198 0
172 196 0
173 196 0
173 196 0
171 195 0
172 196 0
173 196 0
171 194 0
173 197 0
174 197 0
172 196 0
172 196 0
172 196 0
174 197 0
174 197 0
170 194 0
172 195 0
170 194 0
172 195 0
168 192 0
175 197 0
129 154 124
64 100 168
61 98 176
62 99 178
62 99 177
62 99 178
62 99 180
62 99 180
61 99 181
61 99 181
61 99 181
61 99 179
62 99 180
61 99 181
61 99 179
61 98 177
62 99 181
62 99 180
62 99 175
61 98 176
62 98 176
62 98 175
62 98 176
62 98 171
101 111 133
126 120 75
135 126 79
128 124 82
137 135 93
132 131 89
137 137 94
143 140 93
154 152 101
155 153 103
159 156 103
168 164 102
169 165 105
173 169 108
177 170 110
173 167 103
178 171 105
175 169 103
173 168 106
173 168 102
173 165 100
174 166 96
166 158 86
166 157 86
167 156 87
159 147 79
160 154 65
166 183 26
173 195 11
175 198 0
173 196 0
172 195 0
175 197 0
173 196 0
173 197 0
174 197 0
173 196 0
173 196 0
174 197 0
172 195 0
173 197 0
175 198 0
173 197 0
174 197 0
174 197 0
175 198 0
173 197 0
174 197 0
174 197 0
175 198 0
174 197 0
174 197 0
173 197 0
173 196 0
174 197 0
175 198 0
173 197 0
175 198 0
174 197 0
174 198 0
176 199 0
176 199 0
174 197 0
175 198 0
173 196 0
173 197 0
175 198 0
175 198 0
174 198 0
173 197 0
174 198 0
174 198 0
175 198 0
174 198 0
175 198 0
174 197 0
174 197 0
174 198 0
173 197 0
175 198 0
176 198 0
174 198 0
174 198 0
175 197 0
173 197 0
175 198 0
174 197 0
174 198 0
174 197 0
173 197 0
175 198 0
174 198 0
174 197 0
173 197 0
176 199 0
174 197 0
175 198 0
175 198 0
174 198 0
174 198 0
173 197 0
175 198 0
173 197 0
173 197 0
173 197 0
175 198 0
172 196 0
175 198 0
171 196 0
174 197 0
175 198 0
174 198 0
176 199 0
174 198 0
174 197 0
175 198 0
174 197 0
175 198 0
174 198 0
174 198 0
175 198 0
175 198 0
173 197 0
176 198 0
173 197 0
175 198 0
176 198 0
173 197 0
174 197 0
177 199 0
174 198 0
176 199 0
175 198 0
174 198 0
173 197 0
174 197 0
175 198 0
175 198 0
177 199 0
175 198 0
173 197 0
174 198 0
175 198 0
174 198 0
174 198 0
174 197 0
175 198 0
175 198 0
175 198 0
175 198 0
175 198 0
174 198 0
174 198 0
174 198 0
174 198 0
174 197 0
175 198 0
175 198 0
174 198 0
175 198 0
175 198 0
176 199 0
174 197 0
174 198 0
176 199 0
173 197 0
174 198 0
174 197 0
176 199 0
174 198 0
175 198 0
173 197 0
175 198 0
175 198 0
176 199 0
174 198 0
175 198 0
174 198 0
176 199 0
174 197 0
175 198 0
176 199 0
173 197 0
177 199 0
174 198 0
175 198 0
176 199 0
174 198 0
173 197 0
175 198 0
174 198 0
175 198 0
173 197 0
174 198 0
174 198 0
175 198 0
176 198 0
176 198 0
173 197 0
175 198 0
174 197 0
172 197 0
173 197 0
176 198 0
174 197 0
174 198 0
174 198 0
173 197 0
175 198 0
175 198 0
174 198 0
173 197 0
176 199 0
175 198 0
173 197 0
174 198 0
174 198 0
174 197 0
176 199 0
174 197 0
174 198 0
175 198 0
175 198 0
174 198 0
176 199 0
174 198 0
174 198 0
174 198 0
176 198 0
176 199 0
176 199 0
174 197 0
174 198 0
176 199 0
173 197 0
175 198 0
175 198 0
174 198 0
175 198 0
176 199 0
175 198 0
176 199 0
174 198 0
174 198 0
175 198 0
174 197 0
174 197 0
173 197 0
174 198 0
174 198 0
174 198 0
173 197 0
174 198 0
175 198 0
175 198 0
175 198 0
175 198 0
174 198 0
176 199 0
173 197 0
175 198 0
174 197 0
174 197 0
174 198 0
174 197 0
175 198 0
176 199 0
176 199 0
173 197 0
174 198 0
175 198 0
176 199 0
174 197 0
173 197 0
175 198 0
174 197 0
173 197 0
175 198 0
174 197 0
174 198 0
174 198 0
173 197 0
175 198 0
175 198 0
174 198 0
175 198 0
173 197 0
175 198 0
174 198 0
174 197 0
174 198 0
174 198 0
174 198 0
175 198 0
175 197 0
174 198 0
175 198 0
174 197 0
173 197 0
175 198 0
176 199 0
174 197 0
172 197 0
174 197 0
175 198 0
172 196 0
175 198 0
175 198 0
174 197 0
173 197 0
175 198 0
173 197 0
173 197 0
173 197 0
174 198 0
176 199 0
174 197 0
174 198 0
174 197 0
174 198 0
176 199 0
175 198 0
175 198 0
175 198 0
175 198 0
175 198 0
174 197 0
174 198 0
175 198 0
175 198 0
175 198 0
175 198 0
173 197 0
174 197 0
175 198 0
174 197 0
174 197 0
173 196 0
175 198 0
174 197 0
174 197 0
175 198 0
176 198 0
175 198 0
175 198 0
174 198 0
175 198 0
172 196 0
173 197 0
174 197 0
176 198 0
172 196 0
174 198 0
172 195 0
174 197 0
173 196 0
173 197 0
172 196 0
173 196 0
172 196 0
173 196 0
175 198 0
172 195 0
174 197 0
172 195 0
172 196 0
172 195 0
173 196 0
173 196 0
171 194 0
172 195 0
170 193 0
172 196 0
170 194 0
172 196 0
137 161 110
66 102 170
62 99 170
61 98 172
62 99 178
62 99 179
63 100 180
62 99 180
63 100 180
62 99 180
62 99 181
62 99 181
62 99 180
62 99 179
62 99 180
62 99 180
61 98 179
63 99 177
62 99 180
62 99 180
62 99 177
62 99 177
62 99 178
62 99 177
62 98 169
72 100 160
109 108 99
115 111 73
113 111 75
114 112 76
118 119 83
132 131 86
137 136 93
147 145 98
151 148 95
158 156 98
165 161 102
167 164 104
171 166 101
174 168 105
172 166 98
174 168 101
173 166 101
173 167 101
173 166 98
173 165 96
172 165 98
171 163 93
167 157 88
166 156 86
161 150 76
160 153 65
165 176 36
171 193 0
172 195 0
174 196 0
175 198 0
173 197 0
171 195 0
171 194 0
172 194 0
174 197 0
173 195 0
173 196 0
174 197 0
175 198 0
173 197 0
174 197 0
173 196 0
175 198 0
172 196 0
173 197 0
174 198 0
175 198 0
175 198 0
174 198 0
174 198 0
174 197 0
175 198 0
174 197 0
174 197 0
174 198 0
176 199 0
174 198 0
173 196 0
173 196 0
175 198 0
174 197 0
172 196 0
175 198 0
175 198 0
173 197 0
172 196 0
174 198 0
174 198 0
173 197 0
173 197 0
175 198 0
174 197 0
174 197 0
174 198 0
174 198 0
175 198 0
174 197 0
175 198 0
174 198 0
174 197 0
174 198 0
173 197 0
174 197 0
176 199 0
174 197 0
174 198 0
173 196 0
174 198 0
174 197 0
173 197 0
175 198 0
173 196 0
174 197 0
174 198 0
174 198 0
174 198 0
173 197 0
174 197 0
174 197 0
174 198 0
175 198 0
173 197 0
174 198 0
174 198 0
175 198 0
174 197 0
175 198 0
174 198 0
175 198 0
175 198 0
174 197 0
175 198 0
174 198 0
175 198 0
174 198 0
175 198 0
176 198 0
174 197 0
175 198 0
175 198 0
174 198 0
176 199 0
173 197 0
174 198 0
175 198 0
175 198 0
174 198 0
174 198 0
176 199 0
176 199 0
175 198 0
173 197 0
174 198 0
173 197 0
174 197 0
175 198 0
175 198 0
175 198 0
176 198 0
174 198 0
174 197 0
174 198 0
173 197 0
175 198 0
175 198 0
176 199 0
176 199 0
175 198 0
176 199 0
174 198 0
175 198 0
175 198 0
175 198 0
175 198 0
175 198 0
174 198 0
175 198 0
174 198 0
175 198 0
175 198 0
175 198 0
174 197 0
175 198 0
175 198 0
174 198 0
176 198 0
175 198 0
175 198 0
174 198 0
173 197 0
175 198 0
176 198 0
174 197 0
174 197 0
174 198 0
175 198 0
174 198 0
174 198 0
176 199 0
176 199 0
174 198 0
176 199 0
174 197 0
174 198 0
174 198 0
174 198 0
174 198 0
174 197 0
175 198 0
175 198 0
174 198 0
174 198 0
175 198 0
175 198 0
174 198 0
173 197 0
175 198 0
174 198 0
174 198 0
176 199 0
175 198 0
174 198 0
175 198 0
174 197 0
177 199 0
175 198 0
173 197 0
175 198 0
174 197 0
175 198 0
175 198 0
175 198 0
175 198 0
174 198 0
173 197 0
174 198 0
174 198 0
175 198 0
176 199 0
173 197 0
174 198 0
174 198 0
174 198 0
174 198 0
176 199 0
175 198 0
176 199 0
176 199 0
174 197 0
175 198 0
175 198 0
175 198 0
175 198 0
175 198 0
175 198 0
175 198 0
174 198 0
174 198 0
175 198 0
176 198 0
175 198 0
174 198 0
174 198 0
173 197 0
175 198 0
174 197 0
174 197 0
175 198 0
174 197 0
172 197 0
174 198 0
174 198 0
174 198 0
173 197 0
176 198 0
175 198 0
174 197 0
174 198 0
173 197 0
174 197 0
174 197 0
175 198 0
175 198 0
174 197 0
176 198 0
174 198 0
174 197 0
173 197 0
174 198 0
175 198 0
176 199 0
174 198 0
175 198 0
176 198 0
173 197 0
174 197 0
175 198 0
173 197 0
172 197 0
173 197 0
174 198 0
174 198 0
174 198 0
173 197 0
175 198 0
176 199 0
174 197 0
176 198 0
175 198 0
175 198 0
173 197 0
174 198 0
175 198 0
174 197 0
174 197 0
174 198 0
175 198 0
174 197 0
175 198 0
174 198 0
175 198 0
175 198 0
175 198 0
174 198 0
172 196 0
173 196 0
173 197 0
176 199 0
176 198 0
175 198 0
173 197 0
174 198 0
175 198 0
175 198 0
174 197 0
173 196 0
175 198 0
175 198 0
175 198 0
174 198 0
174 197 0
175 198 0
173 197 0
173 197 0
175 198 0
174 198 0
175 198 0
176 199 0
174 197 0
175 197 0
173 197 0
173 196 0
176 199 0
175 198 0
175 198 0
175 198 0
175 198 0
173 197 0
175 198 0
174 198 0
174 197 0
170 195 0
174 197 0
175 198 0
173 197 0
173 197 0
174 197 0
175 198 0
174 197 0
174 197 0
170 194 0
173 197 0
173 197 0
172 196 0
172 195 0
171 195 0
172 196 0
173 196 0
173 197 0
173 196 0
172 195 0
173 197 0
172 195 0
172 195 0
170 193 0
172 195 0
171 195 0
173 196 0
170 195 0
171 194 0
169 193 0
172 195 0
164 188 47
71 104 164
61 98 167
61 98 175
62 99 173
61 98 177
62 99 175
62 99 180
62 99 179
62 99 177
62 99 179
62 99 178
62 99 179
61 98 179
62 99 181
62 99 181
62 99 179
62 99 180
63 99 179
62 99 175
62 99 175
62 99 177
62 99 177
62 98 176
61 98 169
62 99 175
62 98 171
69 95 148
104 104 80
103 101 68
91 92 65
109 112 77
116 116 77
131 129 86
133 132 85
151 149 93
163 158 99
160 156 98
161 157 97
172 166 102
172 167 102
175 170 103
170 164 97
174 167 97
171 165 94
173 167 98
172 164 91
164 155 79
167 157 85
166 155 87
160 151 78
160 150 69
163 157 70
161 168 41
173 195 16
174 196 0
175 197 0
174 196 0
172 195 0
172 195 0
173 196 0
173 196 0
173 196 0
174 197 0
175 196 0
174 196 0
174 197 0
172 195 0
174 197 0
173 195 0
175 197 0
174 198 0
172 195 0
173 197 0
173 196 0
174 197 0
174 197 0
173 197 0
175 198 0
174 197 0
173 196 0
175 198 0
174 197 0
175 197 0
174 197 0
173 196 0
174 197 0
174 198 0
175 198 0
175 198 0
172 195 0
175 198 0
174 198 0
176 199 0
175 198 0
175 198 0
175 198 0
174 197 0
173 197 0
173 197 0
176 199 0
174 198 0
174 198 0
174 198 0
174 197 0
174 198 0
176 198 0
175 198 0
172 197 0
174 198 0
174 198 0
174 198 0
175 198 0
174 198 0
174 197 0
172 197 0
173 197 0
174 197 0
175 198 0
174 198 0
175 198 0
174 197 0
176 199 0
174 198 0
175 198 0
174 198 0
174 198 0
174 198 0
173 197 0
174 198 0
174 198 0
175 198 0
173 197 0
174 198 0
175 198 0
175 198 0
174 197 0
175 198 0
174 198 0
175 198 0
173 197 0
174 198 0
176 198 0
175 198 0
174 198 0
176 198 0
176 198 0
174 197 0
174 197 0
174 198 0
174 198 0
175 198 0
173 197 0
175 198 0
175 198 0
174 198 0
174 198 0
176 198 0
176 199 0
175 198 0
173 197 0
175 198 0
175 198 0
175 198 0
173 197 0
175 198 0
176 199 0
174 198 0
174 197 0
174 197 0
175 198 0
176 198 0
174 198 0
174 198 0
175 198 0
173 197 0
175 198 0
175 198 0
174 198 0
172 197 0
175 198 0
173 197 0
175 198 0
174 198 0
176 199 0
174 197 0
175 198 0
176 198 0
174 198 0
174 198 0
176 198 0
176 199 0
174 198 0
174 198 0
175 198 0
174 198 0
174 198 0
173 197 0
174 197 0
174 198 0
176 198 0
175 198 0
176 199 0
175 198 0
174 198 0
174 197 0
174 198 0
175 198 0
175 198 0
174 197 0
175 198 0
174 198 0
174 198 0
175 198 0
175 198 0
174 198 0
175 198 0
175 198 0
175 198 0
174 198 0
174 198 0
174 198 0
177 199 0
174 197 0
174 198 0
175 198 0
174 198 0
175 198 0
173 197 0
175 198 0
174 197 0
174 198 0
174 198 0
175 198 0
175 198 0
174 198 0
173 197 0
174 198 0
175 198 0
176 199 0
176 199 0
173 197 0
176 199 0
176 198 0
175 198 0
174 198 0
175 198 0
173 197 0
175 198 0
174 197 0
175 198 0
175 198 0
174 197 0
175 198 0
174 198 0
173 197 0
175 198 0
175 198 0
175 198 0
174 198 0
175 197 0
175 198 0
175 198 0
175 198 0
176 199 0
173 197 0
173 197 0
173 197 0
175 198 0
174 198 0
173 197 0
174 198 0
175 198 0
174 197 0
174 198 0
176 199 0
175 198 0
174 198 0
174 198 0
174 198 0
174 197 0
174 198 0
175 198 0
174 197 0
174 197 0
176 199 0
176 199 0
175 198 0
174 197 0
176 198 0
175 198 0
175 198 0
174 197 0
174 197 0
174 198 0
174 198 0
175 198 0
175 198 0
175 198 0
174 198 0
176 198 0
175 198 0
175 198 0
174 198 0
175 198 0
175 198 0
175 198 0
173 197 0
175 198 0
172 197 0
173 197 0
175 198 0
174 198 0
175 198 0
173 197 0
175 198 0
176 198 0
175 198 0
174 198 0
174 198 0
172 196 0
174 197 0
174 197 0
175 198 0
174 198 0
175 198 0
173 197 0
173 196 0
174 197 0
175 198 0
173 197 0
174 198 0
174 198 0
174 198 0
175 198 0
175 198 0
176 198 0
175 198 0
175 198 0
173 196 0
175 198 0
175 198 0
173 196 0
173 197 0
174 197 0
174 197 0
173 197 0
175 198 0
174 198 0
174 198 0
175 198 0
173 197 0
174 198 0
175 198 0
175 198 0
175 198 0
174 197 0
174 198 0
173 197 0
174 197 0
175 198 0
174 198 0
174 197 0
172 195 0
174 197 0
172 196 0
172 196 0
172 196 0
173 197 0
174 197 0
173 197 0
174 197 0
175 198 0
174 198 0
174 197 0
176 198 0
174 197 0
172 195 0
173 197 0
174 197 0
171 195 0
171 194 0
172 196 0
175 198 0
172 196 0
173 196 0
174 197 0
172 196 0
173 197 0
173 196 0
172 195 0
171 195 0
171 195 0
173 196 0
174 197 0
170 193 0
173 197 0
171 195 0
170 193 0
169 192 18
116 142 124
63 99 174
62 98 168
62 99 173
62 99 175
62 99 178
62 99 175
62 99 178
62 99 180
62 99 179
62 99 178
62 99 178
62 99 181
62 99 179
62 99 177
62 99 179
61 98 175
63 99 178
62 99 178
61 98 171
62 99 178
62 99 172
62 99 173
62 98 169
62 98 172
62 99 174
62 98 165
61 95 157
69 90 133
76 76 54
93 93 63
102 105 73
118 118 77
125 124 81
139 137 89
142 140 88
150 147 93
158 155 97
163 159 94
170 165 96
176 169 101
172 166 94
172 165 91
175 167 95
177 168 96
170 163 93
170 163 94
170 162 91
172 164 93
164 155 80
160 151 75
158 148 72
161 156 65
167 182 32
171 191 0
172 194 0
172 194 0
172 195 0
173 195 0
174 196 0
172 195 0
171 193 0
175 198 0
175 198 0
173 196 0
173 197 0
174 198 0
174 197 0
174 198 0
176 199 0
173 197 0
174 196 0
173 196 0
175 197 0
173 196 0
175 198 0
173 197 0
173 196 0
175 197 0
173 197 0
175 198 0
173 197 0
174 197 0
175 198 0
175 198 0
173 197 0
174 198 0
174 197 0
174 197 0
174 197 0
175 198 0
174 198 0
175 198 0
174 196 0
173 197 0
174 198 0
175 198 0
172 197 0
174 197 0
174 197 0
174 197 0
175 198 0
174 197 0
175 198 0
174 198 0
175 198 0
175 198 0
175 198 0
175 198 0
173 197 0
173 197 0
175 198 0
174 198 0
173 197 0
174 198 0
175 198 0
174 197 0
174 198 0
174 198 0
175 198 0
172 196 0
176 199 0
175 198 0
174 197 0
174 198 0
176 199 0
175 198 0
174 198 0
174 198 0
173 197 0
174 197 0
175 198 0
175 198 0
173 197 0
174 197 0
174 198 0
173 197 0
175 198 0
175 198 0
173 197 0
176 199 0
174 198 0
174 198 0
175 198 0
174 198 0
175 198 0
174 198 0
174 198 0
174 198 0
173 197 0
175 198 0
176 199 0
173 197 0
174 198 0
175 198 0
175 198 0
173 197 0
173 197 0
175 198 0
175 198 0
175 198 0
174 198 0
174 198 0
174 198 0
174 198 0
173 197 0
173 197 0
176 199 0
178 199 0
175 198 0
176 198 0
175 198 0
175 198 0
174 198 0
176 198 0
175 198 0
174 198 0
175 198 0
175 198 0
175 198 0
176 198 0
176 199 0
174 197 0
174 198 0
175 198 0
175 198 0
175 198 0
175 198 0
175 198 0
175 198 0
174 198 0
175 198 0
176 199 0
173 197 0
176 198 0
175 198 0
174 198 0
173 197 0
175 198 0
174 198 0
174 198 0
174 198 0
174 198 0
172 197 0
174 198 0
175 198 0
173 197 0
177 199 0
174 198 0
175 198 0
173 197 0
174 198 0
176 199 0
176 198 0
174 198 0
174 198 0
174 198 0
177 199 0
176 199 0
175 198 0
174 197 0
175 198 0
176 198 0
175 198 0
174 198 0
174 198 0
174 197 0
176 198 0
174 198 0
176 199 0
174 198 0
174 198 0
174 198 0
175 198 0
174 198 0
173 197 0
173 197 0
175 198 0
176 198 0
175 198 0
175 198 0
175 198 0
174 198 0
176 199 0
176 199 0
176 199 0
174 197 0
176 199 0
174 198 0
174 197 0
174 197 0
174 198 0
175 198 0
174 198 0
174 198 0
175 198 0
174 198 0
175 198 0
174 198 0
173 197 0
174 198 0
174 198 0
175 198 0
174 197 0
174 197 0
175 198 0
173 197 0
174 197 0
175 198 0
176 198 0
176 198 0
175 198 0
175 198 0
174 198 0
174 198 0
175 198 0
175 198 0
176 199 0
174 198 0
173 197 0
174 197 0
174 198 0
172 197 0
174 198 0
175 198 0
175 198 0
175 198 0
174 198 0
175 198 0
174 198 0
176 198 0
175 198 0
176 198 0
176 199 0
174 198 0
173 197 0
174 198 0
174 198 0
175 198 0
175 198 0
174 198 0
176 198 0
174 197 0
175 198 0
174 198 0
172 197 0
175 198 0
175 198 0
174 198 0
175 198 0
176 199 0
175 198 0
173 197 0
174 197 0
174 197 0
174 198 0
176 199 0
175 198 0
174 197 0
173 197 0
174 197 0
174 197 0
174 198 0
172 196 0
174 197 0
175 198 0
175 198 0
176 198 0
175 198 0
174 198 0
174 198 0
174 198 0
173 197 0
173 197 0
174 198 0
175 198 0
172 197 0
175 198 0
174 198 0
172 196 0
173 197 0
173 196 0
175 198 0
176 199 0
174 197 0
175 197 0
176 198 0
172 196 0
174 198 0
175 198 0
174 197 0
173 197 0
174 197 0
175 198 0
174 198 0
175 198 0
174 197 0
175 198 0
173 196 0
174 198 0
173 197 0
174 198 0
174 198 0
175 198 0
173 196 0
174 197 0
172 196 0
175 198 0
173 197 0
174 197 0
175 198 0
172 195 0
174 197 0
174 197 0
172 196 0
174 197 0
172 196 0
171 195 0
173 197 0
169 193 0
172 196 0
172 196 0
173 196 0
171 195 0
172 196 0
173 197 0
171 195 0
172 196 0
171 195 0
171 193 0
173 196 0
173 196 0
170 192 0
172 194 0
170 195 0
173 196 0
171 194 0
171 193 0
173 195 0
158 181 70
65 100 156
62 98 165
62 99 177
62 99 174
62 99 179
63 99 173
62 99 176
62 99 179
62 99 175
62 99 179
63 100 178
62 99 175
63 100 180
63 99 177
62 99 175
63 100 177
62 99 177
62 99 178
62 99 177
62 99 174
62 99 172
62 99 174
62 98 171
62 99 173
63 99 173
61 98 172
62 98 173
61 97 163
61 92 144
86 86 70
81 80 52
93 95 63
101 104 69
120 120 70
128 127 80
150 146 85
148 145 83
154 150 86
163 159 96
168 162 97
170 164 92
172 165 91
173 166 93
174 166 95
169 162 86
173 166 89
171 163 88
169 160 84
166 157 80
164 155 72
157 148 72
161 150 69
159 157 49
164 177 28
174 196 0
170 192 0
173 195 0
168 191 0
173 195 0
173 195 0
172 195 0
173 194 0
172 196 0
174 196 0
174 196 0
173 196 0
174 196 0
173 196 0
174 198 0
175 198 0
175 197 0
174 198 0
174 197 0
173 196 0
173 197 0
173 195 0
175 198 0
174 196 0
173 197 0
175 198 0
175 198 0
174 198 0
174 197 0
175 198 0
174 197 0
174 197 0
176 199 0
176 198 0
175 198 0
173 197 0
174 198 0
174 197 0
175 198 0
174 197 0
174 197 0
173 197 0
174 198 0
175 198 0
173 197 0
173 197 0
175 198 0
175 198 0
175 198 0
173 197 0
174 198 0
174 198 0
173 197 0
176 198 0
174 198 0
174 197 0
175 198 0
173 196 0
175 198 0
174 198 0
175 198 0
174 198 0
173 197 0
173 197 0
174 197 0
174 197 0
174 198 0
174 197 0
175 198 0
173 197 0
175 198 0
174 198 0
175 198 0
175 198 0
174 197 0
176 198 0
175 198 0
174 197 0
174 198 0
175 198 0
176 199 0
173 197 0
173 197 0
173 197 0
176 198 0
175 198 0
176 199 0
175 198 0
174 197 0
174 198 0
175 198 0
174 198 0
175 198 0
176 199 0
174 198 0
175 198 0
174 198 0
175 198 0
175 198 0
173 197 0
176 199 0
174 198 0
176 198 0
176 198 0
174 197 0
173 197 0
176 199 0
173 197 0
176 199 0
173 197 0
174 198 0
175 198 0
174 198 0
174 198 0
174 198 0
175 198 0
174 197 0
173 197 0
175 198 0
174 197 0
175 198 0
176 199 0
174 198 0
175 198 0
175 198 0
176 199 0
175 198 0
174 198 0
175 198 0
175 198 0
175 198 0
176 199 0
174 198 0
175 198 0
173 197 0
174 198 0
174 198 0
175 198 0
175 198 0
176 198 0
173 197 0
174 198 0
175 198 0
173 197 0
172 196 0
176 199 0
174 197 0
174 197 0
175 198 0
175 198 0
173 197 0
174 198 0
174 197 0
174 198 0
175 198 0
176 199 0
175 198 0
175 198 0
174 198 0
176 199 0
175 198 0
177 199 0
176 199 0
174 198 0
176 199 0
173 197 0
173 197 0
175 198 0
175 198 0
174 198 0
175 198 0
174 197 0
174 198 0
173 197 0
174 198 0
175 198 0
174 197 0
174 197 0
175 198 0
173 197 0
173 197 0
175 198 0
175 198 0
175 198 0
174 198 0
173 197 0
175 198 0
175 198 0
174 197 0
174 198 0
175 198 0
174 197 0
176 199 0
174 198 0
175 198 0
174 198 0
176 199 0
175 198 0
174 198 0
175 198 0
175 198 0
174 198 0
175 198 0
175 198 0
174 198 0
174 198 0
173 197 0
175 198 0
174 198 0
173 197 0
175 198 0
174 197 0
174 198 0
175 198 0
174 198 0
174 198 0
173 197 0
173 197 0
175 198 0
175 198 0
175 198 0
175 198 0
175 198 0
175 198 0
176 198 0
175 198 0
175 198 0
174 198 0
175 198 0
173 197 0
174 197 0
174 197 0
174 198 0
175 198 0
174 198 0
174 198 0
174 197 0
176 198 0
174 198 0
174 197 0
175 198 0
173 197 0
175 198 0
174 197 0
173 197 0
174 197 0
173 197 0
173 197 0
175 198 0
174 198 0
174 198 0
174 198 0
174 197 0
173 197 0
174 197 0
174 197 0
174 198 0
171 196 0
173 197 0
174 198 0
175 198 0
173 197 0
174 198 0
172 196 0
175 198 0
173 197 0
175 198 0
173 196 0
173 197 0
174 198 0
173 197 0
173 197 0
173 197 0
174 197 0
174 198 0
174 198 0
175 198 0
173 196 0
175 198 0
174 198 0
174 198 0
172 196 0
176 198 0
175 198 0
174 198 0
175 198 0
174 198 0
173 197 0
173 197 0
174 198 0
172 196 0
174 197 0
174 198 0
173 197 0
174 197 0
174 197 0
174 197 0
174 197 0
172 196 0
174 197 0
174 197 0
175 198 0
173 197 0
175 198 0
174 197 0
172 196 0
173 197 0
175 198 0
173 196 0
174 198 0
171 196 0
174 197 0
173 197 0
175 198 0
173 196 0
174 197 0
175 198 0
172 195 0
174 197 0
173 196 0
174 197 0
172 196 0
173 197 0
172 196 0
171 195 0
171 195 0
171 195 0
173 196 0
175 198 0
173 196 0
171 194 0
173 196 0
172 195 0
173 196 0
173 196 0
173 196 0
172 195 0
169 192 0
171 194 0
173 196 0
172 195 0
169 191 0
168 190 0
171 193 0
167 188 0
129 155 114
62 98 157
63 99 171
62 98 168
62 98 173
62 98 169
62 99 171
62 98 173
63 99 177
62 99 173
62 98 173
63 100 179
62 99 176
62 99 173
62 99 177
63 99 175
62 99 175
63 100 176
61 98 170
62 99 173
62 99 175
63 99 174
61 98 171
62 98 173
62 99 169
61 98 170
62 98 167
62 98 169
62 98 167
61 95 163
66 81 112
72 73 49
85 86 52
80 84 55
121 121 73
130 128 71
141 138 74
148 145 82
156 152 84
159 154 84
164 158 90
165 159 88
169 161 86
172 166 88
165 159 77
171 163 90
170 161 84
168 160 79
165 155 75
165 156 80
156 145 64
158 148 71
153 144 59
160 164 46
168 185 16
170 192 0
173 194 0
171 194 0
172 192 0
172 195 0
171 195 0
174 196 0
174 196 0
172 195 0
173 196 0
172 196 0
174 195 0
174 198 0
174 197 0
171 194 0
172 195 0
171 194 0
175 197 0
172 195 0
173 197 0
172 195 0
174 196 0
174 196 0
174 198 0
174 197 0
173 196 0
173 197 0
175 198 0
174 198 0
174 198 0
173 197 0
172 196 0
173 197 0
175 198 0
175 198 0
175 197 0
175 198 0
174 198 0
175 198 0
174 197 0
174 197 0
175 198 0
174 197 0
173 197 0
174 197 0
174 198 0
172 196 0
174 197 0
175 197 0
174 198 0
176 199 0
173 197 0
175 198 0
172 196 0
174 197 0
174 198 0
174 197 0
174 198 0
174 197 0
175 198 0
175 198 0
175 198 0
174 198 0
174 198 0
173 197 0
175 198 0
173 197 0
175 198 0
175 198 0
175 198 0
173 196 0
173 197 0
173 197 0
173 197 0
174 197 0
173 197 0
172 197 0
175 198 0
172 197 0
177 199 0
173 197 0
174 198 0
175 198 0
174 198 0
174 198 0
174 198 0
174 198 0
175 198 0
174 198 0
173 197 0
175 198 0
174 197 0
172 197 0
172 197 0
173 197 0
176 199 0
174 197 0
174 198 0
174 197 0
175 198 0
174 198 0
175 198 0
174 198 0
175 198 0
175 198 0
174 198 0
174 197 0
174 198 0
176 198 0
174 198 0
173 197 0
176 199 0
175 198 0
175 198 0
174 198 0
174 197 0
173 197 0
173 197 0
173 197 0
176 198 0
175 198 0
174 198 0
174 198 0
174 198 0
175 198 0
175 198 0
175 198 0
174 198 0
174 198 0
175 198 0
174 198 0
175 198 0
176 199 0
174 198 0
175 198 0
175 198 0
174 197 0
175 198 0
174 198 0
175 198 0
174 198 0
175 198 0
175 198 0
175 198 0
175 198 0
174 197 0
175 198 0
176 198 0
174 198 0
175 198 0
176 199 0
175 198 0
174 198 0
174 198 0
175 198 0
173 197 0
175 198 0
173 197 0
176 198 0
174 197 0
174 198 0
173 197 0
175 198 0
176 199 0
175 198 0
173 197 0
175 198 0
174 198 0
175 198 0
174 198 0
174 198 0
175 198 0
175 198 0
175 198 0
176 199 0
175 198 0
174 198 0
173 197 0
176 199 0
175 198 0
173 197 0
174 198 0
173 197 0
175 198 0
173 197 0
173 197 0
174 198 0
174 197 0
174 198 0
174 198 0
174 198 0
173 197 0
172 197 0
174 198 0
175 198 0
175 198 0
175 198 0
173 197 0
174 198 0
175 198 0
174 198 0
175 198 0
176 199 0
175 198 0
174 197 0
176 199 0
174 197 0
175 198 0
175 198 0
175 198 0
175 198 0
175 198 0
174 198 0
174 198 0
174 198 0
177 199 0
175 198 0
173 197 0
174 197 0
175 198 0
174 197 0
175 198 0
176 199 0
174 198 0
175 198 0
175 198 0
174 198 0
174 197 0
174 198 0
173 197 0
174 198 0
175 198 0
175 198 0
174 198 0
175 198 0
175 198 0
174 197 0
173 197 0
174 198 0
174 197 0
174 198 0
173 197 0
174 198 0
172 197 0
175 198 0
175 198 0
176 199 0
175 198 0
175 198 0
174 198 0
174 197 0
174 198 0
176 198 0
176 199 0
174 197 0
174 198 0
174 197 0
176 198 0
173 197 0
173 197 0
173 197 0
174 198 0
174 198 0
175 198 0
174 198 0
174 197 0
173 197 0
174 198 0
174 198 0
176 199 0
173 197 0
174 197 0
175 198 0
173 197 0
174 198 0
173 197 0
175 198 0
173 197 0
174 197 0
173 197 0
175 198 0
174 197 0
174 197 0
174 198 0
173 197 0
176 198 0
174 197 0
175 198 0
174 197 0
173 197 0
175 198 0
173 197 0
175 198 0
174 198 0
173 197 0
174 197 0
173 197 0
174 197 0
175 198 0
173 197 0
172 196 0
173 197 0
174 197 0
175 198 0
173 196 0
173 196 0
172 196 0
173 197 0
173 197 0
174 197 0
173 196 0
172 196 0
174 198 0
173 197 0
173 196 0
173 197 0
172 195 0
173 197 0
171 196 0
173 196 0
174 197 0
172 195 0
176 198 0
173 197 0
172 195 0
171 195 0
173 197 0
171 195 0
174 197 0
172 195 0
173 196 0
171 194 0
171 196 0
171 194 0
171 194 0
171 193 0
170 194 0
169 192 0
173 196 0
168 191 0
170 193 0
170 193 0
169 192 0
171 194 0
171 195 0
94 123 143
62 99 167
62 99 173
63 99 167
62 99 171
63 100 179
62 99 173
62 99 178
62 99 176
62 99 174
63 100 179
63 99 175
62 99 175
62 99 175
62 98 173
61 99 178
62 98 172
62 99 174
62 99 178
63 99 176
62 99 173
63 100 175
62 99 172
62 99 173
62 99 171
62 99 173
62 98 167
62 98 167
62 98 164
61 95 156
69 91 136
73 73 44
93 92 52
109 108 58
110 109 56
124 122 70
135 132 72
151 147 79
149 146 78
165 158 84
160 155 84
165 158 81
173 166 95
165 158 77
164 156 75
167 161 83
167 159 80
163 155 77
163 152 71
167 157 72
158 147 72
151 139 63
151 145 52
163 174 41
171 192 2
170 192 0
171 193 0
172 193 0
174 195 0
173 195 0
173 195 0
173 197 0
172 196 0
174 196 0
172 194 0
172 195 0
173 196 0
174 195 0
174 197 0
173 196 0
173 195 0
175 198 0
174 197 0
175 197 0
174 197 0
175 198 0
174 196 0
173 196 0
173 196 0
174 197 0
174 197 0
174 198 0
174 197 0
172 196 0
173 196 0
174 198 0
174 197 0
174 198 0
174 198 0
175 198 0
173 197 0
173 197 0
174 197 0
173 197 0
174 197 0
174 198 0
174 198 0
174 198 0
174 197 0
174 198 0
174 198 0
175 198 0
175 198 0
173 197 0
177 199 0
174 197 0
175 198 0
173 197 0
175 198 0
173 197 0
175 198 0
175 198 0
174 198 0
173 197 0
174 198 0
176 199 0
174 198 0
174 198 0
175 198 0
173 197 0
174 198 0
174 198 0
172 196 0
174 198 0
172 196 0
174 197 0
174 198 0
173 197 0
173 197 0
175 198 0
174 198 0
173 197 0
175 198 0
175 198 0
175 198 0
174 198 0
175 198 0
174 197 0
174 197 0
176 198 0
176 199 0
174 198 0
176 199 0
174 198 0
175 198 0
176 199 0
173 197 0
175 198 0
174 197 0
174 197 0
174 198 0
175 198 0
173 197 0
174 197 0
172 197 0
174 198 0
173 197 0
173 197 0
175 198 0
174 198 0
175 198 0
175 198 0
176 198 0
174 198 0
174 197 0
173 196 0
174 197 0
174 198 0
175 198 0
176 199 0
174 198 0
175 198 0
175 198 0
173 197 0
174 198 0
173 197 0
175 198 0
174 198 0
174 198 0
174 197 0
174 197 0
174 198 0
176 199 0
174 198 0
173 197 0
173 197 0
174 198 0
174 198 0
174 198 0
173 197 0
174 198 0
175 198 0
176 198 0
175 198 0
174 198 0
175 198 0
174 197 0
174 198 0
174 198 0
174 197 0
175 198 0
175 198 0
175 198 0
173 197 0
175 198 0
174 198 0
175 198 0
175 198 0
173 197 0
174 198 0
174 198 0
174 198 0
174 198 0
177 199 0
174 197 0
173 197 0
174 198 0
175 198 0
174 198 0
175 198 0
174 197 0
174 198 0
176 198 0
175 198 0
174 198 0
174 198 0
174 197 0
174 198 0
174 198 0
176 199 0
176 198 0
176 199 0
176 199 0
173 197 0
175 198 0
174 198 0
175 198 0
175 198 0
174 198 0
175 198 0
174 198 0
172 197 0
175 198 0
173 197 0
176 198 0
176 199 0
175 198 0
175 198 0
175 198 0
176 199 0
175 198 0
174 198 0
175 198 0
175 198 0
174 198 0
175 198 0
175 198 0
175 198 0
175 198 0
175 198 0
175 198 0
176 198 0
174 198 0
175 198 0
174 198 0
175 198 0
175 198 0
175 198 0
173 197 0
175 198 0
174 198 0
176 199 0
175 198 0
174 197 0
174 197 0
174 197 0
174 198 0
172 196 0
174 197 0
174 197 0
174 197 0
174 198 0
174 198 0
175 198 0
176 198 0
175 198 0
175 198 0
174 198 0
175 198 0
173 197 0
174 198 0
175 198 0
174 198 0
174 197 0
175 198 0
174 198 0
176 199 0
175 198 0
174 198 0
173 197 0
175 198 0
173 197 0
176 199 0
174 197 0
174 198 0
174 197 0
175 198 0
175 198 0
174 198 0
175 198 0
174 198 0
175 198 0
173 197 0
175 198 0
175 198 0
174 198 0
176 199 0
173 197 0
174 197 0
173 197 0
174 197 0
174 197 0
174 198 0
175 198 0
174 198 0
173 197 0
174 198 0
173 197 0
176 198 0
176 199 0
173 197 0
174 197 0
175 198 0
175 198 0
175 198 0
177 199 0
175 198 0
175 198 0
176 198 0
176 198 0
173 197 0
175 198 0
175 197 0
174 198 0
176 199 0
173 197 0
174 197 0
174 197 0
173 197 0
174 197 0
175 198 0
175 198 0
173 197 0
175 198 0
174 197 0
176 199 0
173 197 0
174 197 0
174 197 0
173 197 0
173 196 0
173 196 0
174 198 0
176 198 0
172 196 0
174 197 0
174 197 0
173 196 0
175 198 0
173 197 0
174 197 0
172 195 0
173 197 0
175 198 0
171 195 0
174 198 0
173 196 0
172 195 0
172 196 0
172 196 0
173 197 0
173 197 0
174 197 0
170 193 0
171 194 0
172 196 0
170 194 0
169 193 0
169 193 0
169 192 0
169 193 0
167 191 0
171 195 0
166 189 0
170 194 0
168 192 0
170 193 0
168 192 0
168 192 0
161 185 40
68 102 155
62 98 164
62 98 166
62 99 169
62 98 169
62 98 168
62 99 175
62 98 173
63 99 172
62 99 175
62 98 173
62 99 175
63 99 177
62 99 176
62 99 171
62 99 174
63 99 174
62 99 174
62 99 172
62 99 169
62 99 172
62 99 171
62 98 164
62 99 170
62 98 169
62 98 164
62 98 169
62 98 164
63 99 167
62 97 162
59 92 144
71 70 48
74 76 37
83 83 45
121 120 67
133 129 64
135 130 63
134 131 69
146 143 67
156 151 76
163 156 83
163 156 79
162 156 78
167 158 78
162 153 69
162 156 67
163 155 74
159 151 65
155 145 60
154 146 60
158 146 62
155 148 56
156 153 41
167 181 30
171 192 11
173 194 0
172 193 0
170 192 0
172 193 0
171 193 0
171 193 0
168 190 0
171 191 0
172 194 0
172 196 0
171 193 0
173 195 0
174 198 0
172 195 0
174 196 0
173 196 0
173 196 0
174 198 0
174 198 0
175 198 0
173 197 0
174 197 0
173 196 0
173 196 0
174 197 0
174 197 0
174 198 0
173 197 0
173 197 0
173 197 0
174 196 0
174 197 0
174 198 0
174 198 0
175 198 0
174 197 0
174 198 0
174 197 0
173 197 0
174 197 0
173 197 0
172 196 0
173 197 0
175 198 0
175 198 0
175 198 0
174 198 0
173 196 0
173 197 0
173 197 0
175 198 0
175 198 0
175 198 0
175 198 0
175 198 0
174 197 0
175 198 0
173 196 0
174 198 0
174 197 0
173 197 0
175 198 0
175 198 0
173 197 0
174 198 0
175 198 0
176 199 0
173 197 0
174 197 0
174 198 0
175 198 0
176 199 0
175 198 0
175 198 0
174 198 0
174 198 0
174 198 0
174 198 0
174 198 0
174 198 0
176 199 0
175 198 0
175 198 0
173 197 0
175 198 0
175 198 0
176 198 0
175 198 0
174 197 0
172 196 0
176 199 0
175 198 0
175 198 0
176 199 0
175 198 0
175 198 0
175 198 0
175 198 0
172 197 0
176 199 0
174 197 0
175 198 0
174 197 0
174 198 0
174 198 0
174 198 0
174 198 0
175 198 0
174 198 0
175 198 0
176 198 0
176 198 0
176 198 0
175 198 0
173 197 0
173 197 0
174 197 0
175 198 0
173 197 0
175 198 0
174 198 0
175 198 0
175 198 0
172 197 0
173 197 0
175 198 0
174 198 0
175 198 0
175 198 0
175 198 0
173 197 0
174 198 0
175 198 0
176 198 0
173 197 0
175 198 0
174 198 0
176 199 0
175 198 0
175 198 0
175 198 0
175 198 0
176 199 0
174 198 0
176 199 0
174 198 0
174 198 0
175 198 0
175 198 0
174 197 0
177 199 0
175 198 0
173 197 0
174 197 0
176 198 0
175 198 0
173 197 0
174 198 0
174 198 0
176 198 0
175 198 0
175 198 0
175 198 0
175 198 0
175 198 0
175 198 0
175 198 0
175 198 0
174 197 0
175 198 0
176 199 0
175 198 0
175 198 0
174 197 0
174 197 0
175 198 0
175 198 0
174 198 0
173 197 0
176 198 0
174 198 0
175 198 0
176 199 0
173 197 0
173 197 0
174 198 0
174 197 0
175 198 0
174 198 0
173 197 0
174 197 0
174 198 0
175 198 0
175 198 0
174 197 0
174 198 0
174 198 0
173 197 0
175 198 0
174 197 0
174 198 0
174 198 0
175 198 0
175 198 0
176 199 0
176 199 0
174 198 0
174 197 0
175 198 0
173 197 0
174 198 0
174 198 0
173 197 0
173 197 0
175 198 0
174 197 0
175 198 0
175 198 0
174 197 0
173 197 0
174 198 0
175 198 0
173 197 0
174 197 0
175 198 0
174 198 0
175 198 0
176 199 0
175 198 0
175 198 0
174 198 0
173 197 0
173 197 0
174 198 0
174 198 0
174 197 0
176 198 0
175 198 0
174 197 0
174 197 0
176 198 0
174 198 0
175 198 0
174 198 0
176 199 0
174 198 0
174 197 0
173 197 0
174 198 0
175 198 0
173 197 0
173 197 0
175 198 0
175 198 0
174 198 0
174 197 0
174 198 0
173 197 0
173 197 0
173 197 0
175 198 0
176 198 0
174 198 0
174 197 0
174 198 0
173 197 0
172 196 0
173 197 0
177 199 0
173 197 0
174 198 0
173 197 0
174 198 0
174 197 0
175 198 0
174 198 0
172 196 0
175 198 0
175 198 0
176 198 0
174 197 0
173 197 0
174 198 0
174 197 0
173 196 0
172 196 0
172 196 0
173 197 0
174 198 0
175 198 0
175 198 0
173 197 0
173 197 0
174 197 0
174 197 0
174 198 0
172 196 0
174 197 0
174 198 0
173 197 0
173 196 0
175 198 0
174 197 0
174 197 0
171 194 0
174 198 0
174 197 0
172 196 0
172 196 0
173 196 0
172 196 0
171 195 0
173 197 0
172 195 0
173 197 0
175 198 0
169 193 0
170 194 0
176 198 0
173 197 0
175 197 0
173 197 0
172 195 0
172 196 0
169 192 0
173 196 0
173 196 0
171 195 0
172 196 0
172 195 0
172 195 0
168 191 0
171 195 0
168 190 25
172 195 25
170 194 25
171 194 0
174 197 36
172 194 25
166 189 0
170 194 0
167 189 0
168 192 0
165 187 0
153 176 62
62 97 160
62 98 166
62 98 165
62 98 170
61 97 163
61 98 175
62 98 168
62 99 173
62 99 172
62 98 174
63 99 173
62 98 169
62 99 170
62 99 174
62 99 175
62 98 169
62 98 166
63 99 174
62 98 172
62 99 173
61 98 171
62 99 172
61 98 164
63 99 168
62 99 169
62 99 167
62 97 156
62 98 168
63 98 163
61 96 154
59 93 142
80 83 80
88 84 39
100 96 42
116 114 46
123 121 60
120 119 59
138 133 63
149 143 66
145 140 68
160 153 67
157 152 72
156 149 61
161 153 66
164 158 73
158 150 64
158 151 66
160 150 64
161 151 67
154 142 65
154 144 59
158 153 50
158 164 33
169 187 16
171 191 0
171 193 0
171 192 0
170 190 0
171 190 0
173 194 0
172 193 0
172 195 0
170 190 0
171 195 0
175 197 0
172 195 0
174 196 0
172 195 0
175 197 0
173 196 0
173 196 0
173 197 0
174 196 0
172 195 0
174 196 0
174 197 0
173 196 0
174 197 0
174 197 0
176 198 0
174 197 0
174 197 0
174 197 0
174 197 0
174 197 0
173 197 0
173 197 0
174 196 0
174 197 0
174 198 0
174 197 0
174 196 0
175 198 0
174 197 0
175 198 0
173 197 0
174 197 0
174 197 0
174 197 0
176 198 0
175 198 0
174 197 0
176 198 0
176 198 0
175 198 0
173 197 0
174 198 0
175 197 0
174 197 0
173 197 0
174 198 0
176 198 0
174 198 0
174 198 0
174 198 0
176 199 0
173 197 0
174 197 0
175 198 0
175 198 0
175 198 0
175 198 0
175 198 0
175 198 0
174 198 0
175 198 0
173 197 0
174 198 0
174 198 0
173 197 0
175 198 0
176 199 0
175 198 0
173 197 0
173 197 0
175 198 0
174 198 0
174 197 0
172 197 0
174 198 0
173 197 0
174 197 0
175 198 0
174 198 0
174 197 0
174 197 0
174 198 0
173 197 0
173 197 0
174 197 0
174 197 0
175 198 0
175 198 0
174 198 0
174 198 0
175 198 0
174 197 0
174 198 0
174 197 0
175 198 0
175 198 0
176 198 0
173 197 0
174 198 0
173 197 0
176 198 0
175 198 0
174 198 0
173 197 0
175 198 0
173 197 0
175 198 0
174 198 0
174 198 0
175 198 0
172 197 0
174 198 0
175 198 0
174 198 0
176 199 0
175 198 0
175 198 0
174 197 0
174 198 0
174 198 0
172 197 0
175 198 0
173 197 0
175 198 0
174 197 0
174 198 0
174 197 0
175 198 0
176 199 0
174 198 0
174 198 0
175 198 0
175 198 0
174 197 0
175 198 0
175 198 0
174 197 0
175 198 0
175 198 0
174 197 0
173 197 0
174 198 0
175 198 0
175 198 0
174 198 0
176 198 0
175 198 0
174 198 0
174 197 0
174 198 0
174 198 0
174 198 0
175 198 0
175 198 0
175 198 0
175 198 0
176 198 0
174 198 0
176 199 0
176 199 0
174 197 0
176 198 0
175 198 0
175 198 0
174 198 0
173 197 0
174 197 0
173 197 0
174 198 0
176 199 0
176 198 0
176 199 0
176 198 0
175 198 0
174 198 0
173 197 0
175 198 0
175 198 0
175 198 0
176 198 0
174 198 0
174 198 0
175 198 0
175 198 0
174 198 0
174 197 0
174 198 0
176 199 0
174 198 0
176 199 0
173 197 0
174 198 0
174 198 0
173 197 0
173 197 0
174 197 0
175 198 0
175 198 0
173 197 0
174 198 0
175 198 0
174 197 0
175 198 0
175 198 0
174 198 0
174 198 0
175 198 0
173 197 0
174 198 0
174 198 0
173 197 0
173 197 0
174 198 0
174 198 0
173 197 0
174 197 0
174 198 0
175 198 0
173 197 0
175 198 0
175 198 0
174 198 0
175 198 0
174 198 0
175 198 0
173 197 0
174 198 0
174 198 0
175 197 0
174 197 0
175 198 0
175 198 0
174 197 0
174 198 0
173 197 0
175 198 0
175 198 0
174 197 0
174 198 0
173 197 0
175 198 0
175 198 0
173 197 0
173 197 0
176 199 0
173 197 0
175 198 0
174 198 0
176 199 0
175 198 0
174 198 0
176 199 0
174 197 0
175 198 0
173 197 0
176 199 0
175 198 0
174 197 0
174 198 0
174 198 0
174 198 0
174 198 0
176 198 0
174 198 0
174 198 0
172 197 0
175 198 0
173 196 0
174 198 0
175 198 0
173 197 0
173 197 0
174 198 0
174 198 0
175 198 0
173 197 0
176 199 0
173 197 0
174 197 0
174 198 0
173 197 0
174 197 0
173 197 0
173 197 0
175 198 0
176 199 0
172 196 0
176 198 0
174 198 0
172 196 0
172 195 0
174 197 0
174 197 0
175 198 0
175 198 0
172 196 0
173 197 0
174 198 0
171 195 0
175 198 0
172 196 0
174 198 0
173 196 0
172 196 0
172 195 0
173 196 0
173 196 0
171 195 0
172 196 0
175 198 0
168 191 0
173 196 0
172 196 0
173 197 0
171 195 0
172 196 0
172 195 0
172 195 0
174 197 0
173 196 0
168 192 0
172 195 25
173 196 51
175 197 62
169 193 25
175 198 62
177 200 62
172 195 44
171 193 67
171 194 44
171 194 67
167 189 0
172 195 36
165 189 0
144 167 90
61 97 149
62 98 159
62 98 162
62 98 169
62 98 172
62 98 167
62 99 170
62 99 174
62 99 173
62 99 168
63 99 174
62 99 175
62 98 170
63 99 174
63 99 172
62 99 174
62 98 168
62 98 164
61 98 167
62 99 176
62 98 164
62 99 172
62 98 166
61 97 157
62 99 168
61 97 155
62 98 166
61 97 155
61 96 152
62 97 155
60 94 143
76 83 83
89 86 29
104 100 31
109 107 34
117 114 43
130 123 41
144 138 61
143 137 61
153 146 66
147 142 62
162 153 66
159 153 62
155 147 60
154 145 62
168 157 77
160 151 60
161 151 62
156 147 53
154 143 52
146 137 40
157 153 47
166 176 27
168 185 0
170 189 0
169 188 0
171 193 0
170 192 0
171 189 0
171 192 0
171 194 0
170 192 0
170 190 0
175 197 0
172 195 0
173 195 0
173 195 0
171 193 0
172 194 0
174 196 0
173 196 0
174 196 0
170 194 0
173 195 0
173 196 0
173 196 0
174 197 0
173 197 0
173 196 0
173 196 0
174 197 0
174 198 0
173 197 0
174 197 0
172 196 0
174 198 0
174 197 0
173 197 0
174 198 0
173 197 0
175 198 0
174 197 0
173 196 0
174 198 0
174 197 0
173 197 0
172 196 0
176 199 0
176 198 0
175 198 0
176 198 0
174 198 0
174 198 0
174 198 0
174 197 0
174 198 0
175 198 0
173 197 0
174 198 0
172 196 0
173 197 0
174 198 0
174 198 0
172 196 0
173 197 0
175 198 0
174 198 0
175 198 0
174 197 0
175 198 0
175 198 0
173 197 0
174 198 0
175 198 0
175 198 0
174 198 0
173 197 0
174 197 0
173 197 0
175 198 0
174 198 0
174 198 0
174 197 0
175 198 0
175 198 0
172 196 0
175 198 0
174 197 0
175 198 0
174 198 0
175 198 0
172 196 0
173 197 0
174 197 0
174 198 0
176 199 0
173 197 0
174 198 0
175 198 0
175 198 0
174 198 0
175 198 0
173 197 0
174 198 0
173 197 0
176 199 0
174 197 0
173 197 0
175 198 0
175 198 0
175 198 0
173 197 0
174 198 0
176 198 0
175 198 0
175 198 0
175 198 0
173 197 0
176 198 0
173 197 0
175 198 0
173 197 0
174 197 0
174 197 0
174 198 0
174 197 0
175 198 0
177 199 0
176 199 0
174 198 0
174 198 0
174 198 0
175 198 0
173 197 0
175 198 0
176 199 0
174 198 0
175 198 0
174 198 0
175 198 0
176 199 0
174 198 0
175 198 0
175 198 0
174 198 0
174 198 0
174 198 0
175 198 0
175 198 0
173 197 0
174 198 0
175 198 0
175 198 0
174 198 0
176 198 0
174 198 0
174 197 0
176 198 0
175 198 0
174 197 0
175 198 0
174 198 0
174 198 0
174 198 0
175 198 0
174 198 0
174 198 0
175 198 0
176 199 0
174 198 0
175 198 0
175 198 0
174 198 0
174 198 0
174 197 0
174 198 0
176 199 0
174 197 0
173 197 0
175 198 0
174 198 0
174 198 0
175 198 0
174 198 0
175 198 0
176 199 0
175 198 0
174 197 0
175 198 0
175 198 0
175 198 0
174 197 0
174 198 0
172 197 0
175 198 0
174 198 0
174 197 0
175 198 0
173 197 0
175 198 0
177 199 0
174 198 0
176 198 0
174 197 0
174 198 0
174 198 0
174 197 0
173 197 0
175 198 0
175 198 0
174 197 0
175 198 0
175 198 0
176 198 0
175 198 0
175 198 0
174 198 0
176 199 0
173 197 0
175 198 0
173 197 0
174 198 0
175 198 0
173 197 0
175 198 0
172 197 0
174 198 0
174 198 0
175 198 0
176 199 0
174 198 0
174 198 0
175 198 0
174 197 0
175 198 0
174 198 0
175 198 0
175 198 0
174 197 0
175 198 0
175 198 0
175 198 0
174 198 0
175 198 0
175 198 0
174 198 0
175 198 0
174 198 0
174 198 0
173 197 0
174 197 0
173 197 0
176 199 0
177 199 0
175 198 0
175 198 0
174 198 0
174 198 0
173 197 0
173 196 0
175 198 0
174 197 0
177 199 0
175 198 0
175 198 0
175 198 0
174 198 0
175 198 0
174 197 0
175 198 0
174 198 0
173 197 0
175 198 0
173 197 0
175 198 0
171 196 0
172 197 0
173 197 0
174 197 0
175 198 0
173 197 0
174 198 0
176 199 0
173 197 0
176 199 0
173 197 0
175 198 0
172 196 0
173 197 0
174 198 0
173 196 0
173 197 0
175 198 0
175 198 0
171 195 0
175 198 0
175 197 0
174 197 0
172 196 0
174 197 0
173 197 0
175 198 0
174 197 0
174 198 0
174 197 0
173 196 0
173 197 0
173 196 0
169 194 0
173 197 0
172 196 0
172 196 0
174 197 0
174 197 0
174 197 0
173 197 0
172 196 0
170 194 0
173 196 0
173 197 0
174 197 0
172 196 0
175 197 0
171 195 0
174 197 0
173 196 0
169 192 0
174 197 0
176 198 0
172 196 0
174 197 0
170 193 0
171 194 0
170 193 0
177 200 62
176 199 57
178 200 92
178 200 99
178 200 88
181 202 108
183 204 122
184 205 122
186 206 125
186 206 128
177 198 88
178 199 102
170 192 57
168 190 44
170 192 54
139 163 102
65 99 149
62 98 161
61 97 157
61 97 159
62 98 162
60 96 168
61 97 164
60 96 160
61 98 165
62 98 165
62 98 168
62 98 169
62 99 172
62 99 168
62 98 166
61 97 162
62 98 162
62 98 164
62 99 169
62 99 172
62 98 163
63 99 169
63 99 169
62 98 164
61 97 159
62 97 156
61 97 158
61 97 161
60 96 149
59 93 140
61 96 147
76 83 70
103 96 20
95 88 24
122 114 41
115 110 43
115 114 45
133 127 53
134 128 55
142 136 60
148 141 53
151 142 50
145 137 48
150 142 53
157 149 56
155 146 61
155 147 50
151 141 45
148 138 38
149 141 44
154 152 38
162 171 31
166 183 12
168 183 0
168 187 0
168 187 0
171 189 0
172 195 0
171 191 0
170 189 0
172 192 0
170 192 0
170 191 0
171 193 0
173 195 0
174 196 0
172 193 0
172 195 0
172 194 0
173 196 0
174 197 0
174 197 0
172 195 0
173 195 0
174 196 0
173 197 0
174 197 0
174 196 0
173 197 0
174 196 0
174 197 0
174 197 0
172 196 0
174 198 0
175 198 0
172 196 0
174 197 0
174 197 0
173 197 0
173 196 0
173 197 0
174 197 0
174 197 0
175 198 0
175 198 0
174 197 0
173 197 0
172 196 0
176 198 0
175 197 0
174 197 0
174 198 0
173 197 0
175 198 0
176 199 0
175 198 0
176 199 0
176 198 0
174 197 0
175 198 0
177 199 0
174 197 0
174 198 0
173 196 0
175 198 0
172 197 0
174 198 0
175 198 0
172 196 0
174 198 0
174 198 0
175 198 0
175 198 0
173 197 0
174 198 0
173 197 0
174 197 0
175 198 0
175 198 0
176 199 0
173 197 0
174 197 0
175 198 0
175 198 0
175 198 0
175 198 0
175 198 0
175 198 0
174 198 0
175 198 0
172 197 0
174 197 0
174 197 0
174 198 0
176 198 0
175 198 0
174 198 0
174 198 0
176 198 0
175 198 0
173 197 0
175 198 0
174 198 0
176 199 0
174 198 0
175 198 0
174 198 0
173 197 0
172 197 0
174 198 0
174 198 0
175 198 0
175 198 0
174 198 0
174 198 0
174 197 0
173 197 0
174 198 0
176 198 0
175 198 0
175 198 0
174 198 0
175 198 0
176 198 0
176 199 0
174 197 0
173 197 0
174 197 0
173 197 0
174 198 0
175 198 0
174 198 0
174 197 0
174 197 0
174 198 0
175 198 0
174 197 0
176 199 0
175 198 0
175 198 0
173 197 0
173 197 0
174 197 0
175 198 0
175 198 0
175 198 0
173 197 0
175 198 0
175 198 0
175 198 0
175 198 0
172 197 0
175 198 0
174 198 0
174 198 0
175 198 0
175 198 0
175 198 0
175 198 0
174 197 0
174 198 0
174 198 0
175 198 0
175 198 0
175 198 0
175 198 0
174 197 0
175 198 0
175 198 0
173 197 0
174 198 0
176 198 0
177 199 0
174 198 0
175 198 0
173 197 0
174 198 0
175 198 0
174 198 0
174 198 0
175 198 0
174 198 0
175 198 0
174 197 0
174 198 0
175 198 0
173 197 0
173 197 0
174 198 0
175 198 0
175 198 0
176 199 0
175 198 0
175 198 0
175 198 0
173 197 0
175 198 0
174 197 0
174 198 0
173 197 0
175 198 0
174 198 0
176 199 0
177 199 0
175 198 0
174 198 0
176 199 0
174 198 0
174 198 0
176 199 0
173 197 0
173 197 0
173 197 0
175 198 0
176 199 0
175 198 0
173 197 0
175 198 0
175 198 0
174 198 0
174 198 0
176 199 0
174 197 0
175 198 0
173 197 0
174 198 0
176 199 0
174 198 0
175 198 0
175 198 0
174 198 0
175 198 0
172 197 0
175 198 0
174 198 0
174 197 0
175 198 0
176 198 0
174 197 0
174 198 0
174 197 0
172 197 0
175 198 0
173 197 0
174 198 0
171 195 0
174 198 0
174 198 0
175 198 0
175 198 0
176 198 0
175 198 0
174 198 0
173 197 0
174 197 0
173 197 0
172 197 0
173 197 0
174 198 0
173 197 0
175 198 0
175 198 0
174 197 0
173 197 0
174 197 0
175 198 0
174 198 0
173 197 0
175 198 0
176 198 0
174 198 0
174 197 0
175 198 0
175 198 0
176 199 0
176 198 0
174 198 0
174 197 0
174 198 0
173 197 0
175 198 0
173 197 0
174 198 0
174 197 0
173 196 0
175 198 0
174 198 0
175 198 0
173 197 0
173 196 0
173 197 0
173 197 0
175 198 0
173 197 0
173 197 0
173 197 0
173 197 0
173 197 0
174 197 0
174 197 0
173 197 0
173 197 0
173 196 0
175 198 0
176 198 0
173 197 0
173 197 0
174 197 0
171 194 0
174 198 0
174 197 0
174 197 0
174 197 0
172 196 0
175 197 0
173 197 0
175 198 0
175 197 0
172 195 0
174 198 0
173 196 0
172 196 0
173 197 0
173 196 0
171 196 0
170 194 0
170 193 0
173 196 0
171 194 0
171 195 0
170 194 0
172 196 36
175 198 57
174 197 62
177 199 92
182 203 114
181 203 114
185 206 135
191 211 159
189 209 155
192 212 161
194 213 165
194 214 171
191 210 161
194 213 163
186 205 142
188 208 144
182 203 125
160 182 102
123 146 131
82 111 151
70 104 160
63 98 159
61 98 167
62 99 166
60 96 155
60 96 165
61 97 169
62 98 167
61 97 164
61 97 165
62 98 161
61 98 163
62 99 170
62 98 166
62 99 171
61 97 159
62 99 171
61 97 159
62 98 161
62 98 165
62 97 157
62 98 165
62 98 164
62 99 166
62 98 159
61 97 154
61 97 152
62 97 159
60 94 145
60 95 149
83 90 88
97 86 8
98 93 22
109 102 33
108 103 32
126 121 33
122 115 35
137 130 47
142 136 46
145 137 49
147 141 43
142 137 32
153 144 44
152 144 44
152 144 51
144 134 38
153 142 50
146 135 36
154 148 36
158 163 25
160 171 12
171 191 0
171 188 0
161 178 0
170 189 0
169 187 0
172 193 0
173 193 0
173 193 0
170 191 0
170 192 0
171 193 0
173 196 0
172 194 0
172 194 0
172 195 0
167 189 0
174 196 0
173 194 0
174 196 0
171 194 0
174 195 0
174 197 0
175 197 0
174 197 0
174 197 0
173 197 0
175 198 0
173 196 0
173 197 0
173 197 0
173 195 0
174 197 0
174 198 0
174 197 0
175 197 0
174 197 0
173 197 0
174 198 0
171 196 0
173 197 0
173 197 0
174 197 0
174 198 0
173 196 0
174 197 0
174 197 0
174 197 0
173 197 0
173 197 0
173 197 0
174 197 0
174 197 0
174 198 0
174 197 0
174 198 0
174 198 0
175 198 0
175 198 0
174 198 0
175 198 0
175 198 0
173 197 0
173 197 0
175 198 0
174 198 0
175 198 0
173 197 0
175 197 0
174 198 0
174 197 0
174 197 0
173 197 0
175 198 0
174 198 0
175 198 0
175 198 0
175 198 0
174 197 0
174 197 0
174 198 0
174 198 0
173 197 0
174 198 0
175 197 0
175 198 0
173 197 0
175 198 0
176 198 0
174 198 0
174 198 0
174 198 0
174 197 0
174 198 0
175 198 0
174 198 0
175 198 0
175 198 0
174 198 0
174 198 0
174 197 0
175 198 0
175 198 0
174 198 0
174 197 0
175 198 0
174 198 0
175 198 0
174 197 0
175 198 0
175 198 0
174 197 0
175 198 0
176 199 0
175 198 0
175 198 0
175 198 0
173 197 0
176 199 0
176 199 0
175 198 0
175 198 0
174 198 0
173 197 0
174 197 0
174 198 0
175 198 0
173 197 0
173 197 0
176 199 0
176 198 0
176 199 0
176 199 0
175 198 0
175 198 0
174 198 0
173 197 0
174 198 0
174 198 0
174 198 0
174 198 0
174 198 0
173 197 0
175 198 0
175 198 0
175 198 0
174 198 0
174 198 0
175 198 0
174 198 0
175 198 0
173 197 0
175 198 0
174 198 0
174 198 0
174 197 0
174 198 0
175 198 0
176 199 0
173 197 0
174 198 0
176 199 0
176 199 0
174 198 0
174 197 0
174 198 0
174 198 0
175 198 0
174 198 0
175 198 0
175 198 0
174 198 0
175 198 0
174 198 0
173 197 0
174 198 0
175 198 0
174 198 0
174 198 0
174 197 0
172 197 0
174 198 0
175 198 0
173 197 0
176 198 0
173 197 0
174 198 0
174 198 0
173 197 0
175 198 0
175 198 0
174 198 0
175 198 0
173 197 0
175 198 0
175 198 0
173 197 0
174 197 0
176 198 0
175 198 0
176 199 0
174 198 0
174 197 0
174 197 0
173 197 0
175 198 0
174 198 0
174 198 0
176 199 0
175 198 0
173 197 0
174 197 0
174 197 0
175 198 0
173 197 0
174 198 0
174 197 0
173 197 0
174 198 0
176 198 0
175 198 0
176 198 0
175 198 0
174 198 0
175 198 0
175 198 0
174 197 0
174 197 0
174 197 0
175 198 0
175 198 0
176 199 0
175 198 0
174 198 0
173 197 0
175 198 0
175 198 0
173 197 0
173 197 0
177 199 0
173 197 0
174 197 0
174 198 0
174 197 0
175 198 0
175 198 0
174 198 0
176 199 0
175 198 0
177 199 0
174 198 0
174 198 0
175 198 0
176 198 0
174 198 0
175 198 0
176 198 0
175 198 0
174 198 0
174 198 0
173 197 0
172 196 0
174 198 0
174 198 0
174 198 0
175 198 0
176 199 0
175 198 0
175 198 0
173 197 0
175 198 0
174 197 0
175 198 0
175 198 0
175 198 0
174 197 0
174 197 0
172 196 0
175 198 0
175 198 0
175 198 0
175 198 0
176 198 0
175 198 0
175 198 0
175 198 0
175 198 0
174 197 0
174 198 0
174 198 0
174 198 0
174 198 0
173 197 0
173 196 0
174 198 0
173 197 0
173 197 0
174 198 0
174 197 0
173 197 0
174 197 0
172 196 0
173 196 0
173 197 0
173 196 0
172 196 0
172 196 0
172 196 0
173 196 0
173 197 0
173 197 0
176 198 0
174 198 0
173 196 0
174 197 0
173 197 0
174 198 0
173 196 0
172 195 0
175 197 0
170 194 0
174 197 0
174 197 0
172 196 0
173 195 0
173 196 0
171 196 0
169 193 0
174 197 44
174 197 36
178 200 84
179 201 99
185 206 130
189 209 149
196 215 181
197 216 179
199 218 193
195 214 186
206 224 221
200 219 207
199 219 204
203 222 212
203 222 217
207 225 224
199 218 194
199 217 199
192 212 171
165 185 170
132 155 174
87 116 164
71 104 155
65 100 156
61 97 162
62 98 167
61 96 159
61 97 165
62 98 167
62 99 169
61 97 161
61 98 160
62 98 157
61 97 160
62 99 168
62 99 163
62 98 164
61 97 152
62 98 165
62 98 160
61 97 164
61 97 155
61 97 156
62 99 168
62 98 156
61 97 160
61 97 151
61 97 158
61 96 150
60 96 144
61 96 146
59 92 129
98 99 54
100 90 19
101 93 11
110 98 14
112 106 18
125 119 28
123 114 28
130 120 34
126 118 25
138 129 39
142 133 34
144 136 34
143 133 38
143 133 36
139 125 28
145 133 37
142 131 32
142 133 30
155 157 28
164 175 0
163 178 0
168 184 0
169 187 0
166 182 0
169 189 0
168 187 0
169 188 0
169 189 0
170 191 0
171 193 0
169 191 0
169 188 0
171 194 0
170 192 0
173 196 0
171 195 0
171 191 0
169 192 0
173 196 0
171 194 0
173 196 0
174 197 0
174 196 0
171 194 0
171 195 0
173 196 0
173 196 0
173 196 0
173 196 0
172 196 0
175 198 0
173 196 0
173 196 0
174 197 0
174 197 0
174 197 0
175 197 0
175 198 0
174 197 0
175 198 0
175 198 0
173 197 0
174 197 0
175 198 0
173 196 0
175 198 0
174 197 0
173 197 0
174 198 0
173 197 0
173 197 0
176 198 0
173 197 0
174 198 0
174 198 0
174 198 0
174 197 0
175 198 0
173 196 0
174 198 0
174 197 0
175 198 0
174 196 0
176 199 0
174 198 0
174 198 0
174 197 0
175 198 0
173 197 0
174 198 0
174 197 0
173 197 0
174 197 0
175 198 0
174 197 0
175 198 0
174 197 0
174 198 0
174 197 0
175 198 0
175 198 0
174 197 0
174 198 0
174 197 0
174 197 0
174 197 0
174 197 0
175 198 0
175 198 0
175 198 0
174 198 0
174 198 0
176 198 0
173 197 0
174 197 0
175 198 0
173 197 0
174 197 0
176 199 0
176 198 0
175 198 0
173 196 0
176 198 0
175 198 0
172 197 0
174 197 0
173 196 0
175 198 0
176 198 0
174 197 0
174 198 0
174 198 0
175 197 0
175 198 0
175 198 0
176 199 0
174 197 0
175 198 0
176 198 0
174 197 0
174 198 0
175 198 0
176 198 0
174 198 0
178 200 0
175 198 0
176 199 0
174 198 0
175 198 0
174 197 0
175 198 0
173 197 0
176 199 0
175 198 0
176 199 0
173 197 0
174 198 0
174 198 0
174 198 0
173 197 0
174 198 0
175 198 0
174 198 0
174 198 0
174 198 0
175 198 0
174 198 0
175 198 0
174 197 0
174 198 0
175 198 0
175 198 0
175 198 0
174 198 0
175 198 0
174 197 0
174 197 0
174 197 0
175 198 0
175 198 0
174 198 0
175 198 0
176 198 0
176 198 0
174 198 0
175 198 0
174 197 0
174 197 0
173 197 0
174 198 0
173 197 0
176 199 0
173 197 0
175 198 0
174 198 0
174 197 0
174 198 0
177 199 0
176 199 0
175 198 0
174 198 0
175 198 0
176 199 0
174 198 0
173 197 0
174 198 0
174 198 0
175 198 0
174 198 0
173 197 0
175 198 0
175 198 0
175 198 0
175 198 0
174 198 0
175 198 0
174 198 0
174 198 0
175 198 0
174 198 0
174 198 0
174 198 0
174 198 0
174 198 0
176 198 0
174 198 0
175 198 0
175 198 0
174 198 0
175 198 0
173 197 0
174 197 0
176 199 0
173 197 0
176 198 0
175 198 0
175 198 0
175 198 0
175 198 0
173 197 0
174 197 0
172 197 0
173 197 0
174 197 0
174 198 0
174 197 0
174 198 0
175 198 0
174 198 0
174 198 0
174 198 0
174 197 0
175 198 0
176 199 0
175 198 0
174 198 0
175 198 0
175 198 0
173 197 0
173 197 0
173 197 0
175 198 0
174 198 0
174 198 0
174 198 0
175 198 0
174 197 0
175 198 0
174 198 0
176 199 0
174 198 0
174 197 0
175 198 0
175 198 0
175 198 0
175 198 0
174 197 0
174 198 0
174 198 0
174 197 0
175 198 0
175 198 0
173 197 0
175 198 0
171 195 0
174 198 0
175 198 0
173 197 0
173 197 0
174 197 0
175 198 0
174 197 0
175 198 0
174 197 0
175 198 0
174 197 0
174 198 0
175 198 0
175 198 0
174 198 0
173 197 0
174 197 0
173 197 0
172 196 0
176 198 0
174 197 0
174 198 0
173 197 0
174 198 0
175 198 0
173 197 0
174 197 0
174 198 0
175 198 0
173 197 0
175 198 0
174 197 0
174 197 0
174 198 0
175 198 0
173 197 0
173 197 0
174 197 0
173 196 0
174 197 0
173 197 0
174 197 0
176 199 0
175 198 0
173 196 0
170 194 0
175 198 0
172 196 0
171 196 0
172 196 0
174 197 0
173 196 0
170 194 0
174 197 0
173 196 0
173 196 0
171 194 0
171 195 0
173 196 0
172 195 0
171 194 0
170 193 25
168 192 0
172 195 57
178 200 67
182 203 105
187 208 142
190 210 163
194 214 181
199 218 189
205 223 223
205 223 217
209 227 233
211 228 238
203 221 221
205 223 212
207 225 227
208 225 226
204 222 211
206 224 221
209 226 227
200 218 217
165 185 209
124 147 193
120 143 182
87 115 157
68 102 157
76 108 164
60 96 157
59 94 150
60 96 153
61 98 167
61 97 158
61 97 158
61 97 157
61 97 159
61 97 160
62 99 171
62 98 166
62 98 161
62 98 161
61 97 158
63 99 162
61 96 157
62 98 163
61 97 156
62 97 150
62 98 161
62 98 159
62 97 149
62 98 156
62 97 155
61 96 150
62 96 152
62 95 139
111 109 52
118 111 4
114 106 3
109 96 15
118 108 27
125 115 4
123 114 28
131 120 19
127 116 16
127 115 23
135 126 23
147 133 35
142 133 25
136 124 24
134 122 16
141 134 26
142 136 13
152 154 24
158 167 11
160 173 0
164 178 0
163 176 0
167 185 0
168 185 0
167 186 0
169 188 0
169 187 0
167 185 0
171 190 0
170 190 0
171 192 0
169 189 0
172 193 0
169 190 0
169 190 0
170 192 0
171 194 0
171 193 0
173 195 0
174 196 0
173 196 0
174 197 0
172 194 0
173 196 0
173 196 0
174 196 0
174 197 0
173 195 0
173 197 0
171 195 0
174 197 0
175 197 0
174 197 0
173 196 0
174 197 0
174 197 0
172 196 0
174 197 0
173 196 0
175 198 0
174 197 0
173 197 0
175 198 0
173 196 0
174 197 0
174 198 0
175 198 0
176 198 0
173 196 0
174 197 0
174 198 0
173 197 0
173 197 0
174 198 0
174 197 0
174 197 0
175 198 0
174 197 0
174 197 0
174 198 0
174 198 0
173 197 0
174 198 0
175 198 0
175 198 0
173 197 0
175 198 0
173 197 0
173 197 0
175 198 0
173 197 0
176 199 0
175 198 0
173 197 0
176 198 0
174 198 0
173 197 0
174 197 0
174 198 0
175 198 0
173 197 0
174 197 0
175 198 0
174 198 0
174 197 0
177 199 0
174 197 0
174 197 0
173 197 0
175 198 0
174 198 0
175 198 0
173 197 0
174 198 0
174 197 0
174 198 0
175 198 0
174 198 0
174 198 0
175 198 0
174 198 0
173 196 0
174 197 0
174 198 0
176 198 0
174 198 0
174 198 0
175 198 0
174 198 0
172 197 0
175 198 0
176 199 0
175 198 0
173 197 0
174 197 0
175 198 0
177 199 0
174 197 0
173 197 0
174 198 0
173 197 0
173 197 0
175 198 0
174 198 0
173 197 0
175 198 0
174 198 0
174 198 0
174 198 0
176 199 0
175 198 0
174 198 0
175 198 0
174 198 0
173 197 0
173 197 0
175 198 0
174 197 0
176 199 0
175 198 0
174 197 0
173 197 0
175 198 0
174 197 0
174 198 0
175 198 0
173 197 0
175 198 0
174 197 0
174 198 0
174 197 0
174 197 0
176 199 0
174 198 0
176 199 0
174 197 0
172 197 0
176 199 0
175 198 0
174 198 0
174 198 0
174 198 0
174 197 0
175 198 0
175 198 0
174 197 0
174 198 0
175 198 0
176 199 0
174 198 0
174 197 0
174 198 0
175 198 0
174 198 0
174 198 0
173 197 0
174 198 0
175 198 0
174 197 0
174 198 0
176 198 0
175 198 0
174 197 0
174 198 0
175 198 0
175 198 0
174 198 0
175 198 0
174 198 0
174 198 0
175 198 0
174 197 0
174 197 0
175 198 0
173 197 0
176 199 0
174 198 0
175 198 0
174 198 0
175 198 0
174 198 0
176 198 0
175 198 0
173 197 0
174 198 0
175 198 0
174 198 0
173 197 0
174 197 0
173 197 0
174 198 0
173 197 0
173 197 0
174 198 0
174 198 0
175 198 0
175 198 0
175 198 0
176 198 0
176 199 0
174 197 0
175 198 0
174 197 0
175 198 0
173 197 0
175 198 0
173 197 0
174 198 0
175 198 0
174 197 0
174 198 0
176 199 0
175 198 0
175 198 0
175 198 0
175 198 0
175 198 0
174 198 0
174 197 0
173 197 0
175 198 0
175 198 0
174 198 0
175 198 0
177 199 0
175 198 0
174 197 0
175 198 0
173 197 0
173 197 0
176 198 0
174 198 0
174 197 0
175 198 0
174 198 0
174 198 0
175 198 0
176 198 0
176 199 0
172 197 0
175 198 0
175 198 0
173 197 0
175 198 0
174 198 0
175 198 0
176 199 0
173 197 0
173 197 0
174 197 0
175 198 0
176 198 0
175 198 0
174 197 0
175 198 0
175 198 0
175 198 0
173 197 0
172 196 0
174 198 0
176 199 0
172 197 0
174 197 0
176 199 0
174 197 0
173 197 0
172 195 0
173 197 0
173 197 0
173 197 0
171 196 0
175 198 0
174 198 0
175 198 0
174 197 0
173 197 0
175 198 0
175 198 0
174 197 0
174 197 0
173 197 0
173 196 0
172 196 0
176 198 0
172 196 0
172 195 0
174 197 0
174 197 0
172 196 0
175 198 0
172 195 0
171 194 0
172 195 0
171 195 0
174 197 0
172 196 0
175 198 0
173 196 0
173 197 0
172 196 0
172 195 0
172 196 0
172 195 0
168 192 0
171 195 0
169 193 0
167 192 0
177 199 76
179 200 80
186 207 122
190 210 144
196 215 173
202 221 204
205 224 218
207 225 226
206 223 221
207 225 227
202 220 203
194 214 182
200 219 203
191 210 167
195 215 181
193 213 181
197 216 193
200 219 199
199 218 199
194 212 223
168 187 214
130 153 199
116 140 193
95 123 180
73 106 164
75 106 156
70 104 167
61 96 148
61 97 155
61 96 153
62 98 163
60 96 154
61 97 155
61 97 157
61 97 159
61 97 157
61 97 155
61 97 158
62 98 162
61 97 158
62 97 158
61 97 155
62 97 156
62 98 158
62 98 156
61 97 153
62 98 158
60 95 144
61 97 154
61 96 141
61 96 143
62 96 149
66 95 119
122 123 33
120 112 3
110 103 0
115 106 5
117 105 4
109 97 7
117 103 8
118 107 12
125 112 5
125 112 7
128 118 17
133 118 21
128 113 13
134 123 17
140 137 17
146 144 17
154 158 26
159 168 1
161 172 0
161 170 0
163 174 0
162 175 0
167 185 0
169 184 0
167 185 0
168 184 0
167 187 0
168 186 0
172 193 0
171 193 0
170 191 0
169 189 0
172 195 0
171 193 0
171 192 0
170 190 0
174 196 0
171 193 0
173 194 0
172 193 0
172 196 0
173 196 0
171 193 0
174 197 0
172 195 0
173 195 0
172 195 0
173 194 0
173 197 0
173 197 0
174 197 0
169 193 0
174 197 0
176 198 0
174 197 0
173 196 0
174 198 0
172 195 0
172 195 0
175 198 0
174 197 0
173 197 0
174 197 0
173 196 0
173 196 0
173 197 0
173 196 0
174 198 0
175 198 0
174 197 0
174 197 0
174 197 0
174 196 0
173 197 0
172 196 0
174 197 0
174 197 0
175 198 0
174 198 0
176 198 0
173 197 0
173 197 0
174 198 0
174 198 0
175 197 0
175 198 0
175 198 0
175 198 0
173 196 0
175 198 0
174 198 0
174 198 0
173 197 0
173 197 0
174 198 0
176 198 0
174 198 0
175 198 0
175 198 0
176 199 0
175 198 0
173 197 0
176 198 0
175 198 0
174 198 0
174 197 0
174 197 0
173 197 0
174 197 0
175 198 0
173 197 0
173 197 0
174 198 0
174 198 0
176 199 0
173 197 0
175 198 0
175 198 0
174 197 0
174 197 0
174 198 0
174 198 0
174 198 0
175 198 0
175 198 0
175 198 0
175 198 0
175 198 0
174 197 0
174 198 0
173 197 0
174 198 0
174 197 0
175 198 0
173 196 0
175 198 0
175 198 0
173 197 0
175 198 0
172 197 0
174 198 0
175 198 0
175 198 0
174 198 0
174 197 0
174 198 0
174 198 0
174 198 0
177 199 0
174 198 0
174 198 0
175 198 0
175 198 0
175 198 0
176 198 0
173 197 0
174 198 0
175 198 0
175 198 0
175 198 0
176 199 0
173 197 0
175 198 0
174 198 0
175 198 0
176 198 0
175 198 0
177 199 0
175 198 0
175 198 0
175 198 0
173 197 0
174 197 0
175 198 0
173 197 0
175 198 0
173 197 0
174 198 0
176 199 0
175 198 0
174 198 0
173 197 0
176 199 0
176 199 0
174 197 0
175 198 0
175 198 0
175 198 0
177 199 0
175 198 0
175 198 0
175 198 0
174 198 0
174 197 0
176 199 0
173 197 0
174 198 0
174 198 0
175 198 0
174 197 0
174 198 0
175 198 0
174 198 0
176 199 0
176 198 0
174 198 0
173 197 0
175 198 0
174 198 0
173 197 0
174 198 0
175 198 0
175 198 0
174 198 0
175 198 0
177 199 0
174 198 0
173 197 0
174 198 0
175 198 0
175 198 0
174 197 0
175 198 0
174 198 0
175 198 0
175 198 0
175 198 0
174 198 0
174 197 0
175 198 0
174 197 0
175 198 0
175 198 0
175 198 0
174 198 0
175 198 0
175 198 0
175 198 0
174 198 0
175 198 0
174 198 0
176 199 0
174 198 0
172 197 0
174 198 0
174 198 0
175 198 0
175 198 0
175 198 0
175 198 0
174 198 0
174 198 0
174 198 0
175 198 0
174 198 0
174 198 0
174 198 0
176 198 0
173 197 0
173 196 0
173 197 0
175 198 0
172 197 0
174 198 0
175 198 0
175 198 0
174 197 0
173 197 0
176 199 0
176 199 0
175 198 0
175 198 0
176 198 0
175 198 0
174 197 0
172 196 0
176 199 0
174 197 0
174 197 0
172 197 0
174 198 0
174 197 0
174 197 0
174 197 0
174 198 0
176 198 0
175 197 0
175 198 0
174 198 0
173 197 0
172 197 0
175 198 0
174 197 0
175 198 0
175 198 0
173 197 0
174 198 0
174 198 0
175 198 0
175 198 0
174 197 0
174 198 0
174 198 0
172 195 0
174 198 0
174 198 0
174 197 0
175 198 0
172 195 0
173 196 0
176 199 0
175 198 0
173 197 0
173 197 0
174 197 0
173 197 0
175 198 0
174 197 0
173 197 0
173 197 0
174 197 0
173 196 0
171 195 0
172 195 0
174 197 0
172 196 0
172 196 0
174 197 0
170 194 0
173 196 0
172 196 0
173 196 0
173 197 0
175 198 0
175 197 0
172 196 0
171 194 0
173 196 0
171 196 0
174 198 0
172 195 0
171 195 0
172 196 0
169 193 0
172 196 0
169 193 0
171 194 51
180 202 95
186 207 133
191 211 161
196 216 182
204 222 209
201 220 206
207 224 221
201 219 196
196 216 186
189 209 161
188 209 147
184 205 140
178 200 120
179 202 122
176 198 102
177 200 95
175 198 76
179 202 111
184 205 130
150 173 169
129 153 181
123 147 180
110 136 184
89 118 181
80 111 174
73 106 169
68 102 163
68 101 158
61 97 156
60 95 149
60 96 155
61 96 150
60 95 152
61 97 155
62 98 159
61 96 154
61 97 155
61 97 158
62 98 155
63 98 159
61 96 145
61 97 150
60 95 149
61 97 155
62 98 160
61 97 149
62 97 152
61 96 145
61 96 145
60 95 144
61 96 141
60 94 129
90 107 94
116 118 18
115 112 0
121 118 3
118 113 7
109 99 9
117 107 6
125 116 6
112 97 2
123 114 12
132 122 8
137 128 11
130 117 6
136 126 8
141 138 7
150 150 20
145 147 1
153 159 0
151 158 0
157 166 0
161 171 0
164 176 0
166 180 0
163 179 0
166 183 0
166 184 0
168 187 0
166 185 0
170 189 0
171 191 0
165 187 0
171 191 0
169 190 0
168 188 0
175 196 0
171 191 0
171 193 0
173 194 0
171 192 0
173 195 0
173 194 0
171 194 0
175 197 0
172 195 0
174 197 0
173 194 0
173 197 0
174 197 0
173 196 0
171 194 0
174 196 0
173 196 0
172 195 0
173 196 0
174 198 0
173 196 0
174 197 0
175 197 0
172 196 0
175 197 0
173 197 0
174 196 0
174 197 0
174 198 0
174 198 0
175 198 0
174 198 0
174 197 0
173 197 0
172 196 0
174 198 0
173 197 0
173 197 0
173 196 0
173 197 0
174 198 0
176 198 0
174 197 0
176 198 0
176 199 0
175 198 0
173 197 0
174 197 0
175 198 0
175 198 0
174 197 0
174 198 0
175 198 0
174 197 0
172 196 0
174 198 0
174 198 0
174 198 0
175 198 0
174 197 0
173 196 0
175 198 0
175 198 0
174 197 0
175 198 0
174 197 0
175 198 0
174 198 0
175 198 0
175 198 0
173 197 0
173 197 0
174 198 0
175 198 0
175 198 0
174 198 0
174 198 0
174 198 0
175 198 0
174 198 0
175 198 0
175 198 0
175 198 0
177 199 0
174 198 0
174 198 0
176 199 0
173 197 0
175 198 0
174 198 0
173 197 0
173 197 0
175 198 0
173 197 0
174 198 0
174 198 0
173 197 0
175 198 0
173 197 0
175 198 0
175 198 0
174 198 0
175 198 0
175 198 0
173 197 0
175 198 0
174 198 0
174 198 0
174 198 0
175 198 0
177 199 0
174 197 0
174 198 0
175 198 0
174 198 0
174 197 0
174 198 0
175 198 0
173 197 0
174 197 0
175 198 0
175 198 0
175 198 0
176 198 0
174 198 0
175 198 0
174 198 0
175 198 0
176 198 0
175 198 0
175 198 0
175 198 0
176 199 0
173 197 0
175 198 0
175 198 0
173 197 0
176 199 0
174 197 0
175 198 0
173 197 0
176 199 0
175 198 0
176 199 0
174 197 0
174 198 0
175 198 0
173 197 0
176 198 0
175 198 0
175 198 0
175 198 0
175 198 0
175 198 0
175 198 0
175 198 0
175 198 0
174 198 0
174 198 0
176 199 0
174 197 0
173 197 0
175 198 0
174 197 0
175 198 0
174 198 0
176 199 0
176 198 0
174 198 0
174 198 0
174 198 0
175 198 0
174 197 0
175 198 0
175 198 0
174 198 0
174 197 0
175 198 0
174 198 0
175 198 0
174 198 0
175 198 0
175 198 0
175 198 0
173 197 0
173 197 0
174 198 0
175 198 0
174 197 0
174 198 0
176 198 0
175 198 0
174 198 0
174 198 0
175 198 0
175 198 0
176 198 0
175 198 0
175 198 0
174 197 0
176 199 0
175 198 0
175 198 0
176 198 0
175 198 0
175 198 0
175 198 0
175 198 0
174 198 0
175 198 0
173 197 0
175 198 0
174 198 0
174 198 0
174 198 0
174 198 0
175 198 0
172 196 0
174 198 0
176 198 0
176 198 0
174 197 0
173 197 0
174 198 0
173 197 0
173 197 0
174 198 0
176 199 0
174 198 0
175 198 0
175 198 0
174 197 0
174 198 0
174 198 0
175 198 0
174 197 0
173 197 0
174 198 0
174 197 0
175 198 0
175 198 0
174 198 0
176 199 0
173 197 0
174 198 0
175 198 0
173 197 0
174 197 0
174 198 0
174 198 0
174 197 0
173 197 0
172 196 0
175 198 0
174 197 0
175 198 0
175 198 0
173 196 0
174 197 0
175 198 0
175 198 0
175 198 0
173 197 0
173 197 0
174 197 0
175 198 0
174 198 0
174 198 0
174 198 0
175 198 0
173 197 0
173 197 0
173 197 0
173 196 0
173 197 0
174 197 0
173 197 0
173 197 0
175 198 0
173 197 0
173 197 0
174 198 0
174 198 0
171 196 0
174 198 0
173 196 0
175 198 0
176 199 0
174 197 0
174 197 0
173 197 0
173 196 0
172 196 0
173 197 0
174 197 0
172 196 0
172 195 0
171 195 0
174 197 0
174 197 0
174 197 0
175 198 0
172 195 0
174 198 0
173 197 0
173 197 0
173 197 0
168 191 0
172 195 0
172 195 0
174 197 25
174 197 62
180 203 102
187 208 130
190 210 153
200 219 194
204 222 211
203 221 207
200 219 193
194 214 173
185 207 142
184 206 122
176 199 102
174 197 92
176 199 105
175 199 102
174 198 72
172 196 57
176 199 84
173 197 51
173 196 80
175 199 88
120 146 139
103 129 156
108 134 160
96 124 173
92 121 167
94 122 174
80 111 179
66 100 163
67 101 154
62 97 156
60 95 155
60 95 150
61 96 152
61 96 149
61 97 151
60 95 146
61 97 152
62 97 155
62 97 150
61 96 148
61 96 147
61 96 148
62 97 155
61 96 150
62 97 147
61 97 150
62 98 157
61 96 147
61 96 142
60 95 130
62 97 145
60 94 140
59 93 139
97 108 77
119 126 0
125 128 0
123 121 0
118 116 0
117 113 3
110 104 3
123 115 6
123 114 8
127 116 8
132 129 2
122 115 1
142 139 2
136 135 5
142 140 2
145 147 0
152 157 0
155 162 0
157 165 0
158 165 0
161 174 0
164 178 0
162 175 0
162 178 0
167 183 0
168 189 0
170 189 0
171 189 0
168 188 0
170 191 0
167 186 0
172 191 0
169 192 0
169 189 0
170 191 0
171 191 0
171 193 0
172 195 0
171 193 0
173 195 0
173 196 0
174 197 0
172 194 0
174 197 0
172 195 0
174 196 0
173 196 0
173 196 0
171 195 0
171 195 0
173 195 0
172 195 0
174 197 0
174 196 0
173 195 0
174 197 0
173 197 0
173 196 0
175 198 0
175 197 0
174 196 0
176 198 0
174 198 0
174 197 0
174 196 0
173 196 0
174 197 0
174 197 0
173 196 0
173 197 0
175 198 0
175 198 0
174 198 0
175 198 0
173 197 0
175 198 0
173 197 0
174 197 0
174 197 0
175 198 0
174 197 0
174 197 0
174 197 0
173 197 0
175 198 0
175 198 0
173 197 0
173 197 0
174 198 0
175 198 0
173 196 0
173 197 0
174 197 0
174 198 0
173 196 0
175 198 0
175 198 0
176 199 0
175 197 0
174 198 0
174 197 0
174 198 0
175 198 0
174 197 0
174 197 0
173 197 0
175 198 0
174 197 0
175 198 0
175 198 0
175 198 0
174 198 0
174 197 0
174 198 0
174 198 0
174 197 0
175 198 0
176 198 0
174 198 0
175 198 0
176 199 0
174 198 0
177 199 0
174 198 0
174 198 0
173 197 0
176 199 0
174 198 0
174 198 0
175 198 0
175 198 0
174 198 0
175 198 0
174 197 0
175 198 0
174 197 0
175 198 0
175 198 0
174 198 0
175 198 0
174 198 0
174 198 0
174 197 0
174 198 0
175 198 0
174 198 0
173 197 0
176 199 0
172 197 0
174 198 0
174 198 0
175 198 0
175 198 0
174 198 0
175 198 0
176 199 0
174 198 0
174 198 0
176 199 0
175 198 0
174 198 0
175 198 0
173 197 0
175 198 0
175 198 0
174 198 0
175 198 0
175 198 0
173 197 0
176 199 0
175 198 0
174 198 0
173 197 0
175 198 0
175 198 0
174 198 0
174 198 0
176 198 0
174 198 0
174 198 0
174 197 0
174 197 0
176 198 0
173 197 0
173 197 0
175 198 0
175 198 0
176 199 0
175 198 0
175 198 0
176 198 0
175 198 0
174 197 0
173 197 0
174 198 0
174 198 0
174 198 0
174 198 0
175 198 0
175 198 0
174 198 0
173 197 0
173 197 0
174 197 0
174 198 0
175 198 0
175 198 0
175 198 0
174 198 0
176 198 0
173 197 0
174 198 0
176 199 0
175 198 0
174 198 0
175 198 0
176 198 0
173 197 0
174 198 0
173 197 0
173 197 0
175 198 0
175 198 0
175 198 0
175 198 0
173 197 0
174 198 0
173 197 0
175 198 0
175 198 0
174 197 0
174 198 0
174 198 0
176 199 0
175 198 0
175 198 0
174 197 0
172 196 0
174 197 0
175 198 0
174 198 0
174 198 0
175 198 0
174 197 0
174 198 0
174 197 0
173 197 0
172 196 0
173 197 0
174 198 0
175 198 0
175 198 0
173 197 0
173 197 0
175 198 0
173 197 0
174 198 0
175 198 0
174 198 0
173 197 0
174 198 0
174 198 0
174 198 0
174 197 0
174 197 0
174 198 0
174 197 0
173 197 0
174 197 0
173 197 0
175 198 0
174 197 0
174 198 0
174 198 0
173 197 0
177 199 0
174 198 0
175 198 0
175 198 0
175 198 0
176 198 0
175 198 0
176 199 0
174 197 0
175 198 0
176 199 0
173 197 0
173 197 0
174 198 0
174 198 0
173 197 0
175 198 0
174 198 0
174 197 0
175 198 0
173 197 0
176 199 0
175 198 0
175 198 0
173 197 0
173 196 0
174 197 0
174 198 0
174 197 0
176 199 0
175 198 0
176 199 0
174 197 0
176 199 0
173 197 0
173 197 0
173 197 0
174 198 0
173 197 0
175 198 0
172 196 0
173 196 0
173 197 0
174 197 0
174 197 0
172 196 0
172 196 0
174 197 0
173 197 0
174 197 0
173 197 0
174 198 0
173 196 0
174 198 0
175 198 0
173 197 0
171 196 0
172 196 0
175 198 0
172 196 0
173 197 0
170 195 0
169 193 0
172 196 0
171 194 0
171 195 0
174 197 0
173 197 0
172 195 0
174 198 44
175 198 51
179 200 84
183 204 125
193 212 161
198 217 184
203 221 204
201 220 198
200 219 198
196 216 179
180 203 120
175 198 99
171 194 80
172 196 51
170 193 67
172 195 62
172 196 84
171 194 76
167 191 57
171 195 62
169 193 62
171 194 62
170 193 70
149 172 97
88 117 137
99 127 159
95 124 160
93 121 145
100 127 170
82 113 176
64 99 160
65 100 163
63 97 156
61 97 159
65 98 143
60 95 148
61 96 154
59 95 148
61 97 150
61 97 155
62 98 157
61 96 150
62 97 151
61 96 151
61 96 147
60 96 139
60 96 141
61 97 150
61 96 148
60 96 141
59 94 129
61 96 140
60 94 133
59 93 128
61 96 134
75 100 118
115 121 36
111 117 0
119 124 0
124 122 0
119 119 0
111 110 0
117 116 0
124 123 0
125 127 0
140 142 1
123 117 0
139 140 2
143 148 0
135 136 0
152 154 0
152 159 0
158 165 0
157 165 0
156 166 0
164 176 0
155 164 0
162 176 0
162 174 0
161 176 0
165 182 0
168 187 0
167 186 0
166 185 0
170 191 0
165 186 0
169 189 0
170 191 0
171 190 0
170 191 0
172 194 0
170 190 0
173 194 0
172 193 0
172 195 0
169 192 0
172 194 0
169 191 0
173 194 0
175 197 0
173 195 0
173 196 0
174 196 0
172 195 0
174 196 0
173 196 0
170 193 0
172 195 0
176 199 0
175 198 0
173 196 0
172 196 0
175 198 0
173 196 0
172 196 0
175 198 0
173 196 0
175 198 0
175 198 0
173 197 0
174 197 0
175 198 0
173 196 0
175 198 0
174 198 0
173 197 0
172 196 0
175 197 0
175 197 0
174 197 0
174 198 0
175 198 0
175 198 0
176 198 0
175 198 0
174 198 0
174 198 0
173 196 0
176 199 0
174 197 0
173 197 0
174 197 0
174 197 0
175 198 0
176 199 0
173 197 0
174 198 0
175 198 0
174 198 0
175 198 0
173 197 0
173 197 0
175 198 0
176 198 0
174 198 0
174 197 0
174 198 0
174 198 0
175 198 0
175 198 0
175 198 0
174 198 0
176 199 0
174 198 0
173 197 0
174 197 0
175 198 0
174 197 0
174 197 0
175 198 0
173 197 0
175 198 0
173 197 0
175 198 0
175 198 0
175 198 0
175 198 0
175 198 0
173 197 0
175 198 0
173 197 0
175 198 0
175 198 0
175 198 0
174 198 0
174 197 0
174 198 0
174 198 0
172 196 0
176 198 0
176 199 0
174 197 0
174 197 0
174 198 0
175 198 0
176 199 0
175 198 0
174 197 0
174 197 0
174 197 0
174 198 0
175 198 0
174 198 0
175 198 0
174 198 0
174 197 0
174 198 0
174 198 0
174 198 0
173 197 0
174 198 0
174 198 0
175 198 0
175 198 0
175 198 0
174 198 0
176 198 0
174 198 0
173 197 0
175 198 0
176 198 0
175 198 0
174 198 0
174 198 0
175 198 0
173 197 0
175 198 0
176 199 0
175 198 0
174 198 0
175 198 0
175 198 0
174 197 0
175 198 0
174 198 0
174 197 0
175 198 0
174 198 0
175 198 0
174 198 0
176 199 0
174 197 0
176 199 0
176 199 0
175 198 0
175 198 0
174 197 0
173 197 0
176 198 0
174 198 0
174 198 0
176 199 0
175 198 0
176 198 0
175 198 0
174 198 0
176 198 0
173 197 0
174 198 0
176 199 0
174 197 0
176 198 0
177 199 0
174 197 0
174 198 0
175 198 0
175 198 0
174 197 0
175 198 0
174 198 0
174 198 0
174 198 0
173 197 0
174 197 0
174 198 0
174 198 0
176 199 0
174 197 0
174 198 0
174 198 0
174 198 0
173 197 0
175 198 0
174 198 0
173 197 0
175 198 0
174 198 0
174 198 0
176 199 0
174 198 0
174 198 0
177 199 0
175 198 0
174 197 0
173 197 0
173 197 0
174 197 0
174 198 0
175 198 0
174 198 0
175 198 0
175 198 0
175 198 0
173 197 0
174 197 0
176 199 0
174 197 0
173 197 0
175 198 0
174 198 0
174 197 0
174 198 0
175 198 0
175 198 0
173 197 0
174 198 0
174 197 0
174 198 0
175 198 0
173 197 0
174 197 0
176 198 0
175 198 0
176 199 0
174 198 0
173 197 0
173 197 0
174 198 0
173 197 0
174 198 0
173 197 0
173 196 0
173 197 0
175 198 0
174 197 0
173 197 0
175 198 0
174 198 0
174 198 0
173 197 0
174 198 0
173 197 0
176 199 0
174 198 0
174 197 0
173 197 0
175 198 0
175 198 0
176 198 0
174 197 0
174 198 0
172 196 0
173 197 0
175 198 0
177 198 0
173 196 0
173 196 0
174 197 0
173 197 0
174 198 0
173 197 0
173 197 0
174 197 0
173 196 0
173 196 0
173 196 0
173 196 0
175 198 0
174 197 0
174 198 0
174 197 0
175 198 0
173 197 0
173 197 0
170 194 0
175 198 0
175 198 0
173 197 0
175 198 0
174 198 0
173 197 0
173 196 0
175 198 0
173 197 0
173 196 0
176 198 0
174 197 0
173 197 0
173 197 0
172 196 0
173 196 0
175 197 0
176 198 0
172 196 0
174 197 0
175 198 0
172 195 0
171 195 0
172 194 0
171 194 36
174 198 25
176 199 67
184 205 117
189 209 153
197 216 177
203 221 201
198 217 188
194 214 173
182 203 122
177 201 92
173 197 67
176 199 62
173 197 57
172 196 88
173 197 67
169 194 72
172 195 67
172 195 80
169 194 80
166 188 62
167 191 44
167 190 67
171 194 99
166 189 86
115 141 140
93 121 154
92 120 148
97 125 143
85 115 158
78 110 156
77 108 162
75 107 166
64 99 155
62 96 149
63 97 148
60 95 149
60 95 139
59 94 139
60 95 141
61 96 143
62 97 147
60 94 141
61 96 145
62 97 156
61 96 148
59 94 140
61 96 141
60 95 141
60 95 136
61 95 137
61 96 139
60 94 139
60 94 136
60 95 125
58 90 117
104 121 72
121 130 0
128 136 0
122 127 0
129 134 0
133 142 0
130 139 0
125 127 0
135 140 0
136 139 0
135 136 0
134 136 0
147 149 0
142 144 0
143 147 0
149 155 0
150 159 0
155 162 0
156 169 0
155 166 0
165 180 0
155 165 0
159 171 0
163 175 0
163 181 0
167 184 0
164 183 0
163 179 0
166 185 0
163 183 0
171 193 0
167 187 0
169 191 0
171 191 0
167 186 0
172 194 0
174 196 0
174 197 0
172 194 0
171 192 0
171 193 0
170 193 0
171 193 0
172 196 0
174 197 0
171 194 0
172 196 0
171 193 0
171 194 0
172 194 0
174 197 0
172 195 0
171 195 0
174 196 0
174 197 0
175 198 0
174 196 0
174 197 0
174 197 0
173 196 0
174 198 0
173 197 0
174 197 0
173 196 0
173 197 0
174 197 0
175 198 0
172 196 0
174 197 0
174 197 0
173 197 0
174 197 0
174 196 0
173 197 0
174 197 0
173 197 0
173 197 0
175 198 0
173 197 0
174 197 0
174 198 0
173 197 0
174 197 0
173 197 0
175 198 0
173 197 0
173 197 0
175 197 0
175 198 0
176 198 0
174 198 0
175 198 0
173 197 0
174 198 0
173 197 0
176 198 0
174 198 0
174 198 0
174 197 0
174 197 0
173 197 0
175 198 0
173 197 0
175 198 0
174 198 0
174 198 0
176 198 0
173 197 0
174 198 0
173 197 0
173 197 0
173 197 0
174 197 0
175 198 0
174 198 0
175 198 0
173 197 0
176 198 0
174 198 0
175 198 0
175 198 0
174 197 0
174 197 0
174 198 0
173 197 0
174 198 0
175 198 0
175 198 0
172 197 0
175 198 0
174 198 0
174 198 0
175 198 0
174 198 0
173 197 0
175 198 0
175 198 0
175 198 0
175 198 0
173 197 0
174 198 0
176 199 0
176 198 0
178 200 0
174 198 0
173 197 0
173 196 0
173 197 0
176 198 0
174 197 0
174 197 0
174 198 0
174 198 0
175 198 0
174 198 0
174 198 0
175 198 0
172 196 0
175 198 0
175 198 0
174 197 0
174 197 0
173 197 0
176 198 0
174 198 0
173 197 0
175 198 0
175 198 0
174 197 0
174 197 0
174 197 0
174 198 0
175 198 0
175 198 0
174 197 0
174 198 0
174 198 0
175 198 0
175 198 0
174 198 0
175 198 0
174 197 0
174 197 0
175 198 0
175 198 0
175 198 0
175 198 0
173 197 0
174 198 0
173 197 0
175 198 0
175 198 0
174 198 0
174 198 0
175 198 0
173 197 0
175 198 0
174 197 0
174 198 0
176 199 0
176 198 0
174 198 0
175 198 0
174 198 0
174 197 0
175 198 0
176 198 0
175 198 0
173 197 0
173 197 0
174 197 0
173 197 0
174 198 0
174 198 0
176 198 0
176 199 0
174 197 0
174 198 0
175 198 0
175 198 0
176 198 0
174 197 0
175 198 0
175 198 0
174 198 0
175 198 0
174 198 0
174 198 0
175 198 0
175 198 0
174 198 0
174 197 0
174 198 0
175 198 0
174 197 0
176 199 0
176 199 0
175 198 0
175 198 0
174 198 0
175 198 0
173 197 0
173 197 0
174 198 0
174 197 0
175 198 0
174 197 0
175 198 0
173 197 0
175 198 0
173 197 0
175 198 0
175 198 0
174 198 0
171 196 0
175 198 0
175 198 0
174 197 0
175 198 0
175 198 0
174 198 0
174 198 0
176 199 0
175 198 0
174 197 0
174 197 0
175 198 0
175 198 0
174 198 0
175 198 0
177 199 0
173 197 0
174 198 0
176 199 0
174 197 0
174 197 0
177 199 0
174 198 0
174 197 0
174 197 0
175 198 0
174 198 0
173 197 0
175 198 0
175 198 0
173 197 0
174 198 0
175 198 0
171 196 0
175 198 0
176 199 0
174 197 0
174 197 0
173 196 0
174 198 0
174 198 0
174 197 0
174 198 0
173 197 0
174 198 0
176 199 0
175 198 0
176 198 0
175 198 0
174 196 0
173 197 0
175 198 0
175 198 0
172 196 0
175 198 0
172 196 0
175 198 0
173 197 0
174 197 0
174 198 0
175 198 0
173 196 0
173 197 0
174 197 0
173 196 0
174 198 0
171 194 0
175 198 0
174 197 0
174 197 0
173 197 0
172 196 0
174 197 0
171 195 0
174 197 0
173 196 0
175 197 0
172 195 0
174 197 0
170 194 0
172 196 0
173 197 0
171 195 0
173 196 0
171 195 0
173 196 0
173 196 0
175 198 0
170 194 0
175 198 36
172 194 57
178 200 88
188 208 142
197 216 184
199 217 186
197 215 181
188 208 147
185 206 144
178 201 99
174 197 84
168 190 57
173 197 92
170 194 67
173 197 67
169 193 67
170 194 51
173 197 80
166 190 44
171 195 72
169 192 72
170 194 72
167 190 67
164 187 76
168 192 76
137 162 97
95 123 148
86 115 148
74 105 142
90 118 151
88 116 139
97 125 162
66 101 158
66 100 156
73 104 158
62 95 137
60 95 140
61 94 129
61 96 143
60 94 136
60 95 144
59 94 131
60 95 139
59 94 137
61 96 145
60 95 143
60 95 137
59 94 131
61 96 145
61 96 147
61 95 143
59 93 126
61 96 143
59 93 121
58 91 115
84 108 117
124 137 0
131 143 0
115 123 0
127 136 0
126 134 0
136 147 0
129 136 0
127 134 0
138 147 0
133 137 0
131 137 0
136 141 0
143 149 0
148 158 0
145 155 0
151 158 0
158 168 0
154 166 0
158 170 0
158 172 0
159 174 0
165 179 0
162 177 0
164 182 0
166 186 0
167 187 0
166 184 0
167 189 0
166 185 0
166 187 0
169 188 0
165 185 0
172 194 0
167 188 0
168 188 0
172 192 0
171 193 0
170 191 0
171 194 0
171 193 0
171 193 0
173 196 0
169 192 0
170 192 0
172 194 0
172 194 0
169 192 0
173 195 0
173 196 0
174 196 0
172 196 0
172 195 0
173 196 0
172 195 0
171 194 0
173 196 0
172 196 0
172 195 0
170 193 0
174 196 0
174 196 0
174 196 0
175 198 0
173 197 0
175 197 0
174 197 0
174 197 0
174 197 0
174 198 0
174 197 0
172 195 0
174 196 0
174 198 0
173 197 0
174 197 0
173 197 0
173 197 0
174 197 0
175 198 0
174 197 0
173 197 0
173 197 0
175 198 0
174 197 0
174 198 0
175 198 0
173 197 0
173 197 0
174 198 0
175 197 0
173 197 0
174 197 0
175 198 0
174 198 0
174 197 0
175 198 0
173 197 0
175 198 0
177 199 0
175 198 0
174 198 0
175 198 0
173 197 0
175 198 0
174 198 0
174 197 0
173 197 0
173 197 0
176 199 0
173 197 0
174 198 0
174 198 0
174 198 0
174 197 0
174 198 0
173 197 0
174 197 0
173 197 0
175 198 0
174 198 0
174 197 0
175 198 0
174 197 0
176 199 0
174 198 0
175 198 0
173 197 0
174 198 0
175 198 0
175 198 0
175 198 0
174 198 0
174 198 0
175 198 0
174 197 0
173 197 0
175 198 0
175 198 0
174 198 0
173 197 0
176 199 0
174 198 0
175 198 0
174 198 0
173 197 0
175 198 0
174 198 0
175 198 0
174 198 0
174 197 0
174 198 0
175 198 0
173 197 0
174 197 0
175 198 0
172 196 0
174 197 0
174 197 0
175 198 0
175 198 0
175 198 0
174 198 0
175 198 0
174 198 0
174 198 0
174 198 0
175 198 0
175 198 0
175 198 0
174 198 0
175 198 0
175 198 0
173 197 0
174 197 0
174 198 0
174 198 0
174 198 0
173 197 0
173 197 0
175 198 0
174 198 0
174 198 0
175 198 0
174 197 0
174 198 0
174 198 0
174 198 0
174 198 0
176 199 0
176 199 0
174 198 0
174 198 0
172 197 0
176 199 0
177 199 0
176 198 0
175 198 0
175 198 0
174 198 0
173 197 0
173 197 0
176 198 0
175 198 0
176 199 0
175 198 0
176 199 0
174 198 0
174 198 0
174 198 0
174 198 0
175 198 0
173 197 0
174 197 0
173 197 0
175 198 0
173 197 0
174 198 0
175 198 0
174 198 0
175 198 0
175 198 0
175 198 0
173 197 0
174 198 0
175 198 0
175 198 0
173 197 0
174 197 0
173 197 0
175 198 0
176 199 0
174 198 0
176 199 0
174 198 0
174 198 0
175 198 0
174 197 0
175 198 0
175 198 0
174 198 0
175 198 0
176 198 0
174 198 0
175 198 0
173 197 0
174 198 0
174 197 0
171 196 0
175 198 0
175 198 0
174 198 0
174 198 0
174 197 0
174 198 0
177 199 0
174 198 0
175 198 0
175 198 0
175 198 0
174 198 0
176 199 0
174 197 0
174 198 0
174 197 0
174 198 0
174 198 0
174 198 0
175 198 0
175 198 0
175 198 0
175 198 0
176 199 0
174 197 0
174 197 0
175 198 0
173 197 0
175 198 0
174 197 0
175 198 0
175 198 0
175 198 0
175 198 0
174 198 0
175 198 0
174 198 0
174 197 0
174 197 0
173 197 0
174 198 0
174 197 0
173 197 0
175 198 0
173 197 0
174 198 0
173 197 0
175 198 0
175 198 0
175 198 0
175 198 0
174 198 0
175 198 0
173 196 0
174 197 0
173 197 0
176 199 0
174 197 0
174 197 0
175 198 0
174 198 0
175 198 0
175 198 0
175 198 0
173 197 0
175 197 0
175 198 0
175 198 0
174 197 0
174 197 0
174 197 0
175 198 0
173 197 0
175 198 0
172 196 0
172 196 0
174 197 0
171 195 0
169 193 0
173 197 0
173 196 0
172 195 0
172 196 0
172 196 0
173 196 0
173 196 0
173 197 0
175 198 0
173 196 0
173 197 0
172 195 0
171 195 0
171 195 0
169 193 0
173 197 25
172 195 36
175 198 25
179 201 88
181 202 117
192 211 155
196 215 173
195 215 173
191 211 155
183 205 117
178 201 84
174 196 72
174 198 57
174 197 62
169 193 76
173 196 72
170 195 84
166 190 92
171 195 76
166 190 72
170 194 67
167 191 76
165 189 80
165 189 57
160 184 44
166 190 80
157 180 72
157 181 62
115 139 126
90 117 129
90 118 146
95 122 146
101 127 148
87 115 140
79 110 152
73 105 156
73 103 154
66 99 156
58 93 141
58 92 137
60 95 136
59 93 131
59 94 132
59 94 137
61 96 139
59 93 135
57 92 122
61 95 135
60 95 141
60 94 135
61 96 137
59 94 128
60 94 137
60 95 137
60 94 121
57 90 122
67 94 97
113 125 44
131 146 0
126 139 0
132 144 0
133 146 0
132 144 0
142 154 0
140 152 0
138 150 0
141 154 0
142 155 0
146 158 0
146 155 0
145 152 0
143 153 0
154 166 0
155 165 0
152 162 0
152 163 0
162 177 0
155 169 0
164 176 0
162 179 0
160 177 0
165 184 0
161 178 0
169 185 0
165 184 0
166 185 0
168 189 0
169 188 0
171 192 0
163 184 0
168 189 0
170 191 0
169 190 0
171 193 0
170 192 0
169 191 0
169 190 0
172 193 0
171 193 0
171 193 0
172 194 0
173 196 0
169 191 0
170 192 0
172 195 0
170 193 0
171 192 0
173 196 0
174 196 0
174 196 0
174 197 0
172 196 0
175 196 0
174 196 0
173 196 0
173 196 0
173 196 0
173 197 0
173 197 0
174 197 0
174 197 0
174 198 0
175 197 0
172 194 0
174 197 0
174 197 0
172 194 0
174 197 0
174 197 0
173 197 0
175 198 0
174 198 0
175 198 0
174 196 0
175 198 0
173 196 0
174 197 0
174 198 0
175 198 0
172 196 0
173 197 0
174 198 0
175 198 0
174 197 0
174 197 0
175 198 0
174 198 0
175 198 0
174 197 0
174 198 0
174 198 0
174 198 0
174 197 0
175 197 0
174 197 0
177 199 0
175 198 0
174 198 0
174 198 0
175 198 0
176 199 0
175 198 0
174 198 0
173 197 0
177 199 0
174 197 0
173 197 0
174 198 0
174 198 0
173 197 0
175 198 0
174 198 0
174 198 0
175 198 0
174 198 0
175 198 0
175 198 0
174 198 0
174 197 0
174 198 0
174 198 0
174 197 0
176 199 0
175 198 0
175 198 0
175 198 0
176 198 0
175 198 0
173 197 0
175 198 0
174 198 0
175 198 0
174 198 0
175 198 0
174 197 0
173 197 0
175 198 0
175 197 0
174 198 0
175 198 0
173 197 0
175 198 0
174 198 0
174 198 0
176 198 0
175 198 0
173 197 0
174 198 0
175 198 0
174 198 0
174 197 0
176 199 0
175 198 0
174 198 0
174 198 0
175 198 0
173 197 0
174 198 0
175 198 0
173 197 0
175 198 0
175 198 0
175 198 0
175 198 0
175 198 0
175 198 0
175 198 0
174 198 0
175 198 0
175 198 0
175 198 0
174 198 0
174 198 0
174 198 0
173 197 0
174 198 0
175 198 0
175 198 0
174 197 0
176 198 0
177 199 0
176 199 0
175 198 0
174 198 0
175 198 0
175 198 0
175 198 0
175 198 0
173 197 0
173 197 0
175 198 0
175 198 0
174 198 0
173 197 0
175 198 0
174 198 0
175 198 0
173 197 0
176 198 0
176 199 0
175 198 0
174 198 0
174 197 0
174 197 0
175 198 0
172 196 0
175 198 0
175 198 0
175 198 0
174 198 0
173 197 0
175 198 0
175 198 0
174 197 0
174 198 0
175 198 0
173 197 0
175 198 0
174 197 0
174 198 0
172 197 0
175 198 0
176 198 0
172 197 0
173 197 0
174 198 0
174 198 0
175 198 0
175 198 0
175 198 0
173 197 0
174 197 0
175 198 0
174 197 0
174 198 0
175 198 0
174 198 0
175 198 0
174 198 0
173 197 0
175 198 0
174 198 0
174 197 0
173 197 0
174 198 0
174 198 0
175 198 0
175 198 0
174 198 0
176 199 0
174 198 0
174 197 0
174 197 0
174 197 0
174 198 0
173 197 0
174 198 0
174 198 0
175 198 0
176 198 0
173 197 0
174 197 0
174 198 0
174 198 0
175 198 0
173 197 0
173 197 0
174 197 0
175 198 0
174 197 0
174 198 0
174 198 0
173 197 0
175 198 0
174 198 0
173 197 0
175 198 0
173 197 0
174 197 0
173 197 0
174 197 0
174 198 0
174 197 0
173 197 0
175 198 0
175 198 0
174 197 0
173 197 0
174 198 0
171 195 0
173 197 0
175 198 0
173 197 0
174 198 0
173 197 0
174 198 0
173 196 0
173 196 0
174 198 0
174 198 0
173 196 0
174 198 0
174 197 0
173 197 0
175 198 0
174 198 0
174 198 0
174 198 0
173 196 0
174 198 0
173 197 0
171 196 0
174 197 0
174 197 0
174 198 0
174 198 0
174 197 0
174 197 0
173 196 0
173 195 0
172 195 0
172 195 0
173 196 0
174 198 0
175 198 0
171 194 0
174 197 0
174 197 0
174 198 0
174 196 0
172 196 0
172 196 0
173 196 0
172 195 0
169 193 0
172 196 0
174 197 0
173 196 0
170 194 0
172 196 0
172 196 0
171 194 0
176 198 67
174 197 57
183 204 117
195 214 167
192 212 161
196 215 175
188 208 135
177 200 92
173 197 76
173 197 76
171 195 72
175 199 88
171 195 72
171 196 76
171 195 62
170 195 99
170 194 72
170 194 80
172 197 102
168 192 80
160 184 72
165 189 76
165 188 67
159 183 88
161 185 67
162 186 80
150 173 86
96 123 126
101 126 138
97 123 133
103 128 135
85 114 142
96 123 144
74 103 141
64 98 148
66 98 145
70 101 140
61 96 136
61 95 131
57 91 129
59 93 121
59 93 126
60 94 129
59 93 126
59 93 122
60 94 134
59 93 125
60 95 134
59 94 124
59 93 124
58 92 120
60 94 130
56 89 111
60 91 113
108 126 74
121 133 0
122 137 0
122 137 0
129 141 0
136 149 0
134 148 0
133 143 0
136 147 0
140 153 0
145 155 0
142 151 0
146 157 0
153 163 0
159 171 0
151 166 0
151 161 0
153 165 0
156 167 0
155 171 0
148 163 0
162 179 0
163 180 0
162 178 0
164 181 0
165 181 0
167 186 0
165 183 0
167 187 0
167 187 0
166 185 0
167 186 0
172 194 0
166 185 0
166 186 0
171 193 0
171 191 0
169 192 0
172 194 0
171 193 0
172 194 0
173 195 0
169 190 0
171 194 0
173 196 0
173 196 0
171 195 0
170 193 0
172 195 0
172 196 0
171 195 0
172 195 0
172 195 0
174 197 0
174 197 0
174 198 0
173 195 0
173 196 0
174 197 0
172 196 0
173 196 0
172 194 0
173 196 0
174 198 0
175 198 0
174 197 0
175 198 0
173 196 0
174 197 0
173 196 0
174 197 0
173 197 0
174 197 0
172 195 0
172 195 0
175 198 0
174 198 0
173 196 0
175 198 0
174 197 0
174 197 0
174 198 0
174 198 0
174 197 0
175 198 0
175 198 0
175 198 0
173 197 0
175 198 0
175 197 0
175 198 0
174 198 0
174 197 0
174 197 0
175 198 0
174 197 0
175 198 0
174 198 0
175 198 0
173 197 0
173 197 0
175 198 0
175 198 0
173 196 0
175 198 0
175 198 0
173 197 0
174 197 0
174 198 0
173 197 0
175 198 0
174 198 0
175 198 0
174 197 0
175 198 0
176 198 0
176 199 0
174 198 0
175 198 0
175 198 0
175 198 0
173 197 0
175 198 0
174 198 0
175 198 0
174 198 0
173 197 0
173 197 0
173 197 0
175 198 0
175 198 0
175 198 0
175 198 0
174 198 0
175 198 0
175 198 0
173 197 0
175 198 0
174 198 0
175 198 0
172 197 0
174 197 0
174 198 0
175 198 0
173 197 0
176 198 0
175 198 0
175 198 0
174 197 0
175 198 0
174 198 0
174 198 0
174 198 0
175 198 0
175 198 0
174 198 0
176 199 0
174 198 0
176 198 0
176 198 0
174 197 0
173 197 0
175 198 0
173 197 0
174 198 0
175 198 0
175 198 0
175 198 0
175 198 0
173 197 0
173 197 0
173 197 0
175 198 0
175 198 0
174 198 0
174 197 0
174 198 0
175 198 0
174 197 0
175 198 0
174 197 0
174 197 0
175 198 0
175 198 0
174 197 0
175 198 0
176 198 0
176 199 0
174 198 0
174 197 0
175 198 0
176 199 0
174 198 0
173 197 0
174 197 0
174 198 0
174 198 0
175 198 0
174 197 0
173 197 0
175 198 0
176 198 0
176 199 0
175 198 0
176 199 0
176 199 0
174 198 0
175 198 0
174 198 0
175 198 0
173 197 0
171 196 0
175 198 0
175 198 0
173 197 0
173 197 0
173 197 0
175 198 0
174 198 0
174 198 0
175 198 0
173 197 0
175 198 0
176 199 0
175 198 0
174 198 0
173 197 0
174 198 0
174 198 0
174 198 0
176 199 0
175 198 0
174 197 0
175 198 0
172 197 0
174 197 0
173 197 0
175 198 0
174 198 0
174 198 0
174 198 0
174 198 0
173 197 0
175 198 0
174 198 0
175 198 0
175 198 0
175 198 0
174 197 0
175 198 0
174 198 0
174 198 0
175 198 0
175 198 0
174 197 0
174 198 0
174 198 0
175 198 0
174 197 0
174 198 0
175 198 0
175 198 0
173 197 0
175 198 0
174 197 0
175 198 0
174 198 0
173 197 0
173 197 0
174 198 0
176 199 0
174 198 0
175 198 0
173 197 0
174 197 0
175 198 0
174 197 0
174 198 0
173 197 0
174 198 0
176 199 0
173 197 0
174 197 0
174 197 0
176 198 0
174 198 0
173 197 0
174 198 0
173 197 0
175 198 0
173 197 0
174 198 0
172 196 0
173 197 0
175 198 0
173 197 0
174 198 0
174 198 0
175 198 0
173 197 0
173 197 0
173 197 0
174 197 0
176 199 0
174 198 0
173 197 0
174 198 0
174 196 0
175 198 0
175 198 0
175 198 0
175 198 0
175 198 0
175 198 0
172 197 0
174 198 0
173 196 0
172 196 0
173 197 0
174 197 0
174 197 0
172 196 0
173 196 0
175 198 0
174 198 0
175 198 0
174 197 0
172 196 0
172 195 0
174 197 0
172 196 0
170 194 0
171 195 0
173 196 0
173 196 0
172 196 0
174 197 0
172 195 0
171 195 0
173 196 0
174 198 0
173 195 0
174 197 0
173 196 0
170 193 0
173 196 25
173 197 62
183 204 111
193 212 153
195 214 169
193 213 163
183 204 130
183 205 114
175 199 88
174 197 57
173 196 51
169 194 72
167 190 62
170 194 57
171 195 62
172 196 67
168 192 80
168 191 76
166 190 67
167 191 80
169 192 57
164 189 72
160 184 67
158 182 51
156 179 62
162 185 67
161 184 99
152 174 72
125 147 82
91 118 120
88 115 131
84 111 132
97 122 143
83 112 141
73 104 144
80 106 136
72 101 141
75 104 134
64 96 131
60 94 133
59 93 133
58 92 123
58 92 122
59 93 131
59 93 124
57 91 126
60 94 126
61 95 122
58 92 115
60 94 124
59 93 122
57 90 117
55 88 110
61 92 95
108 128 57
116 131 0
123 135 0
130 142 0
128 141 0
131 144 0
129 142 0
136 152 0
140 153 0
141 154 0
142 157 0
136 151 0
142 155 0
143 156 0
152 167 0
149 163 0
151 165 0
148 164 0
153 167 0
155 169 0
159 175 0
164 180 0
161 179 0
164 182 0
165 182 0
165 182 0
162 179 0
169 187 0
167 185 0
163 182 0
167 185 0
167 188 0
170 192 0
166 186 0
168 188 0
173 194 0
167 187 0
172 194 0
168 188 0
169 191 0
168 190 0
170 192 0
172 195 0
170 192 0
174 195 0
171 194 0
171 194 0
170 193 0
172 194 0
173 196 0
173 196 0
172 194 0
173 196 0
173 195 0
173 196 0
170 193 0
172 196 0
171 195 0
173 196 0
173 196 0
174 198 0
172 196 0
175 197 0
170 195 0
174 196 0
173 197 0
174 196 0
173 196 0
176 198 0
174 198 0
174 197 0
174 197 0
174 198 0
176 198 0
172 195 0
174 196 0
174 197 0
175 198 0
174 198 0
174 197 0
173 196 0
174 197 0
175 198 0
174 197 0
174 198 0
174 197 0
174 197 0
173 197 0
174 198 0
173 197 0
174 197 0
174 197 0
174 197 0
174 197 0
172 196 0
176 199 0
173 197 0
176 198 0
175 197 0
175 198 0
174 198 0
176 199 0
175 198 0
175 198 0
175 198 0
175 198 0
174 198 0
174 198 0
175 198 0
177 199 0
173 197 0
173 197 0
174 198 0
175 198 0
174 198 0
174 198 0
175 198 0
175 198 0
173 197 0
175 198 0
174 198 0
174 197 0
176 198 0
174 197 0
173 197 0
174 197 0
174 197 0
176 199 0
175 198 0
175 198 0
175 198 0
174 198 0
175 198 0
174 198 0
171 196 0
174 197 0
174 197 0
173 197 0
174 198 0
174 198 0
175 198 0
176 199 0
175 198 0
174 197 0
176 198 0
173 197 0
175 198 0
174 197 0
174 198 0
177 199 0
173 197 0
174 198 0
175 198 0
176 199 0
174 198 0
175 198 0
175 198 0
176 198 0
174 197 0
174 197 0
175 198 0
174 198 0
174 198 0
174 198 0
174 198 0
174 198 0
174 197 0
174 197 0
175 198 0
176 198 0
174 198 0
173 197 0
175 198 0
175 198 0
175 198 0
174 198 0
174 198 0
175 198 0
174 197 0
175 198 0
174 198 0
172 196 0
175 198 0
171 196 0
175 198 0
175 198 0
173 197 0
176 199 0
175 198 0
176 199 0
175 198 0
175 198 0
173 197 0
173 197 0
175 198 0
174 198 0
176 199 0
175 198 0
173 197 0
175 198 0
176 199 0
175 198 0
174 198 0
175 198 0
175 198 0
173 197 0
175 198 0
174 198 0
174 198 0
174 197 0
174 198 0
173 197 0
175 198 0
175 198 0
173 197 0
174 197 0
175 198 0
173 197 0
176 199 0
175 198 0
175 198 0
174 197 0
176 199 0
175 198 0
173 197 0
176 199 0
174 198 0
174 198 0
175 198 0
175 198 0
176 198 0
174 197 0
174 197 0
175 198 0
173 197 0
174 197 0
175 198 0
175 198 0
176 199 0
175 198 0
172 197 0
174 198 0
173 197 0
175 198 0
174 197 0
175 198 0
174 197 0
174 198 0
174 198 0
174 198 0
174 198 0
175 198 0
174 198 0
173 197 0
174 197 0
176 199 0
174 197 0
174 198 0
175 198 0
173 197 0
175 198 0
173 197 0
174 198 0
174 197 0
174 198 0
174 198 0
176 199 0
173 197 0
174 198 0
176 199 0
173 197 0
174 197 0
174 197 0
176 199 0
175 198 0
174 198 0
173 197 0
176 199 0
174 198 0
176 198 0
174 198 0
175 198 0
174 198 0
174 198 0
174 198 0
176 199 0
173 197 0
176 198 0
174 197 0
175 198 0
175 198 0
175 198 0
174 197 0
174 197 0
172 196 0
175 198 0
173 197 0
172 196 0
173 197 0
174 198 0
175 198 0
174 198 0
172 197 0
173 197 0
175 198 0
173 197 0
173 197 0
171 195 0
173 197 0
173 197 0
173 197 0
175 197 0
174 197 0
175 198 0
174 198 0
173 197 0
174 197 0
174 198 0
175 198 0
174 198 0
172 196 0
176 198 0
173 197 0
171 195 0
176 199 0
173 196 0
173 197 0
172 196 0
174 197 0
173 196 0
174 197 0
172 196 0
174 198 0
169 193 0
171 195 0
173 196 0
171 195 0
174 197 0
171 195 0
173 196 0
172 195 0
169 192 0
170 194 0
174 197 0
169 193 0
174 197 44
169 192 25
178 200 72
187 207 122
191 211 147
190 210 147
186 206 133
182 204 111
171 195 72
172 196 84
175 198 67
173 197 76
170 194 67
172 196 84
171 194 57
171 196 67
171 195 92
170 194 92
168 192 95
165 189 84
165 189 72
169 193 84
165 189 88
167 191 105
165 187 67
163 187 102
160 182 67
162 185 62
150 173 76
147 169 57
109 132 88
87 115 109
99 123 121
84 110 117
97 123 129
88 116 140
88 114 139
90 111 126
68 99 129
71 101 118
61 94 120
58 92 125
57 91 117
55 88 99
56 90 107
58 91 113
57 91 115
58 91 121
56 89 102
59 93 115
58 92 118
57 90 115
57 90 105
64 92 94
97 113 44
100 114 0
123 138 0
121 137 0
136 153 0
125 140 0
138 156 0
134 149 0
137 152 0
142 157 0
143 157 0
139 155 0
148 165 0
149 165 0
148 162 0
152 168 0
149 163 0
154 170 0
157 176 0
157 174 0
161 179 0
161 177 0
164 180 0
159 177 0
167 186 0
159 178 0
163 182 0
162 180 0
163 183 0
165 185 0
167 188 0
165 185 0
165 187 0
167 187 0
172 194 0
172 191 0
165 187 0
170 190 0
170 191 0
168 189 0
171 190 0
171 192 0
171 193 0
173 196 0
172 193 0
171 193 0
172 193 0
173 195 0
168 191 0
174 195 0
172 195 0
173 195 0
171 195 0
171 195 0
175 198 0
173 197 0
172 195 0
172 194 0
173 195 0
174 197 0
169 193 0
174 197 0
173 196 0
174 197 0
171 193 0
174 197 0
174 197 0
174 196 0
171 194 0
173 197 0
173 196 0
172 195 0
174 197 0
173 196 0
174 197 0
173 197 0
174 197 0
174 197 0
175 198 0
175 198 0
174 197 0
173 197 0
175 198 0
173 196 0
174 198 0
175 198 0
174 198 0
173 197 0
175 198 0
173 196 0
175 198 0
173 197 0
173 196 0
173 197 0
175 198 0
174 197 0
174 197 0
175 198 0
174 198 0
175 198 0
173 197 0
173 197 0
173 197 0
174 198 0
174 198 0
174 197 0
174 198 0
173 197 0
175 197 0
175 198 0
174 196 0
174 198 0
175 198 0
174 198 0
173 197 0
175 198 0
173 197 0
172 197 0
173 197 0
174 198 0
175 198 0
172 197 0
173 197 0
175 198 0
175 197 0
174 198 0
174 198 0
175 198 0
173 197 0
174 198 0
174 198 0
174 198 0
175 198 0
172 197 0
174 197 0
174 197 0
174 197 0
173 197 0
173 197 0
175 198 0
175 198 0
175 198 0
174 198 0
176 199 0
175 198 0
175 198 0
174 198 0
173 197 0
175 198 0
173 197 0
175 198 0
176 199 0
176 198 0
175 198 0
175 198 0
174 198 0
174 198 0
174 197 0
175 198 0
174 198 0
174 198 0
175 198 0
175 198 0
175 198 0
175 198 0
174 197 0
175 198 0
174 198 0
175 198 0
176 198 0
174 198 0
174 198 0
177 199 0
176 198 0
176 199 0
174 198 0
174 198 0
174 197 0
175 198 0
175 198 0
176 198 0
174 198 0
175 198 0
175 198 0
173 197 0
175 198 0
175 198 0
175 198 0
176 199 0
174 197 0
176 199 0
173 197 0
174 197 0
174 198 0
175 198 0
176 199 0
176 198 0
174 198 0
173 197 0
173 197 0
175 198 0
175 198 0
173 197 0
174 198 0
174 197 0
174 198 0
175 198 0
175 198 0
175 198 0
175 198 0
175 198 0
173 197 0
174 198 0
174 198 0
175 198 0
174 198 0
172 197 0
176 199 0
176 198 0
173 197 0
174 198 0
176 198 0
173 197 0
176 199 0
174 198 0
176 199 0
174 198 0
174 197 0
174 198 0
174 198 0
174 198 0
175 198 0
173 197 0
175 198 0
174 198 0
175 198 0
174 197 0
173 197 0
175 198 0
175 198 0
174 198 0
174 198 0
175 198 0
173 197 0
174 198 0
176 198 0
174 197 0
174 197 0
175 198 0
175 198 0
176 199 0
174 197 0
174 198 0
174 198 0
176 199 0
175 198 0
175 198 0
173 197 0
172 197 0
174 197 0
174 198 0
173 197 0
173 197 0
176 198 0
173 197 0
174 198 0
174 198 0
173 197 0
174 197 0
175 198 0
174 198 0
175 198 0
173 197 0
174 197 0
175 198 0
174 197 0
175 198 0
174 197 0
174 197 0
173 197 0
174 197 0
175 198 0
174 198 0
174 198 0
175 198 0
175 198 0
175 198 0
174 198 0
176 198 0
174 197 0
175 198 0
173 197 0
173 197 0
174 198 0
173 197 0
175 198 0
174 197 0
174 197 0
173 197 0
175 198 0
175 198 0
174 197 0
174 197 0
172 196 0
172 196 0
171 195 0
175 198 0
174 197 0
173 196 0
173 197 0
174 198 0
174 197 0
174 198 0
175 198 0
175 198 0
173 197 0
172 197 0
171 195 0
175 198 0
174 198 0
172 195 0
173 196 0
173 197 0
174 197 0
173 196 0
173 197 0
173 197 0
173 196 0
174 197 0
173 197 0
172 195 0
172 196 0
171 194 0
172 195 0
174 196 0
173 196 0
172 195 0
172 196 0
171 195 0
172 196 0
170 193 0
171 196 0
172 194 0
174 198 0
169 193 0
172 196 0
172 195 0
172 196 25
176 198 67
185 206 128
190 209 140
192 212 153
180 201 125
178 200 105
172 196 67
173 196 62
170 193 76
171 194 67
171 195 88
170 193 62
168 192 62
171 195 67
173 197 102
168 193 102
170 194 67
163 186 105
166 189 92
170 194 108
166 189 105
165 189 84
159 183 113
156 180 108
152 174 76
161 183 102
157 179 95
150 171 76
134 154 62
108 131 102
86 111 120
103 126 118
90 115 123
87 114 128
87 112 127
106 123 107
84 105 108
76 103 110
63 94 111
58 90 114
54 86 88
56 90 94
56 89 103
56 89 99
58 92 108
57 90 114
55 88 111
55 88 103
58 91 111
58 87 82
84 106 62
107 123 0
126 140 0
108 122 0
120 137 0
121 138 0
123 139 0
137 156 0
129 147 0
142 160 0
139 155 0
148 166 0
143 160 0
144 159 0
143 159 0
139 156 0
151 168 0
160 177 0
158 176 0
151 167 0
155 173 0
154 169 0
157 175 0
155 172 0
158 178 0
164 182 0
157 175 0
159 177 0
164 183 0
165 186 0
163 182 0
166 185 0
166 187 0
167 185 0
167 186 0
169 189 0
169 190 0
165 185 0
169 190 0
169 191 0
167 188 0
172 194 0
172 194 0
172 194 0
172 195 0
168 189 0
172 194 0
171 192 0
174 196 0
172 195 0
171 193 0
172 195 0
173 196 0
172 194 0
174 197 0
173 196 0
172 195 0
172 194 0
174 197 0
171 194 0
173 194 0
172 196 0
172 195 0
174 197 0
172 195 0
174 197 0
173 196 0
173 195 0
172 196 0
171 194 0
173 196 0
174 197 0
174 197 0
173 197 0
174 197 0
173 197 0
173 197 0
176 198 0
175 198 0
174 197 0
174 196 0
173 196 0
172 196 0
176 198 0
174 197 0
173 196 0
173 197 0
174 197 0
173 197 0
174 198 0
173 197 0
174 197 0
174 197 0
174 198 0
174 197 0
174 197 0
173 197 0
176 199 0
176 199 0
175 198 0
174 198 0
174 198 0
176 199 0
175 198 0
174 197 0
174 197 0
176 199 0
171 196 0
175 198 0
176 199 0
174 198 0
174 197 0
174 198 0
174 198 0
176 198 0
175 198 0
174 197 0
175 198 0
173 197 0
174 197 0
174 197 0
175 198 0
172 197 0
172 196 0
174 197 0
174 197 0
172 196 0
173 197 0
173 196 0
173 197 0
174 197 0
174 198 0
173 197 0
175 198 0
172 197 0
174 198 0
174 198 0
174 197 0
173 197 0
173 197 0
175 198 0
175 198 0
175 198 0
174 198 0
174 197 0
176 199 0
175 198 0
174 198 0
175 198 0
174 197 0
176 199 0
175 198 0
173 197 0
175 198 0
173 197 0
175 198 0
175 198 0
173 197 0
173 197 0
173 197 0
175 198 0
175 198 0
174 198 0
176 199 0
175 198 0
175 198 0
176 198 0
173 197 0
173 197 0
175 198 0
173 197 0
176 199 0
175 198 0
173 197 0
174 198 0
175 198 0
175 198 0
173 197 0
175 198 0
174 198 0
175 198 0
175 198 0
175 198 0
174 198 0
175 198 0
176 198 0
176 199 0
174 198 0
174 198 0
175 198 0
174 198 0
174 198 0
173 197 0
175 198 0
174 198 0
172 197 0
174 198 0
175 198 0
174 197 0
174 198 0
176 199 0
175 198 0
175 198 0
174 198 0
174 198 0
174 198 0
175 198 0
174 198 0
172 196 0
175 198 0
174 198 0
173 197 0
175 198 0
175 198 0
175 198 0
175 198 0
175 198 0
174 198 0
176 198 0
174 197 0
174 197 0
177 199 0
174 198 0
175 198 0
174 198 0
174 198 0
173 197 0
174 198 0
174 197 0
176 199 0
175 198 0
175 198 0
175 198 0
175 198 0
175 198 0
176 198 0
175 198 0
175 198 0
174 197 0
173 197 0
174 197 0
173 197 0
174 198 0
174 198 0
175 198 0
174 197 0
174 198 0
174 198 0
174 197 0
173 197 0
174 198 0
176 198 0
173 197 0
173 197 0
176 199 0
174 198 0
176 198 0
175 198 0
174 198 0
176 198 0
176 199 0
176 199 0
175 198 0
174 198 0
174 197 0
175 198 0
175 198 0
175 198 0
174 197 0
173 197 0
174 197 0
173 197 0
174 197 0
173 197 0
174 198 0
174 198 0
175 198 0
175 198 0
174 197 0
175 198 0
175 198 0
175 198 0
174 197 0
175 198 0
173 197 0
175 198 0
175 198 0
174 198 0
174 197 0
174 197 0
176 199 0
174 197 0
174 197 0
173 197 0
175 198 0
174 198 0
175 198 0
175 198 0
175 198 0
174 197 0
174 197 0
175 198 0
175 198 0
173 197 0
174 196 0
175 198 0
173 196 0
175 198 0
173 197 0
174 198 0
173 197 0
175 198 0
173 197 0
175 198 0
174 197 0
173 197 0
173 196 0
174 197 0
174 197 0
173 197 0
174 197 0
172 196 0
174 198 0
174 198 0
174 197 0
173 197 0
174 198 0
171 195 0
174 197 0
173 197 0
175 198 0
176 198 0
170 194 0
173 197 0
174 198 0
172 195 0
173 196 0
174 198 0
173 196 0
172 195 0
171 195 0
172 196 0
172 196 0
169 193 0
174 198 0
171 195 0
171 195 0
173 197 0
172 196 0
176 198 36
177 199 67
184 205 122
186 207 135
183 204 114
182 204 105
175 197 80
172 194 72
172 196 67
173 196 76
173 196 84
172 195 72
173 196 76
169 192 76
164 187 76
170 195 88
171 194 108
172 196 102
167 190 99
167 191 114
168 190 105
169 191 108
166 189 99
157 180 103
151 174 76
157 180 99
152 173 105
153 175 102
155 175 108
146 167 88
144 163 76
100 121 72
91 116 107
102 126 122
101 125 122
104 127 124
100 121 103
109 130 88
70 97 99
62 91 94
60 92 100
54 86 88
55 87 105
54 86 97
54 87 86
55 87 92
56 88 102
55 87 92
53 82 74
78 99 60
104 120 36
91 105 0
109 124 0
118 134 0
121 138 0
113 128 0
122 136 0
132 150 0
142 160 0
135 151 0
139 154 0
139 157 0
139 156 0
150 169 0
142 159 0
148 167 0
151 170 0
155 173 0
156 175 0
158 176 0
158 175 0
165 184 0
163 183 0
153 170 0
160 181 0
166 185 0
162 182 0
160 178 0
164 184 0
164 184 0
165 185 0
164 184 0
169 190 0
166 186 0
165 187 0
166 185 0
162 182 0
165 186 0
168 190 0
168 188 0
167 189 0
167 189 0
172 194 0
172 193 0
172 194 0
171 193 0
170 191 0
170 192 0
169 192 0
172 195 0
170 192 0
171 194 0
172 195 0
170 193 0
173 197 0
172 194 0
172 194 0
174 197 0
173 196 0
173 195 0
171 196 0
173 197 0
172 195 0
173 196 0
173 196 0
171 194 0
174 196 0
173 195 0
173 197 0
173 197 0
174 197 0
173 196 0
175 198 0
171 194 0
173 197 0
173 196 0
175 198 0
174 197 0
173 195 0
173 197 0
174 197 0
174 197 0
173 197 0
175 198 0
174 197 0
174 198 0
175 198 0
175 198 0
174 198 0
174 198 0
174 197 0
172 196 0
173 197 0
174 197 0
176 199 0
173 197 0
173 197 0
173 197 0
175 198 0
173 197 0
174 197 0
176 198 0
175 198 0
171 194 0
175 198 0
177 199 0
174 197 0
173 197 0
175 198 0
174 198 0
174 197 0
172 196 0
174 198 0
174 198 0
174 197 0
175 198 0
174 197 0
173 197 0
174 198 0
175 198 0
174 197 0
176 199 0
174 198 0
175 198 0
174 198 0
175 198 0
174 198 0
173 197 0
173 197 0
175 198 0
175 198 0
174 198 0
174 198 0
173 197 0
173 197 0
174 197 0
176 198 0
174 197 0
175 198 0
175 198 0
173 197 0
175 198 0
175 198 0
174 198 0
173 197 0
173 197 0
175 198 0
175 198 0
175 198 0
174 198 0
174 198 0
174 198 0
175 198 0
173 197 0
174 198 0
174 198 0
173 197 0
175 198 0
174 198 0
175 198 0
174 197 0
175 198 0
174 197 0
175 198 0
174 198 0
173 197 0
175 198 0
175 198 0
175 198 0
173 197 0
174 198 0
174 198 0
176 198 0
173 197 0
173 197 0
175 198 0
174 198 0
174 197 0
175 198 0
174 198 0
173 197 0
174 198 0
173 197 0
174 198 0
174 198 0
175 198 0
175 198 0
174 198 0
174 198 0
175 198 0
173 197 0
173 197 0
174 197 0
174 198 0
174 197 0
176 198 0
174 198 0
173 197 0
175 198 0
174 198 0
174 198 0
174 198 0
173 197 0
174 198 0
175 198 0
175 198 0
174 197 0
174 197 0
175 198 0
174 198 0
176 198 0
175 198 0
175 198 0
174 198 0
175 198 0
176 198 0
174 198 0
174 198 0
175 198 0
174 197 0
175 198 0
175 198 0
174 197 0
175 198 0
175 198 0
175 198 0
173 197 0
173 197 0
174 198 0
173 197 0
176 199 0
173 197 0
175 198 0
174 198 0
174 198 0
174 198 0
173 197 0
174 198 0
174 198 0
174 197 0
174 198 0
174 197 0
175 198 0
174 198 0
175 198 0
177 199 0
174 197 0
175 198 0
175 198 0
174 198 0
174 198 0
174 197 0
175 198 0
175 198 0
174 198 0
174 197 0
174 198 0
174 198 0
174 198 0
174 198 0
174 198 0
174 198 0
174 198 0
173 197 0
174 197 0
175 198 0
171 196 0
174 198 0
174 197 0
174 198 0
175 198 0
174 198 0
173 197 0
175 198 0
174 197 0
174 198 0
175 198 0
174 198 0
174 198 0
175 198 0
175 198 0
174 197 0
174 197 0
174 197 0
175 198 0
176 198 0
174 197 0
173 197 0
173 197 0
173 197 0
175 198 0
174 197 0
173 197 0
175 198 0
173 196 0
173 196 0
174 198 0
174 197 0
176 199 0
175 198 0
175 198 0
175 198 0
173 197 0
176 199 0
175 198 0
174 198 0
175 197 0
173 197 0
174 197 0
174 198 0
175 197 0
175 198 0
175 198 0
174 198 0
174 197 0
174 197 0
175 197 0
175 198 0
174 197 0
174 198 0
174 197 0
173 196 0
173 197 0
171 195 0
174 198 0
174 197 0
174 197 0
175 198 0
174 198 0
173 197 0
172 196 0
173 197 0
175 197 0
171 195 0
173 196 0
173 197 0
173 197 0
174 197 0
173 196 0
171 195 0
170 194 0
172 196 0
173 197 0
171 195 0
167 192 0
175 197 0
173 196 0
172 196 0
170 194 0
173 195 36
174 197 25
174 197 57
186 207 120
184 206 111
182 203 102
178 200 99
176 199 80
174 197 72
173 197 84
168 191 51
174 198 84
167 192 84
175 200 102
175 199 80
171 194 99
169 192 84
167 191 84
173 196 102
165 188 95
168 191 95
164 187 84
167 191 100
159 181 84
156 179 95
159 183 99
152 173 95
154 176 88
145 167 102
145 166 67
130 150 80
131 149 99
127 144 76
113 132 92
87 111 94
94 116 84
114 132 90
118 136 72
104 125 47
98 119 74
85 106 62
82 103 54
58 83 72
67 93 82
59 87 78
60 87 76
54 81 72
77 99 57
86 103 51
101 116 0
107 123 0
112 128 0
110 126 0
113 129 0
121 137 0
130 148 0
130 149 0
125 141 0
129 145 0
135 152 0
140 159 0
141 159 0
149 169 0
146 166 0
145 163 0
152 171 0
146 165 0
154 174 0
144 163 0
154 174 0
149 168 0
154 173 0
156 173 0
161 182 0
157 176 0
165 187 0
163 182 0
164 182 0
166 185 0
164 183 0
162 181 0
164 184 0
163 183 0
165 186 0
167 188 0
168 189 0
167 188 0
169 191 0
169 190 0
167 187 0
171 193 0
167 189 0
170 191 0
171 195 0
171 192 0
173 195 0
171 193 0
168 191 0
173 195 0
170 192 0
172 195 0
169 191 0
173 197 0
174 196 0
173 196 0
172 194 0
172 195 0
171 194 0
173 196 0
173 195 0
173 196 0
173 196 0
171 193 0
174 197 0
174 197 0
172 195 0
174 197 0
173 196 0
174 196 0
174 197 0
173 196 0
176 198 0
174 197 0
173 196 0
174 196 0
173 197 0
173 196 0
174 197 0
174 197 0
173 196 0
176 198 0
174 198 0
172 197 0
174 198 0
174 198 0
173 197 0
174 198 0
175 198 0
173 197 0
174 197 0
174 197 0
175 198 0
174 197 0
176 198 0
174 197 0
175 198 0
176 198 0
174 197 0
174 197 0
175 198 0
173 196 0
174 197 0
174 198 0
175 198 0
172 196 0
177 199 0
175 198 0
173 197 0
174 198 0
175 198 0
176 198 0
172 197 0
172 196 0
173 197 0
175 198 0
174 197 0
173 197 0
174 197 0
174 198 0
175 198 0
174 197 0
175 198 0
174 197 0
174 198 0
173 197 0
174 198 0
174 198 0
174 198 0
174 198 0
174 197 0
173 197 0
175 198 0
173 197 0
173 197 0
175 198 0
174 197 0
175 198 0
176 199 0
175 198 0
174 198 0
175 198 0
173 197 0
175 198 0
174 197 0
173 197 0
174 197 0
175 198 0
175 198 0
173 197 0
176 199 0
175 198 0
174 197 0
173 197 0
174 197 0
175 198 0
174 198 0
175 198 0
173 197 0
174 198 0
175 198 0
176 199 0
176 198 0
174 198 0
173 197 0
174 197 0
174 198 0
175 198 0
172 197 0
174 198 0
175 198 0
174 197 0
174 197 0
177 199 0
175 198 0
174 198 0
176 198 0
175 198 0
173 197 0
174 198 0
173 197 0
174 198 0
174 198 0
174 197 0
174 197 0
174 197 0
173 197 0
174 198 0
175 198 0
174 197 0
174 197 0
174 198 0
175 198 0
173 197 0
173 197 0
174 197 0
173 197 0
174 197 0
174 198 0
175 198 0
175 198 0
174 197 0
173 197 0
175 198 0
175 198 0
174 198 0
175 198 0
174 198 0
175 198 0
175 198 0
176 199 0
173 197 0
176 199 0
174 197 0
177 199 0
175 198 0
173 197 0
174 198 0
176 199 0
176 199 0
175 198 0
174 198 0
174 197 0
175 198 0
175 198 0
172 197 0
174 198 0
174 197 0
175 198 0
174 197 0
174 198 0
174 198 0
174 198 0
176 199 0
174 198 0
174 198 0
175 198 0
175 198 0
176 198 0
173 197 0
174 197 0
173 197 0
176 199 0
174 198 0
176 199 0
174 198 0
174 198 0
174 198 0
173 197 0
175 197 0
173 197 0
176 199 0
176 199 0
174 198 0
174 198 0
174 198 0
175 198 0
174 198 0
174 197 0
176 199 0
173 197 0
174 197 0
174 197 0
173 197 0
174 198 0
175 198 0
175 198 0
174 198 0
175 198 0
175 198 0
175 198 0
175 198 0
174 198 0
174 198 0
173 197 0
174 198 0
173 197 0
173 197 0
174 197 0
172 196 0
175 198 0
174 197 0
174 197 0
174 197 0
175 198 0
174 198 0
176 199 0
174 198 0
173 197 0
174 198 0
174 197 0
174 198 0
173 197 0
175 198 0
173 197 0
173 197 0
173 197 0
174 198 0
174 198 0
174 197 0
176 199 0
177 199 0
175 198 0
171 195 0
172 196 0
174 197 0
173 197 0
175 198 0
173 197 0
174 198 0
174 197 0
174 197 0
174 197 0
174 198 0
173 196 0
172 196 0
174 198 0
174 197 0
175 198 0
174 198 0
174 197 0
171 196 0
175 198 0
173 197 0
175 198 0
171 195 0
174 198 0
173 197 0
173 197 0
173 196 0
175 198 0
175 198 0
173 197 0
175 197 0
174 197 0
173 197 0
175 198 0
174 197 0
172 195 0
172 196 0
172 195 0
171 194 0
174 198 0
173 196 0
171 195 0
170 193 0
169 193 0
171 194 0
173 197 0
174 197 0
169 193 0
171 194 25
174 197 36
177 200 76
180 202 88
178 200 80
179 201 72
182 204 105
172 196 67
175 197 92
170 193 72
172 196 67
171 194 67
174 197 80
177 199 88
174 197 108
170 194 102
174 198 99
170 194 108
168 191 76
165 189 84
170 194 105
168 191 111
164 187 108
164 187 80
159 183 105
155 178 88
160 182 114
150 172 88
151 173 95
155 175 95
153 174 105
149 168 102
123 141 80
117 134 44
125 142 67
111 131 84
123 143 74
128 143 51
132 152 51
114 133 25
108 124 0
93 109 18
85 101 0
93 109 0
87 102 0
93 108 0
90 106 0
83 100 0
105 121 0
113 129 0
107 124 0
115 131 0
102 121 0
120 136 0
127 144 0
134 152 0
139 159 0
134 153 0
139 158 0
132 150 0
145 164 0
152 171 0
147 166 0
143 162 0
137 157 0
150 170 0
143 161 0
159 181 0
155 176 0
154 174 0
158 177 0
159 179 0
161 180 0
159 180 0
156 176 0
164 183 0
161 182 0
166 188 0
163 183 0
163 182 0
166 185 0
164 184 0
163 183 0
168 190 0
171 192 0
169 191 0
167 189 0
168 190 0
168 188 0
169 191 0
170 191 0
169 192 0
166 189 0
172 194 0
171 192 0
173 196 0
173 195 0
171 194 0
172 194 0
170 192 0
170 194 0
170 191 0
172 194 0
170 193 0
170 193 0
172 195 0
172 196 0
172 194 0
171 194 0
169 192 0
175 197 0
170 193 0
173 196 0
174 197 0
171 195 0
173 196 0
174 196 0
175 198 0
172 196 0
173 196 0
171 194 0
174 196 0
174 197 0
173 197 0
173 196 0
173 197 0
175 198 0
174 197 0
173 196 0
174 197 0
173 197 0
175 197 0
174 198 0
175 197 0
174 197 0
174 197 0
173 196 0
174 197 0
173 196 0
174 197 0
173 197 0
174 197 0
172 197 0
174 197 0
176 199 0
175 198 0
172 197 0
173 197 0
175 197 0
174 198 0
176 198 0
174 198 0
172 196 0
174 198 0
174 197 0
175 198 0
175 198 0
175 198 0
174 197 0
175 198 0
174 198 0
174 197 0
173 197 0
173 197 0
172 196 0
173 197 0
174 198 0
173 197 0
174 198 0
173 197 0
174 198 0
173 197 0
174 197 0
173 197 0
174 198 0
174 198 0
174 198 0
175 198 0
175 198 0
176 198 0
174 197 0
175 198 0
173 197 0
174 198 0
175 198 0
175 198 0
173 197 0
174 197 0
175 198 0
175 197 0
174 198 0
174 198 0
174 198 0
175 198 0
175 198 0
174 198 0
175 198 0
175 198 0
172 197 0
175 198 0
174 197 0
176 199 0
175 198 0
173 197 0
175 198 0
174 198 0
174 198 0
175 198 0
174 197 0
173 197 0
175 198 0
174 197 0
174 198 0
173 197 0
174 198 0
174 197 0
172 197 0
174 197 0
175 198 0
175 198 0
176 199 0
175 198 0
174 198 0
174 198 0
174 198 0
174 197 0
177 199 0
175 198 0
175 198 0
174 198 0
175 198 0
175 198 0
175 198 0
174 198 0
173 197 0
173 197 0
176 198 0
174 198 0
175 198 0
175 198 0
175 198 0
175 198 0
173 197 0
174 198 0
175 198 0
176 199 0
174 198 0
175 198 0
175 198 0
176 199 0
175 198 0
175 198 0
174 198 0
176 199 0
174 198 0
175 198 0
175 198 0
175 198 0
174 198 0
173 197 0
174 198 0
174 197 0
175 198 0
175 198 0
174 197 0
175 198 0
176 199 0
175 198 0
175 198 0
174 197 0
173 197 0
175 198 0
174 198 0
175 198 0
175 198 0
172 197 0
174 198 0
174 197 0
172 197 0
173 197 0
174 198 0
175 198 0
174 198 0
173 197 0
173 197 0
174 198 0
175 198 0
175 198 0
176 198 0
174 197 0
176 199 0
175 198 0
174 197 0
174 198 0
176 199 0
174 198 0
173 197 0
174 198 0
172 197 0
175 198 0
175 198 0
173 197 0
175 198 0
175 198 0
175 198 0
174 197 0
175 198 0
176 199 0
177 199 0
174 198 0
176 199 0
176 199 0
173 197 0
175 198 0
172 196 0
173 197 0
175 198 0
173 197 0
174 198 0
176 199 0
174 197 0
174 198 0
176 199 0
173 197 0
174 197 0
176 199 0
176 198 0
174 198 0
174 198 0
174 197 0
173 197 0
174 197 0
176 199 0
174 198 0
174 198 0
173 197 0
176 199 0
174 198 0
175 198 0
174 198 0
173 197 0
175 198 0
173 197 0
175 198 0
174 197 0
173 197 0
174 197 0
174 197 0
175 198 0
176 199 0
174 197 0
175 198 0
175 198 0
175 198 0
172 196 0
173 197 0
174 197 0
174 198 0
173 197 0
175 198 0
174 197 0
174 198 0
173 197 0
172 196 0
174 197 0
171 194 0
173 196 0
174 197 0
174 197 0
174 198 0
175 198 0
173 196 0
173 197 0
172 196 0
172 196 0
173 196 0
175 198 0
173 196 0
172 195 0
172 195 0
174 198 0
173 197 0
173 197 0
173 197 0
176 198 0
174 198 0
174 198 0
173 196 0
171 195 0
173 196 0
171 195 0
171 195 0
172 196 0
173 196 0
173 196 0
174 197 0
173 197 0
172 195 0
171 195 0
169 193 0
174 197 36
170 193 36
177 200 57
177 199 57
176 198 76
178 200 62
174 197 51
176 199 92
169 193 57
166 190 44
168 191 80
172 196 92
175 198 92
173 195 102
167 191 84
171 194 95
168 192 99
169 193 111
173 197 108
170 193 111
167 190 88
171 195 111
162 186 99
162 185 92
167 189 80
161 184 111
156 179 76
161 183 120
159 180 92
152 172 95
157 177 95
147 166 108
143 162 84
129 147 72
127 145 57
126 143 25
141 160 67
138 157 25
131 150 0
124 143 0
124 142 0
121 138 0
112 131 0
95 110 0
115 131 0
107 123 0
118 135 0
108 126 0
111 128 0
114 131 0
114 131 0
136 155 0
122 139 0
132 152 0
127 147 0
132 152 0
143 163 0
145 164 0
144 165 0
147 167 0
141 160 0
152 173 0
149 168 0
157 178 0
148 167 0
155 176 0
155 176 0
152 173 0
153 173 0
159 178 0
162 184 0
157 178 0
159 177 0
164 185 0
166 187 0
160 181 0
162 180 0
163 181 0
165 185 0
165 187 0
167 188 0
163 184 0
167 189 0
165 187 0
166 187 0
164 185 0
167 189 0
173 195 0
163 184 0
173 196 0
168 190 0
167 189 0
164 187 0
173 194 0
171 194 0
169 191 0
171 193 0
170 193 0
171 194 0
173 196 0
171 194 0
171 194 0
172 194 0
174 197 0
170 193 0
172 195 0
169 192 0
173 196 0
169 193 0
172 194 0
173 196 0
170 193 0
173 196 0
174 197 0
173 195 0
172 195 0
171 194 0
173 196 0
174 196 0
173 196 0
171 195 0
173 197 0
173 197 0
174 197 0
174 197 0
172 195 0
173 196 0
175 198 0
174 197 0
174 197 0
173 197 0
174 197 0
173 197 0
174 197 0
173 197 0
173 197 0
173 197 0
175 197 0
175 198 0
174 197 0
174 197 0
175 198 0
174 197 0
174 198 0
176 198 0
175 198 0
174 197 0
172 195 0
173 197 0
174 198 0
173 197 0
173 197 0
175 198 0
174 197 0
175 198 0
175 198 0
174 197 0
174 197 0
173 197 0
174 197 0
176 199 0
174 197 0
175 198 0
175 198 0
175 198 0
175 198 0
173 197 0
173 197 0
175 198 0
172 197 0
174 197 0
174 198 0
174 198 0
175 198 0
172 196 0
175 198 0
174 197 0
176 199 0
174 198 0
174 198 0
175 198 0
174 198 0
175 198 0
176 198 0
175 198 0
175 198 0
175 198 0
174 197 0
173 197 0
175 198 0
174 198 0
173 197 0
175 198 0
173 197 0
173 197 0
176 198 0
173 197 0
176 199 0
175 198 0
177 199 0
175 198 0
175 198 0
173 197 0
174 198 0
174 198 0
176 198 0
173 197 0
176 199 0
174 197 0
174 198 0
176 199 0
174 197 0
174 198 0
174 198 0
174 197 0
174 198 0
175 198 0
174 197 0
175 198 0
174 198 0
174 198 0
173 197 0
175 198 0
174 198 0
175 198 0
174 198 0
176 199 0
176 198 0
174 197 0
175 198 0
173 197 0
174 198 0
175 198 0
176 198 0
175 198 0
174 198 0
175 198 0
175 198 0
173 197 0
174 198 0
174 198 0
175 198 0
174 198 0
176 199 0
175 198 0
176 198 0
174 198 0
175 198 0
174 197 0
174 197 0
175 198 0
175 198 0
176 199 0
176 199 0
173 197 0
173 197 0
174 198 0
174 197 0
173 197 0
175 198 0
174 198 0
176 198 0
174 198 0
175 198 0
175 198 0
174 198 0
175 198 0
174 198 0
175 198 0
175 198 0
175 198 0
175 198 0
171 196 0
173 197 0
173 197 0
174 197 0
174 198 0
175 198 0
174 197 0
174 198 0
174 198 0
174 197 0
174 198 0
175 198 0
173 197 0
176 199 0
174 197 0
175 198 0
174 197 0
175 198 0
174 198 0
175 198 0
176 198 0
174 197 0
175 198 0
175 198 0
176 198 0
175 198 0
174 198 0
174 198 0
174 197 0
174 198 0
174 198 0
175 198 0
173 197 0
175 198 0
175 198 0
176 198 0
175 198 0
174 197 0
174 198 0
174 198 0
174 198 0
174 197 0
175 198 0
173 197 0
174 198 0
174 198 0
174 198 0
174 197 0
175 198 0
174 198 0
174 198 0
173 197 0
174 198 0
173 197 0
174 198 0
174 197 0
172 197 0
175 198 0
175 198 0
174 198 0
174 197 0
176 199 0
173 197 0
173 197 0
172 196 0
175 198 0
173 197 0
173 197 0
174 197 0
174 198 0
175 198 0
174 198 0
172 196 0
174 198 0
174 198 0
173 197 0
172 197 0
174 197 0
174 198 0
172 195 0
173 197 0
175 198 0
173 197 0
173 197 0
174 197 0
174 198 0
174 198 0
174 198 0
173 197 0
173 196 0
174 198 0
173 197 0
173 196 0
174 197 0
174 197 0
176 199 0
173 197 0
173 197 0
173 197 0
174 197 0
172 196 0
174 197 0
174 198 0
173 196 0
173 196 0
174 197 0
173 196 0
172 195 0
173 196 0
173 197 0
172 196 0
175 198 0
173 197 0
173 197 0
174 197 0
172 196 0
173 196 0
173 197 0
170 194 0
173 196 0
172 196 0
173 197 0
172 195 0
174 197 0
171 196 0
174 198 0
168 192 0
171 195 0
169 193 0
172 194 36
176 199 51
175 198 57
177 200 62
178 201 92
171 194 57
172 195 62
173 196 76
177 199 92
171 194 65
173 196 88
177 201 108
176 199 88
176 199 114
173 196 88
165 188 84
172 195 114
169 192 92
169 193 114
162 186 84
166 188 80
163 186 92
163 187 102
154 176 102
156 179 105
154 177 88
152 174 80
156 177 99
161 182 122
151 172 80
144 163 108
148 167 99
136 156 72
138 157 57
118 136 36
142 162 57
140 160 0
149 169 0
116 135 0
127 148 0
126 146 0
115 134 0
113 131 0
120 139 0
107 125 0
121 141 0
112 131 0
121 139 0
120 139 0
129 148 0
127 148 0
128 147 0
122 142 0
134 153 0
134 153 0
141 160 0
137 158 0
146 167 0
146 165 0
145 166 0
144 165 0
153 172 0
154 175 0
153 174 0
145 166 0
157 178 0
155 178 0
163 185 0
151 172 0
160 182 0
159 180 0
160 179 0
164 185 0
162 184 0
167 187 0
162 184 0
161 183 0
165 185 0
164 185 0
167 189 0
164 185 0
160 181 0
163 184 0
167 188 0
169 191 0
168 190 0
169 191 0
167 189 0
170 193 0
166 189 0
170 192 0
168 189 0
170 193 0
170 192 0
169 192 0
169 191 0
172 195 0
171 191 0
169 192 0
170 193 0
170 193 0
172 195 0
171 194 0
171 195 0
172 195 0
173 196 0
173 195 0
171 195 0
172 195 0
172 194 0
173 196 0
173 195 0
172 194 0
172 195 0
174 198 0
171 194 0
172 195 0
173 196 0
174 197 0
174 197 0
173 196 0
173 197 0
173 196 0
174 197 0
174 197 0
174 197 0
173 196 0
175 198 0
173 195 0
174 198 0
172 196 0
176 199 0
172 196 0
172 195 0
174 197 0
173 197 0
174 197 0
174 197 0
173 197 0
173 197 0
175 198 0
175 198 0
172 196 0
173 196 0
173 197 0
174 197 0
174 197 0
173 197 0
173 197 0
175 197 0
174 197 0
174 197 0
174 196 0
174 197 0
173 197 0
174 198 0
175 198 0
173 196 0
174 198 0
174 197 0
173 197 0
175 198 0
174 198 0
173 197 0
173 197 0
174 197 0
174 198 0
176 198 0
174 197 0
173 197 0
173 197 0
175 198 0
175 198 0
173 197 0
174 197 0
174 197 0
174 198 0
174 198 0
175 198 0
175 198 0
176 198 0
175 198 0
175 198 0
174 198 0
174 197 0
175 198 0
175 198 0
174 198 0
175 198 0
175 198 0
174 197 0
175 198 0
177 199 0
173 196 0
176 198 0
175 198 0
175 198 0
173 197 0
174 198 0
172 197 0
177 199 0
173 197 0
175 198 0
175 198 0
174 198 0
174 197 0
176 199 0
174 198 0
174 198 0
174 197 0
175 198 0
175 198 0
175 198 0
174 198 0
174 197 0
174 197 0
172 196 0
175 198 0
175 198 0
174 197 0
175 198 0
176 199 0
176 199 0
175 198 0
176 199 0
173 197 0
175 198 0
175 198 0
175 198 0
173 197 0
175 198 0
174 197 0
174 198 0
175 198 0
173 197 0
176 199 0
173 197 0
175 198 0
175 198 0
176 198 0
175 198 0
174 198 0
176 198 0
175 198 0
174 198 0
175 198 0
174 198 0
174 198 0
173 197 0
174 198 0
175 198 0
176 199 0
175 198 0
175 198 0
174 197 0
176 199 0
175 198 0
173 197 0
173 197 0
175 198 0
174 198 0
175 198 0
173 197 0
174 197 0
174 198 0
176 198 0
175 198 0
173 197 0
175 198 0
177 199 0
175 198 0
173 197 0
174 198 0
175 198 0
174 198 0
175 198 0
174 198 0
175 198 0
175 198 0
174 198 0
175 198 0
174 197 0
174 198 0
173 197 0
174 198 0
175 198 0
173 197 0
175 198 0
174 197 0
175 198 0
173 197 0
174 198 0
174 198 0
175 198 0
174 198 0
174 198 0
175 198 0
174 198 0
175 198 0
173 197 0
173 197 0
175 198 0
173 197 0
175 198 0
175 198 0
173 197 0
173 197 0
175 198 0
175 198 0
176 199 0
174 197 0
174 198 0
173 197 0
172 196 0
175 198 0
175 198 0
174 198 0
175 198 0
175 198 0
174 197 0
174 197 0
175 198 0
174 197 0
175 198 0
175 198 0
175 198 0
174 197 0
174 197 0
176 199 0
175 198 0
173 197 0
174 198 0
174 198 0
175 198 0
175 198 0
175 198 0
173 196 0
176 198 0
174 198 0
173 197 0
174 197 0
175 198 0
174 197 0
173 197 0
174 198 0
175 198 0
175 198 0
174 197 0
176 199 0
175 198 0
173 197 0
173 197 0
175 198 0
176 198 0
174 197 0
177 199 0
173 197 0
175 198 0
174 197 0
173 197 0
172 196 0
174 198 0
174 197 0
176 198 0
175 198 0
172 197 0
173 196 0
173 196 0
175 198 0
173 197 0
174 198 0
174 198 0
174 198 0
173 197 0
171 196 0
175 198 0
174 198 0
173 197 0
175 198 0
169 193 0
174 198 0
174 197 0
174 197 0
172 196 0
171 195 0
171 195 0
172 195 0
172 196 0
171 194 0
173 196 0
174 197 0
174 197 0
173 197 0
173 197 0
168 192 0
171 194 0
172 196 0
172 196 0
170 193 0
169 193 0
171 195 25
173 197 25
175 198 36
175 198 51
174 197 51
173 195 51
174 197 62
171 193 57
174 196 97
173 195 92
172 194 88
175 198 95
175 197 114
170 193 88
175 198 105
169 192 92
175 198 72
165 188 99
163 187 84
167 191 95
169 192 102
166 190 95
157 180 88
166 189 92
160 183 108
159 181 99
163 185 92
154 177 80
157 178 84
152 173 92
143 164 88
154 173 99
159 178 67
141 161 67
142 162 36
147 167 51
154 177 25
142 162 0
134 153 0
130 149 0
121 140 0
124 144 0
131 150 0
132 151 0
119 139 0
128 149 0
116 134 0
123 143 0
132 152 0
124 144 0
133 153 0
134 154 0
132 151 0
131 152 0
141 161 0
140 160 0
143 163 0
139 159 0
147 166 0
153 173 0
149 169 0
153 175 0
156 176 0
160 182 0
157 178 0
161 182 0
163 186 0
165 185 0
163 184 0
156 177 0
160 181 0
164 187 0
163 183 0
165 185 0
161 183 0
165 186 0
168 189 0
163 184 0
167 188 0
162 184 0
163 184 0
165 188 0
167 190 0
166 186 0
168 189 0
170 192 0
168 190 0
168 191 0
168 191 0
169 191 0
168 190 0
168 190 0
171 193 0
169 191 0
172 196 0
173 196 0
172 194 0
171 194 0
169 191 0
168 192 0
172 194 0
171 193 0
172 194 0
173 194 0
171 194 0
171 195 0
171 193 0
173 196 0
170 194 0
173 195 0
173 196 0
174 197 0
171 193 0
172 196 0
173 196 0
172 196 0
170 194 0
175 198 0
175 198 0
173 196 0
174 197 0
174 197 0
174 197 0
174 197 0
174 196 0
172 196 0
174 197 0
174 198 0
173 196 0
173 196 0
172 196 0
173 197 0
172 195 0
174 197 0
171 195 0
172 196 0
172 196 0
172 195 0
173 197 0
173 196 0
174 197 0
175 198 0
175 198 0
175 198 0
174 198 0
174 198 0
174 197 0
174 198 0
174 197 0
172 196 0
173 197 0
173 196 0
175 198 0
174 197 0
173 197 0
173 197 0
174 197 0
175 198 0
174 198 0
174 197 0
174 198 0
174 198 0
174 197 0
173 197 0
172 196 0
174 198 0
173 196 0
175 198 0
175 198 0
173 197 0
174 198 0
177 199 0
175 198 0
173 197 0
175 198 0
174 198 0
174 198 0
175 198 0
175 198 0
176 199 0
175 198 0
175 198 0
174 197 0
174 198 0
176 199 0
175 198 0
174 197 0
173 197 0
173 197 0
174 198 0
174 198 0
175 198 0
174 198 0
174 197 0
174 197 0
175 198 0
173 197 0
174 197 0
174 197 0
175 198 0
175 198 0
175 198 0
175 198 0
174 198 0
175 198 0
175 198 0
175 198 0
173 197 0
173 197 0
176 198 0
173 196 0
173 197 0
173 197 0
173 197 0
176 199 0
175 198 0
173 197 0
173 197 0
175 198 0
175 198 0
175 198 0
173 197 0
174 198 0
174 197 0
173 197 0
175 198 0
175 198 0
172 197 0
174 197 0
176 199 0
175 198 0
174 197 0
175 198 0
175 198 0
176 199 0
173 197 0
175 198 0
174 197 0
174 198 0
175 198 0
174 198 0
173 197 0
176 199 0
173 197 0
174 198 0
175 198 0
174 197 0
175 198 0
173 197 0
177 199 0
175 198 0
173 197 0
175 198 0
172 197 0
175 198 0
174 198 0
174 197 0
174 198 0
177 199 0
174 197 0
173 197 0
176 198 0
174 198 0
174 197 0
174 198 0
175 198 0
173 197 0
174 198 0
175 198 0
174 198 0
176 198 0
174 198 0
175 198 0
175 198 0
175 198 0
174 198 0
173 197 0
173 197 0
174 198 0
173 197 0
175 198 0
176 199 0
174 198 0
174 197 0
173 197 0
172 196 0
173 197 0
175 198 0
175 198 0
175 198 0
174 198 0
175 198 0
173 197 0
174 198 0
175 198 0
174 198 0
176 198 0
173 197 0
174 198 0
175 198 0
175 198 0
176 199 0
174 198 0
173 197 0
174 198 0
174 197 0
174 197 0
174 197 0
176 199 0
175 198 0
176 199 0
174 197 0
173 197 0
174 197 0
174 197 0
174 197 0
174 197 0
174 198 0
173 197 0
175 198 0
176 198 0
174 198 0
175 198 0
175 198 0
174 198 0
174 198 0
173 197 0
173 197 0
175 198 0
173 197 0
174 198 0
175 198 0
173 196 0
174 198 0
175 198 0
174 198 0
176 199 0
175 198 0
175 198 0
173 197 0
174 197 0
175 198 0
175 198 0
174 198 0
173 197 0
175 198 0
176 198 0
175 198 0
174 197 0
174 197 0
174 197 0
172 197 0
173 197 0
174 197 0
174 197 0
173 197 0
175 198 0
173 196 0
172 196 0
174 197 0
174 197 0
174 198 0
174 198 0
174 197 0
174 197 0
174 197 0
174 197 0
173 197 0
172 195 0
174 196 0
175 198 0
173 197 0
173 197 0
175 198 0
173 197 0
174 197 0
175 198 0
175 198 0
173 196 0
172 196 0
172 197 0
172 196 0
173 197 0
172 196 0
172 195 0
171 195 0
169 193 0
172 196 0
172 195 0
171 195 0
172 195 0
173 196 0
173 196 0
172 196 0
174 197 0
171 195 0
172 196 0
171 195 0
171 194 0
171 194 0
173 197 0
172 196 36
173 196 44
176 199 57
177 199 51
177 199 72
169 191 57
169 192 60
165 187 82
173 196 80
176 198 95
173 196 102
171 194 99
169 192 99
175 198 80
171 193 84
161 184 88
171 194 80
167 190 102
166 189 84
172 195 102
163 186 92
168 191 95
160 183 111
159 181 62
157 178 88
163 184 108
161 183 95
164 184 114
160 181 95
149 169 92
157 177 105
157 178 72
141 162 36
153 173 25
151 173 25
143 164 0
154 175 0
139 161 0
137 159 0
135 156 0
130 150 0
139 158 0
125 146 0
139 160 0
125 145 0
128 148 0
139 159 0
130 150 0
134 155 0
132 151 0
140 160 0
136 156 0
144 165 0
146 167 0
153 174 0
152 172 0
151 172 0
147 168 0
151 171 0
145 167 0
156 176 0
152 170 0
159 181 0
148 171 0
153 174 0
155 178 0
162 185 0
163 185 0
152 173 0
157 180 0
161 182 0
164 185 0
162 184 0
164 187 0
161 183 0
162 183 0
164 186 0
168 189 0
167 189 0
168 189 0
166 187 0
167 189 0
170 193 0
168 190 0
170 192 0
171 193 0
171 193 0
172 194 0
168 190 0
167 190 0
169 192 0
170 193 0
172 196 0
168 191 0
172 194 0
173 195 0
172 194 0
172 194 0
171 194 0
172 195 0
172 194 0
171 195 0
171 195 0
170 192 0
170 194 0
174 196 0
170 192 0
172 195 0
172 196 0
170 193 0
171 194 0
170 193 0
171 194 0
173 196 0
174 196 0
172 196 0
173 196 0
172 196 0
174 196 0
175 198 0
173 197 0
175 198 0
173 196 0
174 197 0
172 195 0
173 197 0
174 197 0
175 198 0
175 198 0
172 196 0
173 197 0
175 198 0
174 198 0
174 197 0
173 197 0
175 198 0
172 196 0
174 197 0
172 195 0
174 197 0
171 194 0
174 197 0
175 198 0
174 197 0
175 198 0
173 197 0
175 198 0
173 196 0
174 197 0
175 198 0
173 197 0
174 198 0
174 197 0
174 197 0
174 197 0
174 197 0
174 198 0
174 198 0
174 197 0
173 196 0
175 198 0
174 197 0
174 197 0
175 198 0
173 197 0
174 197 0
173 196 0
175 198 0
174 197 0
175 198 0
174 198 0
176 198 0
174 197 0
174 197 0
174 198 0
174 198 0
175 198 0
174 197 0
174 198 0
174 197 0
176 198 0
174 198 0
173 197 0
174 198 0
174 198 0
176 199 0
176 198 0
174 198 0
173 197 0
175 198 0
175 198 0
175 198 0
175 198 0
174 198 0
174 198 0
173 197 0
176 199 0
175 198 0
173 197 0
176 199 0
174 198 0
174 198 0
174 198 0
175 198 0
174 198 0
174 198 0
175 198 0
174 197 0
173 197 0
174 198 0
175 198 0
174 197 0
175 198 0
173 197 0
174 198 0
174 198 0
173 197 0
174 198 0
175 198 0
175 198 0
174 197 0
174 198 0
176 199 0
175 198 0
176 199 0
173 197 0
173 197 0
174 198 0
174 197 0
175 198 0
176 199 0
174 197 0
174 197 0
173 197 0
177 199 0
174 198 0
174 197 0
176 199 0
174 198 0
173 197 0
175 198 0
174 198 0
175 198 0
174 198 0
175 198 0
175 198 0
174 198 0
175 198 0
173 197 0
175 198 0
174 198 0
175 198 0
176 199 0
174 198 0
174 198 0
175 198 0
174 197 0
173 197 0
175 198 0
174 197 0
174 197 0
173 197 0
174 197 0
176 199 0
175 198 0
174 198 0
173 197 0
174 198 0
175 198 0
175 198 0
175 198 0
174 198 0
174 198 0
174 198 0
176 199 0
174 198 0
174 197 0
175 198 0
175 198 0
174 198 0
174 198 0
175 198 0
176 199 0
174 198 0
175 198 0
174 198 0
174 198 0
176 198 0
175 198 0
176 198 0
176 198 0
174 197 0
174 198 0
175 198 0
176 199 0
175 198 0
174 198 0
174 198 0
176 198 0
175 198 0
174 198 0
174 197 0
175 198 0
175 198 0
174 197 0
174 197 0
175 198 0
174 198 0
173 197 0
174 198 0
173 197 0
175 198 0
173 197 0
174 198 0
173 197 0
175 198 0
176 199 0
175 198 0
174 197 0
173 197 0
173 197 0
175 198 0
175 198 0
174 198 0
174 198 0
175 198 0
175 198 0
175 198 0
173 197 0
172 196 0
174 198 0
174 198 0
174 197 0
174 197 0
174 197 0
175 198 0
174 198 0
174 198 0
174 197 0
174 197 0
175 198 0
175 198 0
173 196 0
173 197 0
173 197 0
174 197 0
174 198 0
174 197 0
175 198 0
173 197 0
176 198 0
175 198 0
172 196 0
175 198 0
172 196 0
174 198 0
176 199 0
174 198 0
171 195 0
172 196 0
174 198 0
173 195 0
172 196 0
174 198 0
175 198 0
172 196 0
173 197 0
172 196 0
174 198 0
174 197 0
171 195 0
173 197 0
173 196 0
175 198 0
174 197 0
173 197 0
172 196 0
173 197 0
173 196 0
174 197 0
176 199 0
171 195 0
172 196 0
174 197 0
172 196 0
174 198 0
171 194 0
171 194 0
170 194 0
172 195 0
170 194 0
174 197 0
174 197 0
175 198 0
172 196 0
171 194 0
173 196 0
169 193 0
175 198 0
173 197 0
174 197 25
175 198 44
175 198 51
172 195 25
173 195 67
167 189 57
174 197 72
169 191 88
169 193 65
172 195 80
174 197 82
173 195 100
170 193 99
169 191 84
170 193 72
173 196 84
173 197 108
167 190 95
170 192 99
172 195 105
158 180 95
160 183 102
166 188 95
165 188 102
164 186 99
162 183 99
155 176 92
162 183 92
158 179 72
157 178 84
157 177 80
151 172 67
157 179 44
146 168 36
150 172 0
153 175 0
161 183 0
144 166 0
143 165 0
136 156 0
132 152 0
134 155 0
135 156 0
132 152 0
129 151 0
127 149 0
137 158 0
132 154 0
139 161 0
140 161 0
141 162 0
137 157 0
146 169 0
145 166 0
139 160 0
145 165 0
151 173 0
149 170 0
150 172 0
153 176 0
153 174 0
153 173 0
154 174 0
159 182 0
158 180 0
153 175 0
157 181 0
159 179 0
162 183 0
163 186 0
165 186 0
160 181 0
162 183 0
162 183 0
166 186 0
161 183 0
168 190 0
164 184 0
164 186 0
169 191 0
167 189 0
168 190 0
169 190 0
170 193 0
169 191 0
167 189 0
169 191 0
168 192 0
166 188 0
168 191 0
169 190 0
170 192 0
170 193 0
169 191 0
165 188 0
168 192 0
170 193 0
169 193 0
172 195 0
170 193 0
170 192 0
172 194 0
172 195 0
173 195 0
173 196 0
173 196 0
172 195 0
173 194 0
172 195 0
171 193 0
171 194 0
170 193 0
173 196 0
174 197 0
173 195 0
172 195 0
171 193 0
173 197 0
172 196 0
172 195 0
174 198 0
174 197 0
174 197 0
174 197 0
172 195 0
174 197 0
174 197 0
173 195 0
175 198 0
174 197 0
174 197 0
173 197 0
175 198 0
173 196 0
174 197 0
174 198 0
174 197 0
174 197 0
174 196 0
173 197 0
172 195 0
173 196 0
174 197 0
173 197 0
176 199 0
174 197 0
173 197 0
173 196 0
174 197 0
172 195 0
173 196 0
174 197 0
175 198 0
172 196 0
173 196 0
174 198 0
175 198 0
174 197 0
175 198 0
176 199 0
175 198 0
174 197 0
174 197 0
174 197 0
174 197 0
174 198 0
175 198 0
174 198 0
175 198 0
174 198 0
174 198 0
174 198 0
174 197 0
173 197 0
174 198 0
173 197 0
176 199 0
175 198 0
175 198 0
175 198 0
173 197 0
175 198 0
174 198 0
175 198 0
173 197 0
174 197 0
174 198 0
175 198 0
176 198 0
174 198 0
174 198 0
174 197 0
174 197 0
174 198 0
175 198 0
175 198 0
176 199 0
174 198 0
174 198 0
172 196 0
176 198 0
174 198 0
175 198 0
175 198 0
174 198 0
174 198 0
175 198 0
175 198 0
174 197 0
175 198 0
175 198 0
175 198 0
172 196 0
173 197 0
173 197 0
176 198 0
175 198 0
175 198 0
176 199 0
175 198 0
175 198 0
175 198 0
173 197 0
174 198 0
175 198 0
175 198 0
175 198 0
174 198 0
175 198 0
174 198 0
174 198 0
176 199 0
175 198 0
176 199 0
174 198 0
174 198 0
174 198 0
175 198 0
175 198 0
174 198 0
175 198 0
174 198 0
173 197 0
175 198 0
175 198 0
174 197 0
175 198 0
174 197 0
175 198 0
175 198 0
176 199 0
174 198 0
176 199 0
175 198 0
176 199 0
174 197 0
174 198 0
173 196 0
175 198 0
174 198 0
173 197 0
175 198 0
174 197 0
175 198 0
175 198 0
176 198 0
174 198 0
176 199 0
174 198 0
174 198 0
175 198 0
175 198 0
174 197 0
174 198 0
174 198 0
174 197 0
175 198 0
175 198 0
175 198 0
173 196 0
175 198 0
176 198 0
176 199 0
174 198 0
174 197 0
174 197 0
176 198 0
175 198 0
175 198 0
173 197 0
175 198 0
174 198 0
176 199 0
175 198 0
175 198 0
174 197 0
175 198 0
174 198 0
175 198 0
174 198 0
174 198 0
175 198 0
174 198 0
174 198 0
174 198 0
174 198 0
176 199 0
174 198 0
175 198 0
175 198 0
174 198 0
173 197 0
174 198 0
174 197 0
175 198 0
175 198 0
174 197 0
175 198 0
176 199 0
174 197 0
173 197 0
174 198 0
174 197 0
174 198 0
174 198 0
174 198 0
174 197 0
173 197 0
176 198 0
174 198 0
174 198 0
173 197 0
175 198 0
175 198 0
175 198 0
174 198 0
173 197 0
174 198 0
175 197 0
173 197 0
175 198 0
175 198 0
173 197 0
174 197 0
175 198 0
173 197 0
174 198 0
173 197 0
174 198 0
173 197 0
174 198 0
175 198 0
173 196 0
174 197 0
173 197 0
174 198 0
173 197 0
174 198 0
175 198 0
172 197 0
173 197 0
173 197 0
174 197 0
173 197 0
175 198 0
175 198 0
173 197 0
175 198 0
172 196 0
173 196 0
173 197 0
173 197 0
172 195 0
174 198 0
171 195 0
173 197 0
172 196 0
172 197 0
172 196 0
172 196 0
173 196 0
173 196 0
171 195 0
172 196 0
173 196 0
172 196 0
169 193 0
172 196 0
174 197 0
173 196 0
171 195 0
175 198 0
168 192 0
172 196 0
171 195 0
172 195 0
172 195 0
172 195 0
168 192 0
169 193 0
173 197 0
174 197 0
175 198 70
174 196 62
175 197 57
172 195 76
169 191 80
172 194 67
166 189 60
170 193 92
171 193 90
171 194 88
174 197 103
170 193 67
167 189 80
168 191 95
167 189 88
170 192 84
167 189 76
161 184 80
169 191 92
164 186 95
161 183 72
165 188 99
156 177 95
163 185 95
162 183 95
157 178 95
154 175 57
159 180 80
152 173 76
163 183 80
149 171 36
158 180 25
147 169 36
159 181 0
144 167 0
147 169 0
148 169 0
141 163 0
149 170 0
142 163 0
129 151 0
147 169 0
139 160 0
145 166 0
143 164 0
140 162 0
148 170 0
145 167 0
150 172 0
144 166 0
143 165 0
149 171 0
155 178 0
149 170 0
153 173 0
146 168 0
153 173 0
149 171 0
158 181 0
155 177 0
158 180 0
160 182 0
157 178 0
160 183 0
163 187 0
160 182 0
164 187 0
157 177 0
164 186 0
164 186 0
163 184 0
162 183 0
161 182 0
161 183 0
166 188 0
166 188 0
164 186 0
169 191 0
165 186 0
163 187 0
167 189 0
170 192 0
171 192 0
169 192 0
167 190 0
168 191 0
168 191 0
173 195 0
167 190 0
170 193 0
167 188 0
172 195 0
170 191 0
172 195 0
173 196 0
174 196 0
170 192 0
173 195 0
169 191 0
172 195 0
172 196 0
173 196 0
170 193 0
172 195 0
172 193 0
171 195 0
175 197 0
173 197 0
171 195 0
171 194 0
174 197 0
174 197 0
173 196 0
172 196 0
171 194 0
173 197 0
173 195 0
175 198 0
172 195 0
172 196 0
173 197 0
174 197 0
174 197 0
173 195 0
173 196 0
174 197 0
174 198 0
172 196 0
172 195 0
174 197 0
175 198 0
173 197 0
175 198 0
174 197 0
173 196 0
175 197 0
172 196 0
175 197 0
173 197 0
173 197 0
173 196 0
174 197 0
174 198 0
171 195 0
174 197 0
175 198 0
175 198 0
175 198 0
175 198 0
173 197 0
174 197 0
173 197 0
173 197 0
174 198 0
176 198 0
175 198 0
174 198 0
174 198 0
173 197 0
175 198 0
173 197 0
175 198 0
176 199 0
174 198 0
173 197 0
174 197 0
174 197 0
174 197 0
175 198 0
173 197 0
175 198 0
174 197 0
174 198 0
175 198 0
174 197 0
174 197 0
175 198 0
175 198 0
174 198 0
173 197 0
173 197 0
175 198 0
173 197 0
174 198 0
174 197 0
175 198 0
175 198 0
174 198 0
173 197 0
174 197 0
174 198 0
175 198 0
173 197 0
174 197 0
175 198 0
174 197 0
174 198 0
175 198 0
174 197 0
173 197 0
175 198 0
175 198 0
175 198 0
175 198 0
174 197 0
174 197 0
174 198 0
174 197 0
173 197 0
174 198 0
175 198 0
174 198 0
173 197 0
174 198 0
174 198 0
174 198 0
174 197 0
175 198 0
174 198 0
174 198 0
175 198 0
174 198 0
174 198 0
174 197 0
173 197 0
174 198 0
175 198 0
175 198 0
174 198 0
175 198 0
173 197 0
174 197 0
174 197 0
175 198 0
174 197 0
173 197 0
174 198 0
174 198 0
175 198 0
174 197 0
175 198 0
174 197 0
174 197 0
175 198 0
174 197 0
174 198 0
174 198 0
174 197 0
175 198 0
175 198 0
175 198 0
175 198 0
175 198 0
175 198 0
175 198 0
174 198 0
174 197 0
177 199 0
174 197 0
173 197 0
174 198 0
175 198 0
175 198 0
174 198 0
173 197 0
173 197 0
175 198 0
174 197 0
174 198 0
175 198 0
174 198 0
175 198 0
175 198 0
174 198 0
175 198 0
174 198 0
174 197 0
175 198 0
174 197 0
174 198 0
175 198 0
174 198 0
173 197 0
174 198 0
176 199 0
175 198 0
174 198 0
176 198 0
174 198 0
174 197 0
174 198 0
175 198 0
173 197 0
175 198 0
174 197 0
173 197 0
175 198 0
174 198 0
175 198 0
175 198 0
174 197 0
176 199 0
175 198 0
175 198 0
175 198 0
175 198 0
173 197 0
175 198 0
175 198 0
174 198 0
173 197 0
175 198 0
174 197 0
174 198 0
173 197 0
174 197 0
175 198 0
176 198 0
173 196 0
174 198 0
174 198 0
174 198 0
174 198 0
175 198 0
174 198 0
174 198 0
174 198 0
173 197 0
171 196 0
173 197 0
174 197 0
175 198 0
174 198 0
176 199 0
175 198 0
174 197 0
173 197 0
174 198 0
173 197 0
174 197 0
174 198 0
174 198 0
174 198 0
173 197 0
173 197 0
171 196 0
174 197 0
174 197 0
172 196 0
174 198 0
174 197 0
174 198 0
174 197 0
173 196 0
175 198 0
175 198 0
173 197 0
174 197 0
173 197 0
173 197 0
175 198 0
174 197 0
174 197 0
173 196 0
174 198 0
173 197 0
172 196 0
172 196 0
173 196 0
172 197 0
173 196 0
173 196 0
173 196 0
174 198 0
174 197 0
172 196 0
176 198 0
173 197 0
173 197 0
171 195 0
172 196 0
173 196 0
173 196 0
172 196 0
171 195 0
172 196 0
172 196 0
172 195 0
172 195 0
170 193 0
173 196 0
170 194 0
171 194 0
166 190 0
168 191 0
170 194 0
172 195 0
173 196 0
170 193 0
174 197 0
173 196 25
175 197 36
166 189 44
176 198 76
173 196 51
171 194 78
170 192 74
167 190 92
169 192 67
170 193 67
168 191 74
175 196 100
177 198 92
172 195 92
174 196 88
170 193 95
168 190 102
167 190 99
167 189 84
162 185 105
164 185 95
166 188 84
159 180 84
172 193 80
158 180 76
165 186 105
167 188 88
158 180 80
157 178 72
160 182 44
156 178 25
150 173 25
158 181 0
155 176 0
153 175 0
147 167 0
149 170 0
151 173 0
143 165 0
148 169 0
146 168 0
142 165 0
148 170 0
144 165 0
152 175 0
149 171 0
152 173 0
145 167 0
144 167 0
155 176 0
152 174 0
150 172 0
148 169 0
154 176 0
159 180 0
158 181 0
152 173 0
154 177 0
152 174 0
160 182 0
166 188 0
162 185 0
163 185 0
160 182 0
164 186 0
166 189 0
161 184 0
163 185 0
163 184 0
168 191 0
166 189 0
163 185 0
166 188 0
163 185 0
166 189 0
164 186 0
162 185 0
170 193 0
169 190 0
172 195 0
171 194 0
159 181 0
167 190 0
172 194 0
167 190 0
169 191 0
169 191 0
171 193 0
169 192 0
171 195 0
172 195 0
168 192 0
172 195 0
174 195 0
171 193 0
172 195 0
171 194 0
174 196 0
172 194 0
173 195 0
175 198 0
173 195 0
171 194 0
172 195 0
172 195 0
174 196 0
173 197 0
174 196 0
172 196 0
172 195 0
170 193 0
171 195 0
173 196 0
174 198 0
173 195 0
173 196 0
173 196 0
172 196 0
171 195 0
175 198 0
174 198 0
174 198 0
173 196 0
174 197 0
171 195 0
174 197 0
175 198 0
173 197 0
175 198 0
171 195 0
172 196 0
174 197 0
176 198 0
174 198 0
173 197 0
173 196 0
175 198 0
175 198 0
176 198 0
174 198 0
174 198 0
175 198 0
173 197 0
174 197 0
174 198 0
173 197 0
175 198 0
173 197 0
174 197 0
174 197 0
173 196 0
174 198 0
173 197 0
175 198 0
175 198 0
175 198 0
172 196 0
175 198 0
173 197 0
174 198 0
173 197 0
175 198 0
173 197 0
174 197 0
173 197 0
174 198 0
174 197 0
174 197 0
174 197 0
172 196 0
175 198 0
176 199 0
173 197 0
174 197 0
174 197 0
177 199 0
174 197 0
172 196 0
176 199 0
174 197 0
175 198 0
172 197 0
175 198 0
176 198 0
176 198 0
174 198 0
174 197 0
175 198 0
176 199 0
173 197 0
174 198 0
174 198 0
174 198 0
175 198 0
174 197 0
174 197 0
173 197 0
175 198 0
176 198 0
175 198 0
174 198 0
175 198 0
176 199 0
175 198 0
175 198 0
174 198 0
174 197 0
175 198 0
174 197 0
174 197 0
174 198 0
176 199 0
175 198 0
176 198 0
175 198 0
174 197 0
176 199 0
176 198 0
175 198 0
173 197 0
173 197 0
174 197 0
176 198 0
175 198 0
174 198 0
173 197 0
175 198 0
175 198 0
174 197 0
174 198 0
175 198 0
173 197 0
174 198 0
174 198 0
173 197 0
173 197 0
175 198 0
173 197 0
174 197 0
174 198 0
174 198 0
176 199 0
175 198 0
174 198 0
174 198 0
178 200 0
175 198 0
174 198 0
176 199 0
175 198 0
175 198 0
174 197 0
176 199 0
175 198 0
175 198 0
176 199 0
173 197 0
174 198 0
173 197 0
175 198 0
173 197 0
174 198 0
176 198 0
174 197 0
173 197 0
176 198 0
175 198 0
176 199 0
175 198 0
174 198 0
174 198 0
175 198 0
173 197 0
175 198 0
174 198 0
174 198 0
175 198 0
174 197 0
174 198 0
176 199 0
175 198 0
174 197 0
174 197 0
174 198 0
174 198 0
173 197 0
175 198 0
175 198 0
173 197 0
173 197 0
174 198 0
175 198 0
174 198 0
174 197 0
176 199 0
173 197 0
173 197 0
174 197 0
173 197 0
175 198 0
173 197 0
174 198 0
176 199 0
175 198 0
174 197 0
173 197 0
175 198 0
174 198 0
175 198 0
174 198 0
174 198 0
175 198 0
175 198 0
175 198 0
174 198 0
173 197 0
173 197 0
173 197 0
174 197 0
173 197 0
175 198 0
174 198 0
173 197 0
174 197 0
174 198 0
175 198 0
174 198 0
174 197 0
174 198 0
174 197 0
175 198 0
175 198 0
175 198 0
174 198 0
173 197 0
173 196 0
176 199 0
176 199 0
173 197 0
175 198 0
174 198 0
174 197 0
175 198 0
173 197 0
175 198 0
173 197 0
174 197 0
174 198 0
173 197 0
174 197 0
176 199 0
175 198 0
173 196 0
172 196 0
174 197 0
171 195 0
172 196 0
174 198 0
173 197 0
174 197 0
175 198 0
174 197 0
173 196 0
174 198 0
172 196 0
174 197 0
173 196 0
173 196 0
174 197 0
172 195 0
174 198 0
175 198 0
173 197 0
171 194 0
172 196 0
175 198 0
172 196 0
173 196 0
174 197 0
173 196 0
174 198 0
172 195 0
173 197 0
169 193 0
173 197 0
172 196 0
171 195 0
174 197 0
174 197 0
172 195 0
169 192 0
172 196 0
171 194 0
174 197 0
170 193 0
170 194 0
172 195 0
171 195 0
174 197 0
174 197 0
171 195 0
173 196 36
173 196 47
172 195 67
170 192 44
170 192 70
170 192 65
167 189 90
166 188 54
166 189 78
174 196 110
175 198 108
176 199 76
170 192 99
171 193 102
169 192 99
171 192 72
170 192 95
171 193 95
170 192 114
169 190 72
169 190 84
170 191 80
158 179 92
166 187 76
160 181 95
156 177 25
167 187 80
167 189 62
161 182 44
159 181 36
162 184 36
155 177 36
155 177 25
153 175 0
151 174 0
145 166 0
153 174 0
145 167 0
138 160 0
147 169 0
149 170 0
155 177 0
157 179 0
153 175 0
141 163 0
146 168 0
145 168 0
154 176 0
159 181 0
152 174 0
153 175 0
155 177 0
154 175 0
161 182 0
152 174 0
157 179 0
158 181 0
155 176 0
157 179 0
157 178 0
166 188 0
160 181 0
162 183 0
162 184 0
160 182 0
165 187 0
162 186 0
162 186 0
164 186 0
166 189 0
165 189 0
167 190 0
168 191 0
173 195 0
167 191 0
169 193 0
166 188 0
165 187 0
169 192 0
167 190 0
170 194 0
167 190 0
168 190 0
172 194 0
169 192 0
171 192 0
169 191 0
171 194 0
168 191 0
169 192 0
168 191 0
172 194 0
168 191 0
168 192 0
169 192 0
170 193 0
173 197 0
172 193 0
173 195 0
173 194 0
171 194 0
174 198 0
172 195 0
172 195 0
172 195 0
172 194 0
170 194 0
172 196 0
170 195 0
171 195 0
172 194 0
171 195 0
173 195 0
171 196 0
174 196 0
174 197 0
173 196 0
171 195 0
172 195 0
173 197 0
173 196 0
175 197 0
174 197 0
175 198 0
173 196 0
174 196 0
174 196 0
176 199 0
175 198 0
175 198 0
173 195 0
173 197 0
174 198 0
175 197 0
175 198 0
173 196 0
174 197 0
173 197 0
174 197 0
172 196 0
173 197 0
174 197 0
174 197 0
173 197 0
173 197 0
175 198 0
174 197 0
173 197 0
175 198 0
175 198 0
176 198 0
174 197 0
174 198 0
176 198 0
175 198 0
173 197 0
174 198 0
174 197 0
174 197 0
175 198 0
174 198 0
175 198 0
174 198 0
174 198 0
175 198 0
177 199 0
174 198 0
173 197 0
175 198 0
174 197 0
174 197 0
174 198 0
172 196 0
174 198 0
175 198 0
175 198 0
174 196 0
174 198 0
176 198 0
175 198 0
176 198 0
173 197 0
174 198 0
173 197 0
174 197 0
175 198 0
174 198 0
175 198 0
176 198 0
174 198 0
175 198 0
176 199 0
175 198 0
174 197 0
175 198 0
174 197 0
175 198 0
174 198 0
175 198 0
175 198 0
174 198 0
173 197 0
176 198 0
175 198 0
175 198 0
175 198 0
176 199 0
175 198 0
175 198 0
175 198 0
175 198 0
174 198 0
174 197 0
174 198 0
175 198 0
175 198 0
173 197 0
172 196 0
175 198 0
175 198 0
174 198 0
174 198 0
176 198 0
174 197 0
174 197 0
175 198 0
175 198 0
174 198 0
174 198 0
175 198 0
173 197 0
174 198 0
174 198 0
176 199 0
174 197 0
173 197 0
176 199 0
173 197 0
175 198 0
176 198 0
175 198 0
174 197 0
174 198 0
173 197 0
174 198 0
174 197 0
176 199 0
175 198 0
174 198 0
174 198 0
175 198 0
174 198 0
175 198 0
175 198 0
174 197 0
175 198 0
175 198 0
174 198 0
174 198 0
175 198 0
173 197 0
175 198 0
174 198 0
174 197 0
173 197 0
175 198 0
173 197 0
175 198 0
173 197 0
174 198 0
173 197 0
175 198 0
173 197 0
172 197 0
176 199 0
175 198 0
173 197 0
175 198 0
175 198 0
174 197 0
176 199 0
174 197 0
175 198 0
176 198 0
173 197 0
176 199 0
174 197 0
174 198 0
174 198 0
174 197 0
173 197 0
175 198 0
175 198 0
176 199 0
174 198 0
173 197 0
175 198 0
175 198 0
175 198 0
175 198 0
175 198 0
173 197 0
175 198 0
175 198 0
174 198 0
174 198 0
176 198 0
174 197 0
173 197 0
175 198 0
175 198 0
174 198 0
173 197 0
176 198 0
177 199 0
174 198 0
174 198 0
172 196 0
173 197 0
173 196 0
175 198 0
175 198 0
173 197 0
174 198 0
175 198 0
173 197 0
174 197 0
172 195 0
173 197 0
175 198 0
175 198 0
172 196 0
176 199 0
175 198 0
173 196 0
174 197 0
175 198 0
174 197 0
175 198 0
175 198 0
173 197 0
175 198 0
173 197 0
174 197 0
175 198 0
174 197 0
173 197 0
173 197 0
174 198 0
176 198 0
173 197 0
173 197 0
174 197 0
175 198 0
173 197 0
173 197 0
173 196 0
174 197 0
174 198 0
173 196 0
175 198 0
173 197 0
173 197 0
174 198 0
174 197 0
173 197 0
174 197 0
171 195 0
174 197 0
172 195 0
174 197 0
173 196 0
173 197 0
173 197 0
173 196 0
175 198 0
171 195 0
173 197 0
172 195 0
171 195 0
172 195 0
173 197 0
172 196 0
172 195 0
173 196 0
174 197 0
173 196 0
172 196 0
171 195 0
172 196 0
171 194 0
167 191 0
170 194 0
171 195 0
168 192 0
170 194 0
172 195 0
172 196 0
175 198 0
170 194 18
171 194 31
173 196 25
172 194 36
170 193 57
173 195 65
163 186 57
168 190 67
169 191 81
166 189 64
171 193 57
168 190 91
168 190 97
176 198 103
169 190 84
174 195 88
167 189 95
167 189 72
169 190 36
167 189 84
171 192 99
163 184 76
161 181 67
159 180 67
159 179 44
165 186 57
160 180 57
160 182 57
162 184 51
156 179 25
160 182 57
162 185 25
157 179 36
159 181 0
154 176 0
157 178 0
148 170 0
153 176 0
155 176 0
156 180 0
153 175 0
156 178 0
148 170 0
144 165 0
152 174 0
158 179 0
153 175 0
154 176 0
161 184 0
153 176 0
159 181 0
162 184 0
152 174 0
153 175 0
162 185 0
162 184 0
159 182 0
163 186 0
162 183 0
159 182 0
163 186 0
161 183 0
165 187 0
162 184 0
162 185 0
163 185 0
166 190 0
166 187 0
164 186 0
162 184 0
166 188 0
167 189 0
164 187 0
171 193 0
165 186 0
167 190 0
167 188 0
169 191 0
169 192 0
169 192 0
167 189 0
166 188 0
172 193 0
167 190 0
167 190 0
172 194 0
170 193 0
169 192 0
169 191 0
171 195 0
170 193 0
171 193 0
170 193 0
168 192 0
171 193 0
171 195 0
173 196 0
173 197 0
172 195 0
173 195 0
173 195 0
171 195 0
170 193 0
171 194 0
174 196 0
173 196 0
170 193 0
172 196 0
174 197 0
173 196 0
174 197 0
173 197 0
173 196 0
172 196 0
172 196 0
173 196 0
175 197 0
173 196 0
170 193 0
174 197 0
173 196 0
173 197 0
174 198 0
171 196 0
173 197 0
174 197 0
174 197 0
171 195 0
173 196 0
173 196 0
174 197 0
173 196 0
174 197 0
173 196 0
174 197 0
174 197 0
173 196 0
174 197 0
173 197 0
174 197 0
173 197 0
173 197 0
174 198 0
175 197 0
172 195 0
174 198 0
173 197 0
174 198 0
174 198 0
175 198 0
174 197 0
172 195 0
172 196 0
173 196 0
175 198 0
173 197 0
175 198 0
175 198 0
175 198 0
175 198 0
174 197 0
176 198 0
174 197 0
174 198 0
175 197 0
175 198 0
174 197 0
175 198 0
173 197 0
174 198 0
175 198 0
175 198 0
173 197 0
173 197 0
174 198 0
175 197 0
174 197 0
174 198 0
175 198 0
175 198 0
175 198 0
174 198 0
174 198 0
176 199 0
175 198 0
175 198 0
174 198 0
175 198 0
171 196 0
175 198 0
174 198 0
174 197 0
174 198 0
175 198 0
174 198 0
175 198 0
175 198 0
175 198 0
174 198 0
174 197 0
173 197 0
175 198 0
175 198 0
174 198 0
174 197 0
173 197 0
175 198 0
175 198 0
174 198 0
174 197 0
172 196 0
175 198 0
175 198 0
174 197 0
173 196 0
175 198 0
174 198 0
174 198 0
175 198 0
174 197 0
174 198 0
174 198 0
173 197 0
174 198 0
175 198 0
175 198 0
175 198 0
174 198 0
174 197 0
174 198 0
174 198 0
175 198 0
175 198 0
175 198 0
174 198 0
174 197 0
175 198 0
174 198 0
174 197 0
175 198 0
174 198 0
174 198 0
174 197 0
173 197 0
174 198 0
175 198 0
173 197 0
174 198 0
174 198 0
173 197 0
174 198 0
173 197 0
174 198 0
176 198 0
175 198 0
172 196 0
174 198 0
173 197 0
173 197 0
176 199 0
174 198 0
175 198 0
175 198 0
175 198 0
174 198 0
175 198 0
174 198 0
174 197 0
174 197 0
175 198 0
174 198 0
175 198 0
175 198 0
174 198 0
174 198 0
173 197 0
174 197 0
175 198 0
174 198 0
172 197 0
173 197 0
174 197 0
174 197 0
174 198 0
173 197 0
174 197 0
173 197 0
175 198 0
175 198 0
175 198 0
175 198 0
175 198 0
175 198 0
174 198 0
174 198 0
175 198 0
173 197 0
175 198 0
175 198 0
174 198 0
174 198 0
173 196 0
173 197 0
175 198 0
175 198 0
172 196 0
174 198 0
173 197 0
174 198 0
175 198 0
175 198 0
174 198 0
175 198 0
176 199 0
174 198 0
173 197 0
174 198 0
174 197 0
175 198 0
172 196 0
173 197 0
175 198 0
174 198 0
175 198 0
173 197 0
174 198 0
174 197 0
174 198 0
174 197 0
174 198 0
174 198 0
173 197 0
174 197 0
175 198 0
174 198 0
175 198 0
172 196 0
174 197 0
174 197 0
174 198 0
174 197 0
174 198 0
174 198 0
172 196 0
175 198 0
172 196 0
172 196 0
174 198 0
175 198 0
173 197 0
173 196 0
174 198 0
174 197 0
173 197 0
175 198 0
174 198 0
173 196 0
175 197 0
175 198 0
174 198 0
173 196 0
174 197 0
173 197 0
173 197 0
175 198 0
172 197 0
173 197 0
173 197 0
171 196 0
171 195 0
172 195 0
173 197 0
172 196 0
173 196 0
172 196 0
173 196 0
175 198 0
174 197 0
173 196 0
174 197 0
172 196 0
171 194 0
171 195 0
172 195 0
172 196 0
170 194 0
171 195 0
172 195 0
172 196 0
171 195 0
170 194 0
170 193 0
171 194 0
173 197 0
171 194 0
165 189 0
172 195 0
169 192 0
173 196 0
171 195 0
172 196 0
174 197 0
172 195 0
171 194 25
170 194 31
171 194 0
171 193 65
169 192 44
169 192 62
166 188 71
164 187 65
173 196 90
172 194 62
172 194 100
172 195 86
175 196 84
174 196 80
171 193 102
163 185 84
173 194 72
168 188 88
161 183 80
168 189 92
168 189 88
163 183 67
160 182 76
159 179 57
158 179 72
156 178 44
162 184 51
162 185 25
161 183 0
161 185 0
155 178 0
164 186 0
162 184 0
161 182 0
152 175 0
156 179 0
154 176 0
159 181 0
157 181 0
159 182 0
152 174 0
152 174 0
158 181 0
155 177 0
161 183 0
159 181 0
158 179 0
153 174 0
157 179 0
155 177 0
157 180 0
159 182 0
163 186 0
159 182 0
162 185 0
160 184 0
158 179 0
161 183 0
158 182 0
161 183 0
161 183 0
164 188 0
164 186 0
165 186 0
163 186 0
162 185 0
163 185 0
165 187 0
167 189 0
165 187 0
166 188 0
169 191 0
167 191 0
172 195 0
166 188 0
167 190 0
167 191 0
166 189 0
165 187 0
169 191 0
169 191 0
170 193 0
171 193 0
171 194 0
170 191 0
169 193 0
169 190 0
172 195 0
169 191 0
173 196 0
172 195 0
174 197 0
174 196 0
170 194 0
172 195 0
172 195 0
172 195 0
172 196 0
172 196 0
173 197 0
171 194 0
170 193 0
173 196 0
175 197 0
174 198 0
173 196 0
173 196 0
171 194 0
170 192 0
172 196 0
172 196 0
174 197 0
173 196 0
172 196 0
174 197 0
173 196 0
172 195 0
174 196 0
173 197 0
172 195 0
172 196 0
172 195 0
174 197 0
174 196 0
173 196 0
174 197 0
174 196 0
176 198 0
172 195 0
173 196 0
173 196 0
174 197 0
174 196 0
175 198 0
174 197 0
175 198 0
173 196 0
172 196 0
172 195 0
173 197 0
174 198 0
172 196 0
173 196 0
175 198 0
174 197 0
174 198 0
173 197 0
174 198 0
173 197 0
175 198 0
175 198 0
175 198 0
174 197 0
172 195 0
173 197 0
174 197 0
176 199 0
174 197 0
174 197 0
173 197 0
173 197 0
172 196 0
174 198 0
174 198 0
175 198 0
174 197 0
175 198 0
173 197 0
174 198 0
175 198 0
175 198 0
173 197 0
174 198 0
174 197 0
173 197 0
174 198 0
173 197 0
174 197 0
173 197 0
174 198 0
175 198 0
174 198 0
174 198 0
175 198 0
175 198 0
175 198 0
173 197 0
174 198 0
173 197 0
174 198 0
173 197 0
174 197 0
174 198 0
173 197 0
174 197 0
174 198 0
174 197 0
175 198 0
174 198 0
176 198 0
174 197 0
172 196 0
175 198 0
174 198 0
175 198 0
173 197 0
176 199 0
174 198 0
174 197 0
174 198 0
174 198 0
174 198 0
172 197 0
174 198 0
174 198 0
174 198 0
175 198 0
174 198 0
176 198 0
173 197 0
176 198 0
174 198 0
175 198 0
176 199 0
175 198 0
173 197 0
174 198 0
174 197 0
173 197 0
176 199 0
174 197 0
174 198 0
175 198 0
174 197 0
176 199 0
174 198 0
172 197 0
173 197 0
174 198 0
175 198 0
174 197 0
174 198 0
175 198 0
175 198 0
174 197 0
174 198 0
173 197 0
175 198 0
175 198 0
174 197 0
174 197 0
172 196 0
175 198 0
174 198 0
175 198 0
176 199 0
175 198 0
174 198 0
173 197 0
174 198 0
174 198 0
175 198 0
175 198 0
174 198 0
175 198 0
172 196 0
175 198 0
175 198 0
174 197 0
175 198 0
175 198 0
175 198 0
173 197 0
174 198 0
175 198 0
175 198 0
172 196 0
175 198 0
174 198 0
174 198 0
174 198 0
176 199 0
174 198 0
174 198 0
175 198 0
173 196 0
174 198 0
175 198 0
174 198 0
175 198 0
176 199 0
170 195 0
174 197 0
174 198 0
174 198 0
175 198 0
175 198 0
176 199 0
175 198 0
174 197 0
174 198 0
174 197 0
175 198 0
174 198 0
174 197 0
175 198 0
174 198 0
174 198 0
174 198 0
174 197 0
172 196 0
174 198 0
175 198 0
174 198 0
174 197 0
175 198 0
175 198 0
173 197 0
176 199 0
175 198 0
174 197 0
174 197 0
174 197 0
174 197 0
176 199 0
175 198 0
172 197 0
176 199 0
173 197 0
175 198 0
174 196 0
176 199 0
174 197 0
174 197 0
174 197 0
173 196 0
173 197 0
173 197 0
175 198 0
174 197 0
175 198 0
174 197 0
175 198 0
174 197 0
176 198 0
173 197 0
175 198 0
175 198 0
175 198 0
173 197 0
173 196 0
175 198 0
173 197 0
172 196 0
174 197 0
171 195 0
174 198 0
174 197 0
174 198 0
174 198 0
175 198 0
173 197 0
173 197 0
174 198 0
175 198 0
173 197 0
174 198 0
173 196 0
175 198 0
173 197 0
173 197 0
173 196 0
171 194 0
172 195 0
172 196 0
172 195 0
175 198 0
171 195 0
174 197 0
172 196 0
173 196 0
175 198 0
171 195 0
171 194 0
170 194 0
170 194 0
170 194 0
173 197 0
171 194 0
174 197 0
171 194 0
171 194 0
170 194 0
166 189 0
171 194 0
171 195 0
171 194 0
173 197 0
173 197 0
172 196 0
172 196 18
174 197 25
169 192 44
169 193 25
168 191 57
168 191 47
168 190 36
163 186 36
173 195 80
167 189 57
171 193 60
173 194 76
173 194 84
173 194 67
170 192 84
168 189 72
166 187 62
168 190 88
167 189 80
163 186 62
168 190 62
161 182 57
167 189 62
171 193 67
162 184 0
163 186 44
164 187 0
159 181 36
165 188 0
163 186 0
159 182 0
152 175 0
156 178 0
156 178 0
159 181 0
157 180 0
160 183 0
155 178 0
151 173 0
152 175 0
151 173 0
161 184 0
154 177 0
157 179 0
149 171 0
151 173 0
156 179 0
156 179 0
157 180 0
161 183 0
165 188 0
159 181 0
166 188 0
157 180 0
162 186 0
163 186 0
161 184 0
163 185 0
163 187 0
163 184 0
161 184 0
162 186 0
163 185 0
166 189 0
165 187 0
168 190 0
167 190 0
166 188 0
168 191 0
169 192 0
169 190 0
168 189 0
166 189 0
169 192 0
170 194 0
170 193 0
166 189 0
167 189 0
170 192 0
170 193 0
168 191 0
168 191 0
169 191 0
170 192 0
169 193 0
169 192 0
169 191 0
170 194 0
172 193 0
172 195 0
166 188 0
170 192 0
170 192 0
171 193 0
169 192 0
173 197 0
172 195 0
170 193 0
172 195 0
173 195 0
173 196 0
174 197 0
172 195 0
172 195 0
170 194 0
175 198 0
175 198 0
172 196 0
172 195 0
173 196 0
173 196 0
172 196 0
174 197 0
175 198 0
173 196 0
172 195 0
173 196 0
173 196 0
171 195 0
171 195 0
172 195 0
173 196 0
174 197 0
173 196 0
174 197 0
174 196 0
174 198 0
175 198 0
174 198 0
172 196 0
173 197 0
174 198 0
175 198 0
174 198 0
172 196 0
175 198 0
171 196 0
176 199 0
175 198 0
174 197 0
174 198 0
174 197 0
173 197 0
174 197 0
174 197 0
173 197 0
174 197 0
173 197 0
174 198 0
175 198 0
172 196 0
175 198 0
175 198 0
174 197 0
174 197 0
175 198 0
174 198 0
175 198 0
174 197 0
173 196 0
176 197 0
173 197 0
176 199 0
174 197 0
175 197 0
172 196 0
172 197 0
174 197 0
175 198 0
174 197 0
174 197 0
175 198 0
175 198 0
174 197 0
175 198 0
174 198 0
174 197 0
175 197 0
176 198 0
176 198 0
174 198 0
176 198 0
175 198 0
174 197 0
174 198 0
174 197 0
175 198 0
175 198 0
176 199 0
174 198 0
174 198 0
175 198 0
173 197 0
173 196 0
175 198 0
174 198 0
173 197 0
175 198 0
173 197 0
174 198 0
174 198 0
176 198 0
174 198 0
175 198 0
174 197 0
173 197 0
174 197 0
175 198 0
173 197 0
173 197 0
173 197 0
176 198 0
176 199 0
173 197 0
175 198 0
174 197 0
175 198 0
173 197 0
175 198 0
175 198 0
173 197 0
175 198 0
175 198 0
173 197 0
174 197 0
174 198 0
175 198 0
173 197 0
175 198 0
173 197 0
176 198 0
175 198 0
174 198 0
175 198 0
174 198 0
173 197 0
175 198 0
174 197 0
174 198 0
175 198 0
175 198 0
174 197 0
175 198 0
173 197 0
175 198 0
175 198 0
174 198 0
174 197 0
175 198 0
175 198 0
175 198 0
175 198 0
175 198 0
174 198 0
175 198 0
175 198 0
174 198 0
174 198 0
174 198 0
176 198 0
176 199 0
174 198 0
174 198 0
175 198 0
173 197 0
173 197 0
174 198 0
175 198 0
175 198 0
173 197 0
174 198 0
176 198 0
174 198 0
176 199 0
176 199 0
174 198 0
174 198 0
176 199 0
175 198 0
174 198 0
173 196 0
174 197 0
173 197 0
174 197 0
175 198 0
174 198 0
175 198 0
173 197 0
174 198 0
175 198 0
175 198 0
174 198 0
174 198 0
174 197 0
173 197 0
174 198 0
174 198 0
174 197 0
174 198 0
172 197 0
175 198 0
175 198 0
172 197 0
174 198 0
174 198 0
175 198 0
172 197 0
175 198 0
174 198 0
172 196 0
173 197 0
174 198 0
175 198 0
175 198 0
174 198 0
174 197 0
173 197 0
175 198 0
175 198 0
174 197 0
173 197 0
174 198 0
175 198 0
175 198 0
173 197 0
176 198 0
174 197 0
174 198 0
176 198 0
174 198 0
175 198 0
171 196 0
174 198 0
173 197 0
176 199 0
174 197 0
172 196 0
174 197 0
174 198 0
176 199 0
172 196 0
175 198 0
174 198 0
174 198 0
173 196 0
174 197 0
173 197 0
174 198 0
173 197 0
173 197 0
172 197 0
173 196 0
173 197 0
175 198 0
174 197 0
174 197 0
172 196 0
173 197 0
175 198 0
172 196 0
174 197 0
174 198 0
173 196 0
173 197 0
172 196 0
174 197 0
175 197 0
174 197 0
174 198 0
175 198 0
172 195 0
173 197 0
172 195 0
174 197 0
174 197 0
174 198 0
172 196 0
173 196 0
171 195 0
173 197 0
172 195 0
173 197 0
173 197 0
171 196 0
174 198 0
169 193 0
171 195 0
169 193 0
174 198 0
172 195 0
169 194 0
171 195 0
171 195 0
172 196 0
171 195 0
171 195 0
173 196 0
174 197 0
173 196 0
173 196 0
173 195 0
166 191 18
168 192 25
168 192 18
173 195 36
166 189 18
170 191 62
166 188 62
170 191 51
172 194 62
171 192 74
172 192 65
172 193 76
174 195 72
171 193 62
175 195 80
171 191 51
167 189 84
168 190 51
173 194 99
170 192 76
163 184 57
173 194 72
171 192 57
167 188 36
165 187 36
166 188 0
163 185 0
156 180 0
161 183 0
164 187 0
158 181 0
154 176 0
157 179 0
158 180 0
163 185 0
156 179 0
158 181 0
150 174 0
160 182 0
159 181 0
160 183 0
157 179 0
156 178 0
156 179 0
153 176 0
156 177 0
166 189 0
164 187 0
160 183 0
165 187 0
160 182 0
155 178 0
165 188 0
162 186 0
161 184 0
166 189 0
162 184 0
166 189 0
164 187 0
157 181 0
161 185 0
162 185 0
169 192 0
161 184 0
169 192 0
165 187 0
168 192 0
162 185 0
167 189 0
169 191 0
169 192 0
169 192 0
173 195 0
172 194 0
168 191 0
168 189 0
172 195 0
167 190 0
168 191 0
170 194 0
168 191 0
171 194 0
170 193 0
171 194 0
168 190 0
171 194 0
170 193 0
169 192 0
169 192 0
170 194 0
174 196 0
173 196 0
172 195 0
173 195 0
172 195 0
172 194 0
173 196 0
174 196 0
173 196 0
173 196 0
173 196 0
171 195 0
169 192 0
172 196 0
170 193 0
171 194 0
173 196 0
174 196 0
172 196 0
175 198 0
174 197 0
172 195 0
174 197 0
174 198 0
172 195 0
174 197 0
173 196 0
173 195 0
174 197 0
174 196 0
172 196 0
173 195 0
174 197 0
175 197 0
173 195 0
173 197 0
173 197 0
172 196 0
172 195 0
173 197 0
172 196 0
174 197 0
173 196 0
175 198 0
176 199 0
174 197 0
174 197 0
175 198 0
173 197 0
174 197 0
174 197 0
173 196 0
174 197 0
175 197 0
174 197 0
174 197 0
171 196 0
173 197 0
175 198 0
175 198 0
175 198 0
174 198 0
172 196 0
174 196 0
172 196 0
174 198 0
174 198 0
173 197 0
174 198 0
173 197 0
175 198 0
173 197 0
174 198 0
175 198 0
174 198 0
174 198 0
172 196 0
174 197 0
174 198 0
175 198 0
175 198 0
173 197 0
175 198 0
173 197 0
173 197 0
175 198 0
172 196 0
176 198 0
175 198 0
173 197 0
174 198 0
173 197 0
175 198 0
174 198 0
175 197 0
173 197 0
176 198 0
175 198 0
173 197 0
174 197 0
176 198 0
175 198 0
174 198 0
175 198 0
174 198 0
173 197 0
175 198 0
175 197 0
173 197 0
175 198 0
176 199 0
174 198 0
173 197 0
176 199 0
174 198 0
173 197 0
174 198 0
173 197 0
174 198 0
173 197 0
176 199 0
174 197 0
175 198 0
174 198 0
175 197 0
175 198 0
173 196 0
174 197 0
173 197 0
174 197 0
174 197 0
175 198 0
174 198 0
175 198 0
173 197 0
176 198 0
174 197 0
174 197 0
175 198 0
174 198 0
174 197 0
174 197 0
176 199 0
175 198 0
176 198 0
174 197 0
176 198 0
174 198 0
174 198 0
175 198 0
173 197 0
176 199 0
175 198 0
173 197 0
173 197 0
174 198 0
174 198 0
174 197 0
175 198 0
173 197 0
176 198 0
175 198 0
173 197 0
174 198 0
174 198 0
174 197 0
173 197 0
174 198 0
173 197 0
175 198 0
173 197 0
175 198 0
174 197 0
175 198 0
176 199 0
173 197 0
175 198 0
175 198 0
174 198 0
173 197 0
174 198 0
176 198 0
173 197 0
175 198 0
173 197 0
175 198 0
175 198 0
174 197 0
175 198 0
175 198 0
175 198 0
175 198 0
174 198 0
173 197 0
174 197 0
175 198 0
177 199 0
174 198 0
173 197 0
176 199 0
172 197 0
174 197 0
174 198 0
175 198 0
173 197 0
175 198 0
174 198 0
175 198 0
174 197 0
174 198 0
175 198 0
174 198 0
176 199 0
172 197 0
173 197 0
173 197 0
175 198 0
173 197 0
173 196 0
174 197 0
174 198 0
173 197 0
175 198 0
175 198 0
173 197 0
175 198 0
172 196 0
173 197 0
175 197 0
174 197 0
175 198 0
174 198 0
172 196 0
172 196 0
176 198 0
176 199 0
173 197 0
173 197 0
174 198 0
175 198 0
175 198 0
174 197 0
174 197 0
175 198 0
172 196 0
176 198 0
174 198 0
174 198 0
174 197 0
171 196 0
174 198 0
174 198 0
174 198 0
172 196 0
175 198 0
174 198 0
175 198 0
173 197 0
174 198 0
175 198 0
174 197 0
171 195 0
175 198 0
174 197 0
174 197 0
174 197 0
172 197 0
174 197 0
172 196 0
173 197 0
174 198 0
173 197 0
175 198 0
173 197 0
173 197 0
173 196 0
175 198 0
172 195 0
173 197 0
171 195 0
174 197 0
172 195 0
173 197 0
172 196 0
170 194 0
173 196 0
172 195 0
174 198 0
170 194 0
172 195 0
173 196 0
172 196 0
172 196 0
176 199 0
170 195 0
173 196 0
171 193 0
170 193 0
170 194 0
169 193 0
172 195 0
171 194 0
170 193 0
174 196 0
172 195 0
174 197 0
173 196 0
174 198 0
171 194 0
175 198 0
172 195 0
170 193 18
172 195 0
168 192 36
172 194 25
173 195 57
171 192 40
170 192 57
170 192 54
165 187 54
173 194 82
173 194 70
173 195 76
169 192 80
174 195 92
169 192 67
165 185 62
170 191 67
171 193 72
171 192 62
169 190 72
172 193 44
168 190 57
170 192 25
167 190 0
169 192 0
161 183 0
165 188 0
168 189 25
161 184 0
160 183 0
162 184 0
150 173 0
155 177 0
165 187 0
156 179 0
158 182 0
157 179 0
154 176 0
155 178 0
160 183 0
162 185 0
161 185 0
164 188 0
162 184 0
155 177 0
166 189 0
164 187 0
160 182 0
163 187 0
165 189 0
160 182 0
163 187 0
166 191 0
164 186 0
163 186 0
161 183 0
167 190 0
166 188 0
167 190 0
165 188 0
163 186 0
165 188 0
163 186 0
166 190 0
170 193 0
166 189 0
171 194 0
168 191 0
171 194 0
168 191 0
170 194 0
169 192 0
172 195 0
173 195 0
169 192 0
172 194 0
172 195 0
168 190 0
172 196 0
169 192 0
169 192 0
172 195 0
168 191 0
170 192 0
172 194 0
172 195 0
170 193 0
170 193 0
170 191 0
172 195 0
171 194 0
169 192 0
172 195 0
172 196 0
171 194 0
174 196 0
170 193 0
174 197 0
173 196 0
173 196 0
171 194 0
172 195 0
172 195 0
173 196 0
170 194 0
170 193 0
171 194 0
171 195 0
173 197 0
174 197 0
173 196 0
172 195 0
173 196 0
173 196 0
172 196 0
175 198 0
173 196 0
174 197 0
174 197 0
175 197 0
173 197 0
174 196 0
172 195 0
171 196 0
174 197 0
173 197 0
174 197 0
174 197 0
175 198 0
175 198 0
174 197 0
172 196 0
175 198 0
174 196 0
173 197 0
175 198 0
174 197 0
173 197 0
173 197 0
172 196 0
174 197 0
172 196 0
173 197 0
175 198 0
174 197 0
174 198 0
173 197 0
173 196 0
175 198 0
172 196 0
175 198 0
175 198 0
174 196 0
175 198 0
173 196 0
176 198 0
176 198 0
174 198 0
173 197 0
175 198 0
175 198 0
173 197 0
175 198 0
173 197 0
173 197 0
174 197 0
174 198 0
174 197 0
174 197 0
172 196 0
174 197 0
175 198 0
175 198 0
173 197 0
174 197 0
173 197 0
175 198 0
174 198 0
175 198 0
175 198 0
174 198 0
176 198 0
174 198 0
173 196 0
173 196 0
175 198 0
176 199 0
173 197 0
175 198 0
172 197 0
174 198 0
174 197 0
175 198 0
173 197 0
176 198 0
174 198 0
174 197 0
174 198 0
175 198 0
174 198 0
173 197 0
174 197 0
175 198 0
173 197 0
174 198 0
173 197 0
174 197 0
174 198 0
174 197 0
176 199 0
174 198 0
174 198 0
174 198 0
174 198 0
173 197 0
175 198 0
174 197 0
173 197 0
175 198 0
175 198 0
174 198 0
175 198 0
176 198 0
176 199 0
175 198 0
175 198 0
174 198 0
175 198 0
173 197 0
175 198 0
174 198 0
174 197 0
174 197 0
175 198 0
176 199 0
175 198 0
174 198 0
175 198 0
175 198 0
175 198 0
175 198 0
174 197 0
175 198 0
174 198 0
175 198 0
177 199 0
176 198 0
174 198 0
174 197 0
174 198 0
174 198 0
173 197 0
174 198 0
174 197 0
174 198 0
175 198 0
173 197 0
175 198 0
175 198 0
174 198 0
175 198 0
171 196 0
176 199 0
174 197 0
174 198 0
176 198 0
174 197 0
173 197 0
173 197 0
174 197 0
175 198 0
174 198 0
174 198 0
176 198 0
173 197 0
175 198 0
173 197 0
174 197 0
174 198 0
175 198 0
175 198 0
175 198 0
175 198 0
174 198 0
174 198 0
174 197 0
173 197 0
173 197 0
174 197 0
172 196 0
176 198 0
174 198 0
176 199 0
176 199 0
174 197 0
175 198 0
173 197 0
175 198 0
174 197 0
173 197 0
176 198 0
175 198 0
174 198 0
174 198 0
175 198 0
174 198 0
173 197 0
174 198 0
175 198 0
175 198 0
176 199 0
174 198 0
174 198 0
175 198 0
173 197 0
174 198 0
173 197 0
175 198 0
175 198 0
173 197 0
173 197 0
175 198 0
175 198 0
175 197 0
175 198 0
176 199 0
173 197 0
175 198 0
175 198 0
174 198 0
173 197 0
173 197 0
172 196 0
174 198 0
177 199 0
174 198 0
173 197 0
176 199 0
174 198 0
174 197 0
174 198 0
174 198 0
174 197 0
175 198 0
174 198 0
174 197 0
175 198 0
174 198 0
174 197 0
173 197 0
174 198 0
173 196 0
174 197 0
172 196 0
172 196 0
172 196 0
174 197 0
172 196 0
173 197 0
173 196 0
170 194 0
173 197 0
173 196 0
173 197 0
171 195 0
174 198 0
174 198 0
171 195 0
171 196 0
173 197 0
173 197 0
173 197 0
172 196 0
171 195 0
172 196 0
172 196 0
175 198 0
173 196 0
172 196 0
173 196 0
171 194 0
173 196 0
171 194 0
175 198 0
172 194 0
174 197 0
173 196 0
172 195 0
172 195 0
173 196 0
169 193 0
168 192 0
171 194 0
172 196 0
171 195 0
172 195 0
173 197 0
172 195 0
175 198 0
171 195 0
171 194 0
173 196 25
169 192 31
168 191 31
165 187 25
175 196 44
176 197 44
167 189 36
170 192 57
172 193 76
174 195 78
170 191 57
174 195 84
172 192 76
171 193 51
174 195 76
169 191 51
167 189 44
170 191 36
170 192 62
170 191 51
175 196 36
170 192 0
168 191 51
162 184 0
169 193 0
161 184 0
160 182 0
159 181 0
159 181 0
159 180 0
158 181 0
154 176 0
157 179 0
153 176 0
160 182 0
161 183 0
159 182 0
163 185 0
161 185 0
164 186 0
161 184 0
166 189 0
161 184 0
160 183 0
166 189 0
162 185 0
164 186 0
163 185 0
168 191 0
170 192 0
162 186 0
169 193 0
162 184 0
161 184 0
168 191 0
164 187 0
166 189 0
161 184 0
168 191 0
166 188 0
168 190 0
167 191 0
170 193 0
165 188 0
166 189 0
171 193 0
169 192 0
168 192 0
174 196 0
171 195 0
171 193 0
168 192 0
171 194 0
169 191 0
171 194 0
166 189 0
170 192 0
170 194 0
170 192 0
168 191 0
170 193 0
169 192 0
172 195 0
169 192 0
170 191 0
171 194 0
171 195 0
170 193 0
173 196 0
172 195 0
170 194 0
172 194 0
171 194 0
174 197 0
171 193 0
173 196 0
172 196 0
173 196 0
171 194 0
172 196 0
173 196 0
170 193 0
173 197 0
172 196 0
174 197 0
171 194 0
174 197 0
172 195 0
172 195 0
174 197 0
174 198 0
174 197 0
173 196 0
173 197 0
173 197 0
172 195 0
174 196 0
175 197 0
174 197 0
173 197 0
171 195 0
174 196 0
175 198 0
174 197 0
173 197 0
175 198 0
174 197 0
173 197 0
174 197 0
174 197 0
174 198 0
175 197 0
175 198 0
174 197 0
171 195 0
175 198 0
174 198 0
174 197 0
173 195 0
174 198 0
174 197 0
173 197 0
175 197 0
175 198 0
172 195 0
175 198 0
174 197 0
173 197 0
174 197 0
174 197 0
174 198 0
174 197 0
173 197 0
174 197 0
175 198 0
172 196 0
174 197 0
173 197 0
172 197 0
174 198 0
174 197 0
174 197 0
175 198 0
174 198 0
174 197 0
173 197 0
173 197 0
175 198 0
173 197 0
174 198 0
173 197 0
174 197 0
174 197 0
173 197 0
173 197 0
172 195 0
174 198 0
173 196 0
175 198 0
174 198 0
176 199 0
174 197 0
175 198 0
174 198 0
174 197 0
175 198 0
176 199 0
176 199 0
175 198 0
175 198 0
173 197 0
174 197 0
175 198 0
175 198 0
175 198 0
172 196 0
176 198 0
174 197 0
173 197 0
175 197 0
174 197 0
173 197 0
173 197 0
175 198 0
175 198 0
175 198 0
174 198 0
177 199 0
176 199 0
174 198 0
174 198 0
173 197 0
174 197 0
174 198 0
175 198 0
174 198 0
174 198 0
173 197 0
176 199 0
174 198 0
173 197 0
174 198 0
173 197 0
174 197 0
173 197 0
175 198 0
173 197 0
173 197 0
174 198 0
174 198 0
174 197 0
174 197 0
174 197 0
174 198 0
174 198 0
173 197 0
175 198 0
177 199 0
173 197 0
175 198 0
176 199 0
174 198 0
174 197 0
174 197 0
175 198 0
174 198 0
177 199 0
174 197 0
175 198 0
175 198 0
175 198 0
174 198 0
176 198 0
173 197 0
173 197 0
173 197 0
174 198 0
174 198 0
176 199 0
173 197 0
174 198 0
174 198 0
175 198 0
174 197 0
172 196 0
175 198 0
175 198 0
173 197 0
175 198 0
174 198 0
176 199 0
173 197 0
173 197 0
173 197 0
175 198 0
175 198 0
173 196 0
174 198 0
173 197 0
174 197 0
174 198 0
174 198 0
173 197 0
174 198 0
174 198 0
172 197 0
177 199 0
175 198 0
174 198 0
176 199 0
176 198 0
175 198 0
175 198 0
175 198 0
174 198 0
175 198 0
175 198 0
175 198 0
175 198 0
173 197 0
173 197 0
175 198 0
174 198 0
176 199 0
172 196 0
173 197 0
174 198 0
174 197 0
176 199 0
175 198 0
173 197 0
175 198 0
174 198 0
175 198 0
175 198 0
175 198 0
175 198 0
174 197 0
173 197 0
173 197 0
173 196 0
175 198 0
172 196 0
174 198 0
175 198 0
175 198 0
173 197 0
174 198 0
174 197 0
174 197 0
176 198 0
173 197 0
174 197 0
174 197 0
174 198 0
173 196 0
174 198 0
173 197 0
174 197 0
175 198 0
175 198 0
175 198 0
176 199 0
172 196 0
174 198 0
173 197 0
173 197 0
173 196 0
174 198 0
175 198 0
173 197 0
174 197 0
174 198 0
174 197 0
173 196 0
174 198 0
173 197 0
175 198 0
174 197 0
175 198 0
174 197 0
172 196 0
175 198 0
172 196 0
173 197 0
175 198 0
173 197 0
174 197 0
171 195 0
174 198 0
173 197 0
172 196 0
172 195 0
174 197 0
174 197 0
173 197 0
173 197 0
171 194 0
173 197 0
173 196 0
173 196 0
172 196 0
173 195 0
172 195 0
171 194 0
174 197 0
174 197 0
172 196 0
170 193 0
168 193 0
172 196 0
171 194 0
174 197 0
170 194 0
171 194 0
171 194 0
172 195 0
175 197 0
170 194 0
172 195 0
174 197 25
168 191 18
169 192 25
172 195 18
173 195 47
173 194 40
175 196 44
177 198 62
172 194 67
172 193 44
177 199 57
175 196 84
176 196 80
177 198 72
173 195 62
168 190 36
171 193 57
171 193 36
170 192 44
168 190 51
167 190 0
166 189 0
164 187 0
162 185 0
162 184 0
161 182 0
160 183 0
151 172 0
161 183 0
160 181 0
152 175 0
163 185 0
161 184 0
164 187 0
161 184 0
162 184 0
165 187 0
162 184 0
161 183 0
162 184 0
158 181 0
154 176 0
166 189 0
164 186 0
161 184 0
162 186 0
166 188 0
168 191 0
162 186 0
162 184 0
169 192 0
166 188 0
163 187 0
167 190 0
165 187 0
167 190 0
167 190 0
169 191 0
170 192 0
163 186 0
168 191 0
169 192 0
171 194 0
169 192 0
164 186 0
169 192 0
168 191 0
168 190 0
168 191 0
165 188 0
171 193 0
171 194 0
169 192 0
169 192 0
170 192 0
169 191 0
172 193 0
170 193 0
171 194 0
170 194 0
171 193 0
172 194 0
169 192 0
171 194 0
174 196 0
170 193 0
171 194 0
171 194 0
170 192 0
172 195 0
171 192 0
172 196 0
169 192 0
172 196 0
171 195 0
174 196 0
170 193 0
172 196 0
174 196 0
174 197 0
170 193 0
174 197 0
174 197 0
175 198 0
171 194 0
173 196 0
174 197 0
173 196 0
173 196 0
174 197 0
171 194 0
172 195 0
173 196 0
173 196 0
176 198 0
173 196 0
173 196 0
173 195 0
172 196 0
174 197 0
173 196 0
173 197 0
174 197 0
172 196 0
173 196 0
173 196 0
174 197 0
173 197 0
175 198 0
173 196 0
174 198 0
174 197 0
174 198 0
175 198 0
174 197 0
174 197 0
175 198 0
175 198 0
175 198 0
174 197 0
175 198 0
173 197 0
174 197 0
175 198 0
173 197 0
175 198 0
173 197 0
174 197 0
173 197 0
174 197 0
174 197 0
174 198 0
174 198 0
174 197 0
174 197 0
174 197 0
175 198 0
175 198 0
174 197 0
173 197 0
176 199 0
173 196 0
173 197 0
173 197 0
174 198 0
174 197 0
174 197 0
173 196 0
175 198 0
176 199 0
174 197 0
174 198 0
175 198 0
176 199 0
174 198 0
176 198 0
175 198 0
174 198 0
174 197 0
174 198 0
174 198 0
175 198 0
175 198 0
174 197 0
173 196 0
175 198 0
175 198 0
172 196 0
173 197 0
175 198 0
174 197 0
175 198 0
175 198 0
173 197 0
174 197 0
175 198 0
173 197 0
174 198 0
174 197 0
174 197 0
174 198 0
172 196 0
174 198 0
176 198 0
175 198 0
174 198 0
175 198 0
177 199 0
175 198 0
175 198 0
175 198 0
175 198 0
175 198 0
174 197 0
174 198 0
176 199 0
175 198 0
176 198 0
174 198 0
174 198 0
175 198 0
175 198 0
176 199 0
176 198 0
173 197 0
174 198 0
174 198 0
174 198 0
174 198 0
175 198 0
175 198 0
175 198 0
175 198 0
176 199 0
173 197 0
176 198 0
174 198 0
173 197 0
175 198 0
174 198 0
178 200 0
174 197 0
175 198 0
175 198 0
174 198 0
174 198 0
173 197 0
174 198 0
174 197 0
174 197 0
173 197 0
176 199 0
173 197 0
175 198 0
175 198 0
174 198 0
174 198 0
173 197 0
172 196 0
175 198 0
174 198 0
176 199 0
174 198 0
174 198 0
174 197 0
175 198 0
175 198 0
176 198 0
175 198 0
175 198 0
176 199 0
174 198 0
174 198 0
175 198 0
176 199 0
174 198 0
175 198 0
173 196 0
174 198 0
174 197 0
174 198 0
174 198 0
173 197 0
174 198 0
175 198 0
174 198 0
173 197 0
175 198 0
173 197 0
175 198 0
175 198 0
174 197 0
176 198 0
176 198 0
174 198 0
174 198 0
176 199 0
173 197 0
174 198 0
173 197 0
173 197 0
176 198 0
175 198 0
174 198 0
175 198 0
173 196 0
175 198 0
176 199 0
173 197 0
176 199 0
175 198 0
175 198 0
175 198 0
174 198 0
173 197 0
174 198 0
175 198 0
173 197 0
174 197 0
174 198 0
174 197 0
173 197 0
174 197 0
174 197 0
177 199 0
176 198 0
175 198 0
173 197 0
174 197 0
173 196 0
172 197 0
174 197 0
174 197 0
174 197 0
173 196 0
176 199 0
174 198 0
176 199 0
174 197 0
175 198 0
173 196 0
173 196 0
173 196 0
170 194 0
175 198 0
172 196 0
174 198 0
174 197 0
176 198 0
174 197 0
174 198 0
173 197 0
173 197 0
173 197 0
175 198 0
175 198 0
173 196 0
172 196 0
173 197 0
172 196 0
174 198 0
171 194 0
173 197 0
170 194 0
174 197 0
173 196 0
172 196 0
173 197 0
174 198 0
172 196 0
174 197 0
172 196 0
173 196 0
172 196 0
174 197 0
172 196 0
172 196 0
173 196 0
170 194 0
172 196 0
172 196 0
174 198 0
172 195 0
175 198 0
173 196 0
169 193 0
171 195 0
172 195 0
174 197 0
171 195 0
171 195 0
171 194 0
173 196 0
171 194 0
171 195 0
173 195 0
171 194 0
170 193 0
172 195 0
170 194 0
171 195 0
169 192 18
174 197 28
166 189 18
173 195 40
172 193 18
171 193 36
173 194 57
174 195 51
177 198 67
177 198 76
173 195 62
171 192 51
173 194 44
174 195 62
173 194 44
173 195 44
168 190 36
166 188 36
172 194 25
167 190 0
167 189 0
167 190 0
165 186 0
166 189 0
169 190 0
165 188 0
151 174 0
169 191 0
158 180 0
159 182 0
164 187 0
160 183 0
162 185 0
165 187 0
162 185 0
172 194 0
162 186 0
156 178 0
157 179 0
156 179 0
156 179 0
161 183 0
158 181 0
165 187 0
167 190 0
169 192 0
165 188 0
172 195 0
159 183 0
168 191 0
166 190 0
166 189 0
169 191 0
167 190 0
169 191 0
164 186 0
164 187 0
166 189 0
169 192 0
167 191 0
168 191 0
166 189 0
165 189 0
170 194 0
168 192 0
166 189 0
170 193 0
166 189 0
167 191 0
165 188 0
173 195 0
169 192 0
171 194 0
170 193 0
170 193 0
169 193 0
170 192 0
171 194 0
173 196 0
173 196 0
168 191 0
173 196 0
173 196 0
171 193 0
171 195 0
174 197 0
172 195 0
171 194 0
172 195 0
172 195 0
170 193 0
173 196 0
173 197 0
173 196 0
172 196 0
173 197 0
172 195 0
173 196 0
172 196 0
174 197 0
173 197 0
172 196 0
173 196 0
171 195 0
174 197 0
173 197 0
172 195 0
174 196 0
171 193 0
173 196 0
174 198 0
173 197 0
173 196 0
173 196 0
173 197 0
173 197 0
172 195 0
174 197 0
173 197 0
175 197 0
173 196 0
173 196 0
173 197 0
173 196 0
174 197 0
175 198 0
174 197 0
175 198 0
174 197 0
173 197 0
173 197 0
173 197 0
173 197 0
175 198 0
175 198 0
175 198 0
173 197 0
174 197 0
174 197 0
175 198 0
176 198 0
174 195 0
173 197 0
175 198 0
175 198 0
175 198 0
175 198 0
174 198 0
174 197 0
174 197 0
175 198 0
173 197 0
173 196 0
174 197 0
173 196 0
174 198 0
174 198 0
173 197 0
173 197 0
174 197 0
175 198 0
174 198 0
175 198 0
174 198 0
174 198 0
175 198 0
174 198 0
175 198 0
172 196 0
174 198 0
175 198 0
177 199 0
173 196 0
175 198 0
173 197 0
174 198 0
175 198 0
173 196 0
174 197 0
174 198 0
174 198 0
174 198 0
174 198 0
177 199 0
174 198 0
174 198 0
173 197 0
175 198 0
175 198 0
175 198 0
175 198 0
174 197 0
174 198 0
175 198 0
175 198 0
174 197 0
173 197 0
175 198 0
174 198 0
173 197 0
174 198 0
175 198 0
173 197 0
173 197 0
174 198 0
173 197 0
174 197 0
174 198 0
174 198 0
174 198 0
173 197 0
176 198 0
173 197 0
175 198 0
173 197 0
175 198 0
175 198 0
176 198 0
175 198 0
173 197 0
175 198 0
173 197 0
175 198 0
176 199 0
174 197 0
175 198 0
174 197 0
174 198 0
174 197 0
174 198 0
174 198 0
174 198 0
175 198 0
175 198 0
174 197 0
174 197 0
174 197 0
174 197 0
174 198 0
173 197 0
175 198 0
175 198 0
172 197 0
175 198 0
174 198 0
174 197 0
175 198 0
172 197 0
174 198 0
175 198 0
175 198 0
174 198 0
174 198 0
175 198 0
175 198 0
175 198 0
176 198 0
176 198 0
176 199 0
175 198 0
174 198 0
174 198 0
173 197 0
174 198 0
174 198 0
174 198 0
174 198 0
175 198 0
175 198 0
175 198 0
174 198 0
174 198 0
174 198 0
175 198 0
175 198 0
174 198 0
174 197 0
173 197 0
174 197 0
175 198 0
172 197 0
174 198 0
175 198 0
172 197 0
174 198 0
176 198 0
174 198 0
175 198 0
174 198 0
175 198 0
174 198 0
175 198 0
175 198 0
173 197 0
174 198 0
172 197 0
174 197 0
173 196 0
175 198 0
174 198 0
172 196 0
174 197 0
175 198 0
173 197 0
175 198 0
175 198 0
174 197 0
176 199 0
174 198 0
174 198 0
173 197 0
175 198 0
176 198 0
175 198 0
175 198 0
175 198 0
174 198 0
173 197 0
174 197 0
174 197 0
175 198 0
175 198 0
173 197 0
175 198 0
174 198 0
175 198 0
174 197 0
173 197 0
175 198 0
175 198 0
176 199 0
174 198 0
175 197 0
174 197 0
175 198 0
173 197 0
175 198 0
173 197 0
174 197 0
174 197 0
173 197 0
173 197 0
173 197 0
175 198 0
174 197 0
174 197 0
172 196 0
172 196 0
175 198 0
174 198 0
174 197 0
174 197 0
173 197 0
173 197 0
175 198 0
173 197 0
172 196 0
173 197 0
175 198 0
172 196 0
174 197 0
174 198 0
173 197 0
173 197 0
173 196 0
174 198 0
174 197 0
173 197 0
174 197 0
170 194 0
174 197 0
173 197 0
173 197 0
172 195 0
171 195 0
172 196 0
171 195 0
172 196 0
173 196 0
172 196 0
172 195 0
171 195 0
173 196 0
173 196 0
172 196 0
172 195 0
171 195 0
174 196 0
173 196 0
173 196 0
169 193 0
173 196 0
173 196 0
172 195 0
170 193 0
172 195 0
171 194 0
171 195 0
174 196 25
172 196 0
174 197 0
172 195 0
174 196 25
175 198 51
170 193 0
172 194 0
174 196 57
172 193 25
174 196 36
172 193 51
175 197 0
171 193 51
173 194 57
171 193 44
172 195 36
172 194 25
170 192 0
171 193 0
170 192 0
166 189 0
166 188 0
162 184 0
164 186 0
165 188 0
164 185 0
160 182 0
167 189 0
158 180 0
157 179 0
166 188 0
160 183 0
166 189 0
161 184 0
163 186 0
158 181 0
158 182 0
162 184 0
162 184 0
163 186 0
162 184 0
168 191 0
161 184 0
165 188 0
161 185 0
165 188 0
168 191 0
165 188 0
165 187 0
163 186 0
165 188 0
165 188 0
165 189 0
167 189 0
163 186 0
164 188 0
163 185 0
170 194 0
166 189 0
165 189 0
168 191 0
169 192 0
167 190 0
164 187 0
171 193 0
168 191 0
164 187 0
165 188 0
166 189 0
171 193 0
170 194 0
170 193 0
169 192 0
172 194 0
170 193 0
169 192 0
172 195 0
170 193 0
170 194 0
171 194 0
172 195 0
169 192 0
171 195 0
172 196 0
170 193 0
170 194 0
171 194 0
172 196 0
172 195 0
172 195 0
172 195 0
172 196 0
171 194 0
171 194 0
172 195 0
171 194 0
172 194 0
173 197 0
172 194 0
175 198 0
173 195 0
173 196 0
174 196 0
171 194 0
175 198 0
172 196 0
171 195 0
173 196 0
174 197 0
175 197 0
172 196 0
174 197 0
174 197 0
174 197 0
175 198 0
173 195 0
174 197 0
174 197 0
173 196 0
174 197 0
173 196 0
174 197 0
173 197 0
172 195 0
174 197 0
175 197 0
175 198 0
173 196 0
174 197 0
174 197 0
173 197 0
173 197 0
174 197 0
172 195 0
174 197 0
175 198 0
174 197 0
172 196 0
175 198 0
173 196 0
174 198 0
173 197 0
173 197 0
174 197 0
175 198 0
175 198 0
171 196 0
173 197 0
172 196 0
176 199 0
174 197 0
176 198 0
174 197 0
175 198 0
175 198 0
176 199 0
175 198 0
175 198 0
174 197 0
175 197 0
173 197 0
174 198 0
175 198 0
175 198 0
174 197 0
172 197 0
175 198 0
175 198 0
174 198 0
173 197 0
175 197 0
174 198 0
172 195 0
173 197 0
173 197 0
175 198 0
176 199 0
174 197 0
173 197 0
173 197 0
173 197 0
174 197 0
175 198 0
174 198 0
175 198 0
175 198 0
173 197 0
174 198 0
175 198 0
174 198 0
175 198 0
176 199 0
173 197 0
173 197 0
175 198 0
175 198 0
174 198 0
175 198 0
173 197 0
175 198 0
173 197 0
174 197 0
174 198 0
175 198 0
173 197 0
173 197 0
173 197 0
175 198 0
175 198 0
174 198 0
175 198 0
175 198 0
173 197 0
175 198 0
174 198 0
175 198 0
176 199 0
175 198 0
174 198 0
173 197 0
173 197 0
176 198 0
175 198 0
176 198 0
174 197 0
173 197 0
173 197 0
174 197 0
174 198 0
174 198 0
175 198 0
175 198 0
175 198 0
175 198 0
175 198 0
176 198 0
176 199 0
175 198 0
174 198 0
174 198 0
173 197 0
173 197 0
175 198 0
174 197 0
175 198 0
174 198 0
174 197 0
175 198 0
174 198 0
175 198 0
173 197 0
174 198 0
174 198 0
175 198 0
173 197 0
174 197 0
175 198 0
174 197 0
174 198 0
174 197 0
174 198 0
175 198 0
175 198 0
173 197 0
173 197 0
174 197 0
174 198 0
175 198 0
174 198 0
175 198 0
173 197 0
174 198 0
175 198 0
174 197 0
174 197 0
173 197 0
175 198 0
174 197 0
176 199 0
173 197 0
174 198 0
175 198 0
175 198 0
175 198 0
172 196 0
175 198 0
175 198 0
174 197 0
175 198 0
175 198 0
173 197 0
174 197 0
174 198 0
174 198 0
172 196 0
175 198 0
174 198 0
174 197 0
175 198 0
175 198 0
175 198 0
174 198 0
175 198 0
174 198 0
174 198 0
174 197 0
175 198 0
173 197 0
175 198 0
175 198 0
174 197 0
172 196 0
173 197 0
174 197 0
175 198 0
174 198 0
175 198 0
175 198 0
175 198 0
175 198 0
176 199 0
175 198 0
174 198 0
173 197 0
175 198 0
174 197 0
176 199 0
172 197 0
175 198 0
174 197 0
173 196 0
175 198 0
174 198 0
173 197 0
173 197 0
174 198 0
175 198 0
174 197 0
172 196 0
175 198 0
173 197 0
174 197 0
174 197 0
174 197 0
174 198 0
174 197 0
175 198 0
173 197 0
173 197 0
174 197 0
173 197 0
173 197 0
174 197 0
170 195 0
173 197 0
174 198 0
176 199 0
176 199 0
174 198 0
173 197 0
174 197 0
174 197 0
173 196 0
174 198 0
174 197 0
172 196 0
171 195 0
172 196 0
173 197 0
174 197 0
171 195 0
173 197 0
172 195 0
174 197 0
172 196 0
171 195 0
172 196 0
174 198 0
174 197 0
172 196 0
170 194 0
171 194 0
173 196 0
172 196 0
173 196 0
173 196 0
173 197 0
172 195 0
172 196 0
172 195 0
174 197 0
172 196 0
169 194 0
174 197 0
173 197 0
168 191 0
173 195 0
171 194 0
174 197 0
174 197 0
170 193 0
168 191 0
174 196 0
172 195 0
175 198 0
176 198 36
174 196 25
174 197 36
174 196 25
173 195 36
173 195 44
173 194 0
175 197 44
175 196 0
167 189 36
176 196 25
170 192 36
173 196 0
167 189 0
166 189 0
165 188 0
168 190 0
169 191 0
169 192 0
169 192 0
171 194 0
161 184 0
165 187 0
160 183 0
163 185 0
160 184 0
167 190 0
163 185 0
158 181 0
160 183 0
169 192 0
157 180 0
161 183 0
166 189 0
161 184 0
162 186 0
163 187 0
165 188 0
163 186 0
161 185 0
166 189 0
159 182 0
165 188 0
164 187 0
163 186 0
169 193 0
164 187 0
164 187 0
163 185 0
161 186 0
167 190 0
167 191 0
166 189 0
172 196 0
169 193 0
164 186 0
172 195 0
167 189 0
170 192 0
170 193 0
166 190 0
168 192 0
168 191 0
170 192 0
168 192 0
171 193 0
170 192 0
173 197 0
172 195 0
168 191 0
171 193 0
168 190 0
171 195 0
169 193 0
171 194 0
169 191 0
173 196 0
169 192 0
171 194 0
171 195 0
172 194 0
171 193 0
169 193 0
169 193 0
172 195 0
172 194 0
171 194 0
173 196 0
171 195 0
171 193 0
173 197 0
173 197 0
172 195 0
173 196 0
172 195 0
172 195 0
172 195 0
172 195 0
173 196 0
173 197 0
169 192 0
171 195 0
173 196 0
174 197 0
172 194 0
174 196 0
174 197 0
172 195 0
171 195 0
174 197 0
174 197 0
173 195 0
174 197 0
173 197 0
174 197 0
175 198 0
172 196 0
173 196 0
174 197 0
174 197 0
173 196 0
175 198 0
175 198 0
174 198 0
173 197 0
174 197 0
173 196 0
175 198 0
174 197 0
173 196 0
174 197 0
175 198 0
173 197 0
172 195 0
173 196 0
174 197 0
172 196 0
174 198 0
175 198 0
174 197 0
171 195 0
175 198 0
171 195 0
174 197 0
175 198 0
174 198 0
174 197 0
174 198 0
173 197 0
174 198 0
174 198 0
174 198 0
173 196 0
174 197 0
173 196 0
173 197 0
174 197 0
173 197 0
175 198 0
173 197 0
173 197 0
174 197 0
174 197 0
173 197 0
174 197 0
174 198 0
175 198 0
173 197 0
173 197 0
175 198 0
175 198 0
174 197 0
173 197 0
175 198 0
173 196 0
174 197 0
174 197 0
174 198 0
173 196 0
175 198 0
175 198 0
173 197 0
174 198 0
174 198 0
175 198 0
175 198 0
174 198 0
173 197 0
174 198 0
175 198 0
174 198 0
176 198 0
175 198 0
175 198 0
174 197 0
172 196 0
175 198 0
176 198 0
174 198 0
173 197 0
174 198 0
175 198 0
175 198 0
175 198 0
176 199 0
174 198 0
175 198 0
175 198 0
174 198 0
173 197 0
175 198 0
175 198 0
175 198 0
174 197 0
173 197 0
176 199 0
175 198 0
174 198 0
173 197 0
174 198 0
175 198 0
175 198 0
175 198 0
174 198 0
176 198 0
173 197 0
175 198 0
173 197 0
174 198 0
173 197 0
175 198 0
173 197 0
173 197 0
172 196 0
173 197 0
174 198 0
176 198 0
174 198 0
176 199 0
175 198 0
173 197 0
173 197 0
175 198 0
175 198 0
175 198 0
174 198 0
174 198 0
175 198 0
173 197 0
174 197 0
175 198 0
174 197 0
174 198 0
173 197 0
174 197 0
174 197 0
175 198 0
174 198 0
173 197 0
173 197 0
174 197 0
174 197 0
174 198 0
175 198 0
174 198 0
174 197 0
174 198 0
174 197 0
174 198 0
175 198 0
175 198 0
173 197 0
174 198 0
175 197 0
174 198 0
172 197 0
176 199 0
175 198 0
173 197 0
176 198 0
173 197 0
173 197 0
174 198 0
176 199 0
174 197 0
173 197 0
173 197 0
175 198 0
174 197 0
173 197 0
174 198 0
175 198 0
174 197 0
174 197 0
175 198 0
174 197 0
174 198 0
173 197 0
172 196 0
173 197 0
176 198 0
173 197 0
174 197 0
174 197 0
172 196 0
173 197 0
174 197 0
174 198 0
172 196 0
173 196 0
174 198 0
174 198 0
173 197 0
173 196 0
175 198 0
175 198 0
174 198 0
174 198 0
175 198 0
173 196 0
174 197 0
174 198 0
175 197 0
174 198 0
174 197 0
173 197 0
174 197 0
175 198 0
175 198 0
174 197 0
173 197 0
175 198 0
173 197 0
173 197 0
177 199 0
175 198 0
174 198 0
173 197 0
174 197 0
172 196 0
172 196 0
174 198 0
171 195 0
176 199 0
173 196 0
171 195 0
174 198 0
173 196 0
174 197 0
172 196 0
174 198 0
173 196 0
174 197 0
175 198 0
173 197 0
174 198 0
173 196 0
174 198 0
173 196 0
173 196 0
176 198 0
171 195 0
170 194 0
173 197 0
175 198 0
173 197 0
174 197 0
172 195 0
174 198 0
170 194 0
172 195 0
171 196 0
173 197 0
172 196 0
170 193 0
170 194 0
173 197 0
174 197 0
174 196 0
174 197 0
173 197 0
172 196 0
172 195 0
173 197 0
170 194 0
169 192 0
174 197 0
173 196 0
174 197 0
170 194 0
170 193 0
173 196 0
172 194 0
172 195 0
170 192 0
173 195 0
170 193 0
174 197 0
176 198 0
171 195 0
175 197 0
175 197 25
172 195 36
171 194 0
171 194 0
174 196 0
173 196 0
171 193 0
174 197 0
172 194 0
168 190 0
174 196 0
170 193 0
169 192 0
167 189 0
166 188 0
169 190 0
167 189 0
166 189 0
168 190 0
164 186 0
162 184 0
166 188 0
170 193 0
161 183 0
162 184 0
168 191 0
167 189 0
167 190 0
163 186 0
166 189 0
161 185 0
167 189 0
165 187 0
168 190 0
166 188 0
166 190 0
168 191 0
167 189 0
164 186 0
166 189 0
168 192 0
168 191 0
164 188 0
166 189 0
168 191 0
164 187 0
168 192 0
166 189 0
167 190 0
169 192 0
167 190 0
167 191 0
164 186 0
170 193 0
169 192 0
169 192 0
171 195 0
167 190 0
166 189 0
167 190 0
170 193 0
170 194 0
169 192 0
168 192 0
170 193 0
171 195 0
173 196 0
170 192 0
168 190 0
170 193 0
173 196 0
173 196 0
167 190 0
171 195 0
168 193 0
172 195 0
170 193 0
174 197 0
173 195 0
172 194 0
172 196 0
171 195 0
170 193 0
171 194 0
170 193 0
173 196 0
172 195 0
174 197 0
171 194 0
174 197 0
170 194 0
171 195 0
173 197 0
171 194 0
172 196 0
168 191 0
173 197 0
171 194 0
172 195 0
171 195 0
174 198 0
174 197 0
173 196 0
174 197 0
173 196 0
173 197 0
173 196 0
174 197 0
172 195 0
173 196 0
174 198 0
173 197 0
173 196 0
172 195 0
173 196 0
173 197 0
175 198 0
174 197 0
174 197 0
173 197 0
175 198 0
174 197 0
174 198 0
173 197 0
173 196 0
169 193 0
175 197 0
173 197 0
174 197 0
174 197 0
172 196 0
175 198 0
174 198 0
173 197 0
174 198 0
174 197 0
175 198 0
175 198 0
175 198 0
174 197 0
173 197 0
173 196 0
174 197 0
176 199 0
174 198 0
172 196 0
173 197 0
173 196 0
175 198 0
172 196 0
174 197 0
175 198 0
176 199 0
177 199 0
173 197 0
174 198 0
174 197 0
172 196 0
173 196 0
174 197 0
175 198 0
175 198 0
174 198 0
174 197 0
174 197 0
175 198 0
175 198 0
174 197 0
175 198 0
176 199 0
175 198 0
174 197 0
175 198 0
173 197 0
175 198 0
174 198 0
174 198 0
174 198 0
173 197 0
176 198 0
174 198 0
175 198 0
175 198 0
175 198 0
175 198 0
174 198 0
175 198 0
173 197 0
174 198 0
176 199 0
172 196 0
174 198 0
175 198 0
174 198 0
173 197 0
174 198 0
173 197 0
172 197 0
175 198 0
176 199 0
174 198 0
173 197 0
175 198 0
175 198 0
174 198 0
175 198 0
174 197 0
175 198 0
174 198 0
174 198 0
174 197 0
175 198 0
175 198 0
175 197 0
175 198 0
175 198 0
174 197 0
176 198 0
174 198 0
175 198 0
175 198 0
174 198 0
176 199 0
173 197 0
174 198 0
175 198 0
175 198 0
175 198 0
175 198 0
175 198 0
175 198 0
174 198 0
174 198 0
175 198 0
175 198 0
174 198 0
174 198 0
176 199 0
175 198 0
175 198 0
173 197 0
176 199 0
173 197 0
174 198 0
174 198 0
174 198 0
173 197 0
174 197 0
174 198 0
173 197 0
174 198 0
175 198 0
175 198 0
174 198 0
176 198 0
175 198 0
174 197 0
173 197 0
174 198 0
173 197 0
174 198 0
174 198 0
175 198 0
175 198 0
174 198 0
173 197 0
174 197 0
174 197 0
174 197 0
175 198 0
174 197 0
172 196 0
175 198 0
174 198 0
175 198 0
173 197 0
175 198 0
173 197 0
173 197 0
173 197 0
176 199 0
173 197 0
175 198 0
175 198 0
173 197 0
173 197 0
174 198 0
174 198 0
175 198 0
174 198 0
175 198 0
176 199 0
174 197 0
174 198 0
175 198 0
175 198 0
175 198 0
175 198 0
175 198 0
175 198 0
174 197 0
174 197 0
175 198 0
175 198 0
174 197 0
174 198 0
175 198 0
174 197 0
174 198 0
173 197 0
174 197 0
175 198 0
173 197 0
175 198 0
173 197 0
175 198 0
172 196 0
174 197 0
173 197 0
175 198 0
174 198 0
173 197 0
173 197 0
174 197 0
173 197 0
173 197 0
175 198 0
174 197 0
174 198 0
174 198 0
174 197 0
173 197 0
174 197 0
174 197 0
174 197 0
172 196 0
174 198 0
174 198 0
173 197 0
173 197 0
174 197 0
173 197 0
174 198 0
173 197 0
174 197 0
171 195 0
173 197 0
173 197 0
176 199 0
175 198 0
175 198 0
173 197 0
173 196 0
174 197 0
172 196 0
174 197 0
172 196 0
173 196 0
175 198 0
173 196 0
171 195 0
175 198 0
172 196 0
173 197 0
173 196 0
171 195 0
173 197 0
174 197 0
172 195 0
171 195 0
175 198 0
172 196 0
175 198 0
172 196 0
173 197 0
174 197 0
173 197 0
172 195 0
173 196 0
173 197 0
173 196 0
171 194 0
173 196 0
173 196 0
172 195 0
173 197 0
172 196 0
173 196 0
173 196 0
174 197 0
173 196 0
175 197 0
173 195 0
175 197 0
174 197 0
176 197 0
174 196 0
173 197 0
174 196 0
173 195 0
172 195 0
176 198 0
175 197 25
173 196 0
174 196 0
172 194 0
174 196 0
172 194 0
171 193 0
173 195 0
168 189 0
172 194 0
172 193 0
170 190 0
163 185 0
171 193 0
166 189 0
165 188 0
171 193 0
162 184 0
162 184 0
162 184 0
167 189 0
165 187 0
162 185 0
165 188 0
169 191 0
167 190 0
167 190 0
167 188 0
168 191 0
166 188 0
164 187 0
168 191 0
163 186 0
164 187 0
161 185 0
166 190 0
167 190 0
170 193 0
162 185 0
173 196 0
166 189 0
166 189 0
168 191 0
166 190 0
168 189 0
166 189 0
167 191 0
168 191 0
169 192 0
172 196 0
166 189 0
169 192 0
165 188 0
167 191 0
166 189 0
169 192 0
169 192 0
167 190 0
169 191 0
172 195 0
167 190 0
169 193 0
169 193 0
173 196 0
172 195 0
171 193 0
170 193 0
171 195 0
169 191 0
170 194 0
170 193 0
173 195 0
172 195 0
167 190 0
172 194 0
172 196 0
171 194 0
173 196 0
170 193 0
172 196 0
171 193 0
173 196 0
171 195 0
172 195 0
173 197 0
173 195 0
173 195 0
173 196 0
174 197 0
173 196 0
173 196 0
174 196 0
173 195 0
170 193 0
173 196 0
174 197 0
173 197 0
173 197 0
171 195 0
171 194 0
172 196 0
174 197 0
171 194 0
172 196 0
173 197 0
172 197 0
173 196 0
173 196 0
172 195 0
173 196 0
174 198 0
173 196 0
173 196 0
172 196 0
172 196 0
170 194 0
174 197 0
174 197 0
172 195 0
172 196 0
174 198 0
175 198 0
174 198 0
174 198 0
174 197 0
174 197 0
174 197 0
171 195 0
174 197 0
175 198 0
173 197 0
175 198 0
174 197 0
174 197 0
175 198 0
174 197 0
175 198 0
174 197 0
174 197 0
174 197 0
173 196 0
172 196 0
174 197 0
175 198 0
175 198 0
175 198 0
174 198 0
175 198 0
174 198 0
176 198 0
173 197 0
174 197 0
172 197 0
174 197 0
174 198 0
174 197 0
175 198 0
174 197 0
175 198 0
175 197 0
174 198 0
174 197 0
175 198 0
173 197 0
175 198 0
176 199 0
174 198 0
174 197 0
175 198 0
173 197 0
174 198 0
174 197 0
174 197 0
173 197 0
174 198 0
173 197 0
175 198 0
176 198 0
174 198 0
175 198 0
176 198 0
174 197 0
175 198 0
176 199 0
175 198 0
174 197 0
174 197 0
175 198 0
176 199 0
173 197 0
173 197 0
175 198 0
174 198 0
175 198 0
173 196 0
174 197 0
175 198 0
173 196 0
174 198 0
174 198 0
173 197 0
176 198 0
175 198 0
175 198 0
173 197 0
174 197 0
175 198 0
174 198 0
175 198 0
175 198 0
175 198 0
174 197 0
174 197 0
174 198 0
173 197 0
173 197 0
174 198 0
173 197 0
175 198 0
174 198 0
173 197 0
176 199 0
174 197 0
173 197 0
175 198 0
174 198 0
174 198 0
173 197 0
174 198 0
175 198 0
175 198 0
175 198 0
173 197 0
174 197 0
174 198 0
176 199 0
173 197 0
173 197 0
175 198 0
173 197 0
175 198 0
174 198 0
173 197 0
174 198 0
174 198 0
176 198 0
174 198 0
175 198 0
173 197 0
176 199 0
174 198 0
174 198 0
174 198 0
174 198 0
175 198 0
174 198 0
175 198 0
174 198 0
174 198 0
173 197 0
174 198 0
175 198 0
175 198 0
174 198 0
175 198 0
175 198 0
174 197 0
175 198 0
176 198 0
174 198 0
175 198 0
174 197 0
176 199 0
174 198 0
174 198 0
176 198 0
175 198 0
176 198 0
174 197 0
174 197 0
174 198 0
173 197 0
175 198 0
175 198 0
173 196 0
174 198 0
174 198 0
173 197 0
174 198 0
173 197 0
173 196 0
174 198 0
174 198 0
175 198 0
172 197 0
174 197 0
174 198 0
174 198 0
176 199 0
173 197 0
172 196 0
174 198 0
175 198 0
174 198 0
174 197 0
174 197 0
172 196 0
174 198 0
174 198 0
176 199 0
174 198 0
174 198 0
174 198 0
174 197 0
174 197 0
173 197 0
175 198 0
174 197 0
174 198 0
175 198 0
174 198 0
171 195 0
173 197 0
172 196 0
174 197 0
174 196 0
175 198 0
174 198 0
175 198 0
175 198 0
174 197 0
173 197 0
175 198 0
174 197 0
173 197 0
175 198 0
175 198 0
173 197 0
175 198 0
172 196 0
173 196 0
174 198 0
174 197 0
174 197 0
174 197 0
171 196 0
174 197 0
173 197 0
174 198 0
176 199 0
174 197 0
173 196 0
172 196 0
174 198 0
173 197 0
172 196 0
172 195 0
172 196 0
172 195 0
172 196 0
173 197 0
174 197 0
174 197 0
171 196 0
174 197 0
173 197 0
174 197 0
174 197 0
174 197 0
174 198 0
174 197 0
175 198 0
175 198 0
172 196 0
172 196 0
170 194 0
173 197 0
173 196 0
173 196 0
173 197 0
174 197 0
173 197 0
173 195 0
173 196 0
174 197 0
172 195 0
173 196 0
176 198 0
173 197 0
175 197 0
175 197 0
172 194 0
172 194 0
176 197 0
175 197 0
170 193 0
172 195 0
171 192 0
172 194 0
176 197 0
171 193 0
175 197 0
176 197 0
174 196 0
173 194 0
172 194 0
171 193 0
172 194 0
176 196 0
173 194 0
171 192 0
168 190 0
172 193 0
167 189 0
168 190 0
167 189 0
169 191 0
167 189 0
166 189 0
166 189 0
170 193 0
165 188 0
164 186 0
161 183 0
166 189 0
165 188 0
170 193 0
163 186 0
165 187 0
169 191 0
165 187 0
168 192 0
163 186 0
166 189 0
163 186 0
167 190 0
170 193 0
168 191 0
167 190 0
167 189 0
166 188 0
167 189 0
169 192 0
166 190 0
169 192 0
168 191 0
166 189 0
167 191 0
167 191 0
169 191 0
169 193 0
168 192 0
169 193 0
169 192 0
168 191 0
171 194 0
169 192 0
167 190 0
169 193 0
170 193 0
169 192 0
170 192 0
172 196 0
169 193 0
169 192 0
170 193 0
172 195 0
170 194 0
171 194 0
169 192 0
172 194 0
170 192 0
171 194 0
169 193 0
172 196 0
172 196 0
173 196 0
172 193 0
169 192 0
172 195 0
171 195 0
172 195 0
173 196 0
173 196 0
173 195 0
172 195 0
172 196 0
173 197 0
172 194 0
172 195 0
172 195 0
175 198 0
173 196 0
171 195 0
175 198 0
172 196 0
172 195 0
174 197 0
172 195 0
171 195 0
174 197 0
172 195 0
173 196 0
174 197 0
173 196 0
174 197 0
173 195 0
173 197 0
172 196 0
173 197 0
173 197 0
171 195 0
172 196 0
173 196 0
173 196 0
174 197 0
174 197 0
173 196 0
175 198 0
174 197 0
174 197 0
174 197 0
174 197 0
173 196 0
173 197 0
174 198 0
174 197 0
173 197 0
175 198 0
172 196 0
175 197 0
174 198 0
174 197 0
175 197 0
174 197 0
173 197 0
175 198 0
173 197 0
174 198 0
173 197 0
174 198 0
174 197 0
174 197 0
173 196 0
175 198 0
174 197 0
174 198 0
173 196 0
175 198 0
174 197 0
174 197 0
175 198 0
175 198 0
173 197 0
174 197 0
173 196 0
173 197 0
174 197 0
174 197 0
175 198 0
174 198 0
174 197 0
176 199 0
175 198 0
174 197 0
173 197 0
175 198 0
173 197 0
174 197 0
175 198 0
175 198 0
174 197 0
173 197 0
175 198 0
176 198 0
173 197 0
174 198 0
176 198 0
175 198 0
175 198 0
175 198 0
176 199 0
174 197 0
174 197 0
175 198 0
175 197 0
177 199 0
173 196 0
174 197 0
178 200 0
175 198 0
175 198 0
172 197 0
175 198 0
173 197 0
174 197 0
175 198 0
174 197 0
176 199 0
175 198 0
173 197 0
175 198 0
174 198 0
173 197 0
174 198 0
174 197 0
175 198 0
174 198 0
175 198 0
172 197 0
174 198 0
175 198 0
176 199 0
174 197 0
175 198 0
175 198 0
174 198 0
174 198 0
174 197 0
173 197 0
176 199 0
174 198 0
176 199 0
174 198 0
173 197 0
174 197 0
175 198 0
174 198 0
173 197 0
175 198 0
175 198 0
175 198 0
174 197 0
175 198 0
176 199 0
175 198 0
173 197 0
175 198 0
175 198 0
175 198 0
175 198 0
174 198 0
175 198 0
174 198 0
174 198 0
175 198 0
172 196 0
174 197 0
176 198 0
175 198 0
174 198 0
173 197 0
175 198 0
176 199 0
174 198 0
175 198 0
173 197 0
175 198 0
175 198 0
174 198 0
174 198 0
175 198 0
174 198 0
175 198 0
173 197 0
174 197 0
173 197 0
174 197 0
174 197 0
175 198 0
173 197 0
175 198 0
174 198 0
175 198 0
173 197 0
176 198 0
174 198 0
173 197 0
174 197 0
174 198 0
173 196 0
173 197 0
173 197 0
175 198 0
175 198 0
174 197 0
175 198 0
175 198 0
174 198 0
172 196 0
173 197 0
175 198 0
176 198 0
173 197 0
173 197 0
173 197 0
174 198 0
173 197 0
173 197 0
173 197 0
176 199 0
175 198 0
175 198 0
173 196 0
176 199 0
175 198 0
175 198 0
176 198 0
174 197 0
175 198 0
175 198 0
173 197 0
175 198 0
172 196 0
174 197 0
171 196 0
173 196 0
171 195 0
174 198 0
173 196 0
175 198 0
175 198 0
175 198 0
176 198 0
175 198 0
173 197 0
176 199 0
175 198 0
174 198 0
174 197 0
173 197 0
172 196 0
174 197 0
171 195 0
174 198 0
173 197 0
173 197 0
172 196 0
174 198 0
174 197 0
174 197 0
174 197 0
174 197 0
174 197 0
175 198 0
175 198 0
174 197 0
173 197 0
173 197 0
174 198 0
173 197 0
172 196 0
171 195 0
174 197 0
174 198 0
173 197 0
174 198 0
173 197 0
173 197 0
173 197 0
172 196 0
172 196 0
174 197 0
175 198 0
174 197 0
173 196 0
174 197 0
172 196 0
171 195 0
173 197 0
173 197 0
170 194 0
171 194 0
171 195 0
171 196 0
172 196 0
172 196 0
170 194 0
169 193 0
172 196 0
173 196 0
171 195 0
174 197 0
174 197 0
173 196 0
172 196 0
174 198 0
172 195 0
173 196 0
171 194 0
171 193 0
173 195 0
172 194 0
174 197 0
171 194 0
173 196 0
173 195 0
170 192 0
173 195 0
175 196 0
172 194 0
171 192 0
175 197 0
173 195 0
174 195 0
173 195 0
172 194 0
173 194 0
173 194 0
174 195 0
171 193 0
172 194 0
167 189 0
169 191 0
170 192 0
169 191 0
168 191 0
170 191 0
169 191 0
169 191 0
169 191 0
166 189 0
163 186 0
164 187 0
163 185 0
169 192 0
164 186 0
168 191 0
164 187 0
166 189 0
166 189 0
166 189 0
171 194 0
163 186 0
165 188 0
163 186 0
167 190 0
167 190 0
171 194 0
165 189 0
165 188 0
167 191 0
171 194 0
167 189 0
167 190 0
168 191 0
165 188 0
169 193 0
166 190 0
165 188 0
170 193 0
170 194 0
165 188 0
165 187 0
167 190 0
163 187 0
171 195 0
170 193 0
166 189 0
169 192 0
172 195 0
172 194 0
169 193 0
169 193 0
170 192 0
173 196 0
166 189 0
170 194 0
167 190 0
172 194 0
172 194 0
171 194 0
173 196 0
170 193 0
172 196 0
172 195 0
170 194 0
173 196 0
173 197 0
171 195 0
171 195 0
172 195 0
173 196 0
174 197 0
171 194 0
168 191 0
173 197 0
170 193 0
172 196 0
174 196 0
173 197 0
173 196 0
174 197 0
170 194 0
173 195 0
173 196 0
173 197 0
174 197 0
174 197 0
174 197 0
173 197 0
173 196 0
173 197 0
171 195 0
174 196 0
172 194 0
174 197 0
172 195 0
174 196 0
171 194 0
173 196 0
173 197 0
172 196 0
171 194 0
174 198 0
173 196 0
174 198 0
172 196 0
173 196 0
174 198 0
171 196 0
175 198 0
174 197 0
173 196 0
173 196 0
174 198 0
174 198 0
173 197 0
174 197 0
174 198 0
174 198 0
173 197 0
173 196 0
173 197 0
174 197 0
175 198 0
174 197 0
175 198 0
173 197 0
175 198 0
173 197 0
172 196 0
173 196 0
173 197 0
175 198 0
172 196 0
175 197 0
174 198 0
173 196 0
173 197 0
174 197 0
175 198 0
173 197 0
177 199 0
175 198 0
174 198 0
174 198 0
174 197 0
173 197 0
174 197 0
174 198 0
174 198 0
173 197 0
176 199 0
174 197 0
174 197 0
174 197 0
174 197 0
175 198 0
175 198 0
174 198 0
174 198 0
174 198 0
173 197 0
174 197 0
174 197 0
175 198 0
173 196 0
174 198 0
174 197 0
173 197 0
174 198 0
174 198 0
175 198 0
174 197 0
174 198 0
175 198 0
175 198 0
173 197 0
174 197 0
174 197 0
175 198 0
175 198 0
174 198 0
175 198 0
173 197 0
174 197 0
176 198 0
174 197 0
174 198 0
175 198 0
174 198 0
175 198 0
174 198 0
175 198 0
175 198 0
174 198 0
174 197 0
174 198 0
174 198 0
174 198 0
173 197 0
175 198 0
174 198 0
174 197 0
176 199 0
174 198 0
175 198 0
174 198 0
172 197 0
176 198 0
174 197 0
173 197 0
176 198 0
174 197 0
172 196 0
174 197 0
173 197 0
175 198 0
174 198 0
174 198 0
174 197 0
176 199 0
173 197 0
173 197 0
175 198 0
173 197 0
173 197 0
175 198 0
175 198 0
174 198 0
175 198 0
174 197 0
175 198 0
174 197 0
175 198 0
175 198 0
175 198 0
175 198 0
172 196 0
175 198 0
175 198 0
175 198 0
174 197 0
175 198 0
174 198 0
174 198 0
175 198 0
174 198 0
173 197 0
174 198 0
175 198 0
174 198 0
175 198 0
176 199 0
175 198 0
174 198 0
173 197 0
175 198 0
175 198 0
174 198 0
174 197 0
175 198 0
177 199 0
175 198 0
175 198 0
174 198 0
174 198 0
175 198 0
173 197 0
174 198 0
176 199 0
171 196 0
174 198 0
176 199 0
173 197 0
175 198 0
175 198 0
173 197 0
176 198 0
172 196 0
174 198 0
173 197 0
175 198 0
175 198 0
176 198 0
175 198 0
176 199 0
174 198 0
176 199 0
174 198 0
176 199 0
175 198 0
175 198 0
175 198 0
175 198 0
174 198 0
174 198 0
173 197 0
175 198 0
174 197 0
175 198 0
175 198 0
174 197 0
174 197 0
173 197 0
173 197 0
174 198 0
174 198 0
174 198 0
174 198 0
173 197 0
173 197 0
173 197 0
176 198 0
175 198 0
173 197 0
174 198 0
176 198 0
172 196 0
172 196 0
173 197 0
173 197 0
173 197 0
173 197 0
173 197 0
174 198 0
175 198 0
173 197 0
174 198 0
173 196 0
173 196 0
172 197 0
174 198 0
173 197 0
174 197 0
175 198 0
172 196 0
174 197 0
173 197 0
174 198 0
170 194 0
173 197 0
173 196 0
173 197 0
173 196 0
171 195 0
174 198 0
176 199 0
172 195 0
173 196 0
175 198 0
174 197 0
173 196 0
173 197 0
175 198 0
174 197 0
172 195 0
173 196 0
175 198 0
173 196 0
173 197 0
174 197 0
171 195 0
171 195 0
173 197 0
173 197 0
169 193 0
173 197 0
173 196 0
171 195 0
174 197 0
172 195 0
172 195 0
173 195 0
171 194 0
173 196 0
173 195 0
174 197 0
172 196 0
173 196 0
172 195 0
175 196 0
174 196 0
174 196 0
172 195 0
172 195 0
174 196 0
175 197 25
176 198 0
174 196 0
170 193 0
171 192 0
173 195 0
175 197 0
174 195 0
171 193 25
174 197 0
172 193 0
171 193 0
169 191 0
176 197 0
171 193 0
170 192 0
173 195 0
168 191 0
173 195 0
169 192 0
166 189 0
170 193 0
170 192 0
168 191 0
166 188 0
169 192 0
170 192 0
165 188 0
168 192 0
170 192 0
164 187 0
166 191 0
172 194 0
168 191 0
169 192 0
168 191 0
165 189 0
167 190 0
167 191 0
168 192 0
170 194 0
165 188 0
165 189 0
172 196 0
170 194 0
170 194 0
165 188 0
169 193 0
163 186 0
164 187 0
168 192 0
169 192 0
169 192 0
169 192 0
167 190 0
171 194 0
170 194 0
168 191 0
167 190 0
168 190 0
167 191 0
167 190 0
170 192 0
169 192 0
168 192 0
171 194 0
168 190 0
170 193 0
170 192 0
171 194 0
171 194 0
172 195 0
169 192 0
167 190 0
173 196 0
168 192 0
174 196 0
171 194 0
171 195 0
172 195 0
171 193 0
170 193 0
171 194 0
170 192 0
172 196 0
172 196 0
172 195 0
171 194 0
172 195 0
173 196 0
175 198 0
172 195 0
173 196 0
173 197 0
173 196 0
172 196 0
171 195 0
173 197 0
172 196 0
174 197 0
172 196 0
171 195 0
172 196 0
173 197 0
174 197 0
175 198 0
173 197 0
173 196 0
173 196 0
174 197 0
173 197 0
173 196 0
173 196 0
174 197 0
174 198 0
174 197 0
173 197 0
174 197 0
174 197 0
174 197 0
173 197 0
173 195 0
175 198 0
175 197 0
172 195 0
174 196 0
173 197 0
171 196 0
173 197 0
175 198 0
173 197 0
172 195 0
175 198 0
174 197 0
173 196 0
175 198 0
173 196 0
173 197 0
174 198 0
172 196 0
175 197 0
173 197 0
173 197 0
173 197 0
173 196 0
173 197 0
173 197 0
175 198 0
175 197 0
173 197 0
173 197 0
172 196 0
173 197 0
173 197 0
174 198 0
173 197 0
174 198 0
173 197 0
175 198 0
175 198 0
173 197 0
175 198 0
174 198 0
174 198 0
175 198 0
174 198 0
173 197 0
175 198 0
174 197 0
174 197 0
174 198 0
174 197 0
173 197 0
174 198 0
174 198 0
176 198 0
174 197 0
174 197 0
174 198 0
173 197 0
173 197 0
173 197 0
174 198 0
175 198 0
175 198 0
173 197 0
174 197 0
175 198 0
175 198 0
175 198 0
176 199 0
173 197 0
174 198 0
174 198 0
173 197 0
175 198 0
174 198 0
174 198 0
175 198 0
177 198 0
174 198 0
175 198 0
173 197 0
175 198 0
174 198 0
175 198 0
176 198 0
176 198 0
174 198 0
174 197 0
173 197 0
173 197 0
175 198 0
175 198 0
173 197 0
175 198 0
174 198 0
176 199 0
174 198 0
174 197 0
175 198 0
174 197 0
173 197 0
174 198 0
173 197 0
175 198 0
175 198 0
175 198 0
173 197 0
174 198 0
174 198 0
173 197 0
177 199 0
174 198 0
174 198 0
173 197 0
174 198 0
174 198 0
174 198 0
174 198 0
176 199 0
174 198 0
173 197 0
174 198 0
175 198 0
174 198 0
174 197 0
173 197 0
173 197 0
175 198 0
174 197 0
175 198 0
175 198 0
174 198 0
171 196 0
174 198 0
174 198 0
176 198 0
175 198 0
173 197 0
174 197 0
174 197 0
174 198 0
176 199 0
173 197 0
177 199 0
175 198 0
175 198 0
174 198 0
174 197 0
174 198 0
175 198 0
175 198 0
176 198 0
175 198 0
174 197 0
173 197 0
175 198 0
174 197 0
175 198 0
173 197 0
175 198 0
174 198 0
174 197 0
174 198 0
174 198 0
175 198 0
175 198 0
173 197 0
174 198 0
176 199 0
176 198 0
174 197 0
175 198 0
175 198 0
173 197 0
173 197 0
175 198 0
174 198 0
176 199 0
175 198 0
176 199 0
174 198 0
174 197 0
173 197 0
174 197 0
175 198 0
174 197 0
174 198 0
174 198 0
174 198 0
174 198 0
174 198 0
174 198 0
174 197 0
175 198 0
173 197 0
175 198 0
176 199 0
173 197 0
175 198 0
172 196 0
174 198 0
177 199 0
174 198 0
176 199 0
173 197 0
175 198 0
174 198 0
174 198 0
173 197 0
173 197 0
173 197 0
173 196 0
174 197 0
172 196 0
175 198 0
173 197 0
173 197 0
173 197 0
173 197 0
172 196 0
175 198 0
173 197 0
175 198 0
174 197 0
174 198 0
174 198 0
175 198 0
173 197 0
174 198 0
174 197 0
173 197 0
173 197 0
171 195 0
174 197 0
172 195 0
173 196 0
173 197 0
175 198 0
173 197 0
171 195 0
174 197 0
173 196 0
173 197 0
174 198 0
173 196 0
173 196 0
172 196 0
172 196 0
174 197 0
175 198 0
172 196 0
171 195 0
173 197 0
173 197 0
172 195 0
175 198 0
171 195 0
172 195 0
175 198 0
172 196 0
172 195 0
173 197 0
173 196 0
172 195 0
173 195 0
171 194 0
174 196 0
170 193 0
172 196 0
172 195 0
172 195 0
175 197 0
173 197 0
170 193 0
173 195 0
173 195 0
172 194 0
172 195 0
171 193 0
175 197 0
174 195 0
168 190 0
175 196 0
173 195 0
172 193 0
173 195 0
172 193 0
172 194 0
171 193 0
173 196 0
170 193 0
171 192 0
168 191 0
171 194 0
169 192 0
170 192 0
168 190 0
171 193 0
167 189 0
169 192 0
166 189 0
162 186 0
164 187 0
171 193 0
164 188 0
164 188 0
168 192 0
169 193 0
168 190 0
170 194 0
170 193 0
168 191 0
170 194 0
169 193 0
167 189 0
165 188 0
168 191 0
169 192 0
166 190 0
168 190 0
173 196 0
170 193 0
166 189 0
168 190 0
164 187 0
169 192 0
169 192 0
171 195 0
169 192 0
172 195 0
167 191 0
172 196 0
169 192 0
169 193 0
168 190 0
175 198 0
171 195 0
169 193 0
168 191 0
168 192 0
171 195 0
171 194 0
173 196 0
169 192 0
171 195 0
170 192 0
171 193 0
170 194 0
171 194 0
171 195 0
172 195 0
169 192 0
174 197 0
172 195 0
173 195 0
171 195 0
169 192 0
170 194 0
172 196 0
172 195 0
171 193 0
171 193 0
173 195 0
172 195 0
174 197 0
173 196 0
173 196 0
172 196 0
170 194 0
172 195 0
175 198 0
175 197 0
175 197 0
176 199 0
173 196 0
174 197 0
172 195 0
174 196 0
172 196 0
174 197 0
174 197 0
171 194 0
173 196 0
171 194 0
172 196 0
176 198 0
174 197 0
174 197 0
173 197 0
173 197 0
174 197 0
173 196 0
172 196 0
172 196 0
173 196 0
174 197 0
174 197 0
174 197 0
172 196 0
173 197 0
174 198 0
173 197 0
173 196 0
173 196 0
173 196 0
175 198 0
175 198 0
174 197 0
173 197 0
174 197 0
173 197 0
173 196 0
174 198 0
173 197 0
173 196 0
174 197 0
173 196 0
173 197 0
174 196 0
174 198 0
175 198 0
174 197 0
175 197 0
176 198 0
176 198 0
175 198 0
172 196 0
173 197 0
176 198 0
174 197 0
172 195 0
175 197 0
176 198 0
175 198 0
174 197 0
174 197 0
173 197 0
174 197 0
173 197 0
177 199 0
174 197 0
170 195 0
175 198 0
175 198 0
172 197 0
173 197 0
174 198 0
174 198 0
173 197 0
175 198 0
175 198 0
174 197 0
174 197 0
175 198 0
175 198 0
174 197 0
174 198 0
174 197 0
175 197 0
174 197 0
175 198 0
176 199 0
175 198 0
175 197 0
174 198 0
175 198 0
175 198 0
173 197 0
176 198 0
174 198 0
174 197 0
174 198 0
174 198 0
174 198 0
175 198 0
174 198 0
175 198 0
175 198 0
173 196 0
175 197 0
175 198 0
174 197 0
175 198 0
174 197 0
174 198 0
175 198 0
174 198 0
174 197 0
174 198 0
173 197 0
176 199 0
174 197 0
174 198 0
176 199 0
174 197 0
174 198 0
176 198 0
174 198 0
176 199 0
174 198 0
173 197 0
174 198 0
175 198 0
176 199 0
173 197 0
175 198 0
175 198 0
175 198 0
175 198 0
176 199 0
176 198 0
173 197 0
175 198 0
171 196 0
173 197 0
173 197 0
174 198 0
175 198 0
175 198 0
174 198 0
175 198 0
175 198 0
174 198 0
176 199 0
173 197 0
175 198 0
173 197 0
176 198 0
174 198 0
174 198 0
176 199 0
175 198 0
174 197 0
174 198 0
175 198 0
174 197 0
175 198 0
174 198 0
173 197 0
174 198 0
173 197 0
175 198 0
174 198 0
176 199 0
174 197 0
176 199 0
174 197 0
173 197 0
175 198 0
174 198 0
173 197 0
175 198 0
173 197 0
172 196 0
173 197 0
175 198 0
174 197 0
173 197 0
173 197 0
174 198 0
172 197 0
174 198 0
173 197 0
174 198 0
175 198 0
175 198 0
175 198 0
176 199 0
174 198 0
175 198 0
174 198 0
174 198 0
175 198 0
174 198 0
173 197 0
173 197 0
173 196 0
175 198 0
175 198 0
175 198 0
176 199 0
175 198 0
175 198 0
173 197 0
175 198 0
175 198 0
174 198 0
174 198 0
174 197 0
173 197 0
175 198 0
174 198 0
175 198 0
174 198 0
174 197 0
174 197 0
174 197 0
173 197 0
175 198 0
176 199 0
173 197 0
175 198 0
174 198 0
172 197 0
170 195 0
175 198 0
174 198 0
175 198 0
174 198 0
175 198 0
175 198 0
175 198 0
173 197 0
174 197 0
173 197 0
173 197 0
173 197 0
174 198 0
175 198 0
175 198 0
174 197 0
173 197 0
173 197 0
174 197 0
173 197 0
174 198 0
173 197 0
172 196 0
174 197 0
173 197 0
174 198 0
174 197 0
174 197 0
173 197 0
171 194 0
172 195 0
174 197 0
171 195 0
175 198 0
172 196 0
173 197 0
174 198 0
173 196 0
172 195 0
175 197 0
174 198 0
174 198 0
171 194 0
173 197 0
175 198 0
172 196 0
173 196 0
175 198 0
175 198 0
169 193 0
172 196 0
172 195 0
173 196 0
173 196 0
171 194 0
173 197 0
175 197 0
172 195 0
174 197 0
174 197 0
174 197 0
170 194 0
174 197 0
172 195 0
175 198 0
172 195 0
173 197 0
173 196 0
173 196 0
171 194 0
175 196 0
174 197 0
176 198 0
171 194 0
173 195 0
172 194 0
176 198 0
171 193 0
170 193 0
173 194 0
171 193 0
174 195 0
173 195 0
173 194 0
173 194 0
172 194 0
170 193 0
167 189 0
170 193 0
168 191 0
175 196 0
172 195 0
172 195 0
168 191 0
170 193 0
169 192 0
165 188 0
167 190 0
167 190 0
168 191 0
170 193 0
169 192 0
171 193 0
168 192 0
170 193 0
165 188 0
164 188 0
170 193 0
167 191 0
169 193 0
166 190 0
165 189 0
169 193 0
172 195 0
169 192 0
168 191 0
166 189 0
169 193 0
165 188 0
168 191 0
172 196 0
167 190 0
166 190 0
170 194 0
172 194 0
171 195 0
167 190 0
170 193 0
168 191 0
170 193 0
169 193 0
170 193 0
169 191 0
173 196 0
171 194 0
172 195 0
166 189 0
172 196 0
169 193 0
172 196 0
173 197 0
171 195 0
168 190 0
164 188 0
171 194 0
171 193 0
171 193 0
170 193 0
173 196 0
172 194 0
173 196 0
171 195 0
170 193 0
170 194 0
171 194 0
170 193 0
172 196 0
171 195 0
170 193 0
171 194 0
174 197 0
174 196 0
171 194 0
173 197 0
174 197 0
174 197 0
175 198 0
174 197 0
175 198 0
174 197 0
171 194 0
171 194 0
171 195 0
172 196 0
171 194 0
173 196 0
173 196 0
174 197 0
172 195 0
173 197 0
174 197 0
169 192 0
172 196 0
174 197 0
174 197 0
173 197 0
173 196 0
175 197 0
172 196 0
172 196 0
174 198 0
174 196 0
174 197 0
175 197 0
173 196 0
173 197 0
172 195 0
172 196 0
172 196 0
174 198 0
175 198 0
175 198 0
175 198 0
172 196 0
173 196 0
175 197 0
174 198 0
172 196 0
175 198 0
172 196 0
173 196 0
174 198 0
175 198 0
173 196 0
173 197 0
173 197 0
174 197 0
174 198 0
174 197 0
174 197 0
174 197 0
175 198 0
174 198 0
173 196 0
174 197 0
175 197 0
175 197 0
174 197 0
174 197 0
175 197 0
176 199 0
174 197 0
175 198 0
174 197 0
174 198 0
173 196 0
175 198 0
174 198 0
174 198 0
173 197 0
172 196 0
174 197 0
174 198 0
174 198 0
173 197 0
173 197 0
176 198 0
173 197 0
176 198 0
174 198 0
173 197 0
176 198 0
174 198 0
175 198 0
174 198 0
175 198 0
175 198 0
174 198 0
173 197 0
176 199 0
174 198 0
175 198 0
172 197 0
174 198 0
175 198 0
175 198 0
175 198 0
174 197 0
174 198 0
173 197 0
172 197 0
175 198 0
175 198 0
175 198 0
174 197 0
174 198 0
176 198 0
174 198 0
175 198 0
174 197 0
174 198 0
176 198 0
174 198 0
173 197 0
176 199 0
174 198 0
174 197 0
175 198 0
175 198 0
175 198 0
173 197 0
175 198 0
174 197 0
174 198 0
173 197 0
174 197 0
174 197 0
174 197 0
173 197 0
175 198 0
175 198 0
175 198 0
174 198 0
173 197 0
174 197 0
174 198 0
172 196 0
175 198 0
173 197 0
175 198 0
174 198 0
176 198 0
176 199 0
175 198 0
173 197 0
175 198 0
175 198 0
174 197 0
174 198 0
175 198 0
175 198 0
173 197 0
176 199 0
175 198 0
175 198 0
174 198 0
175 198 0
174 197 0
174 198 0
175 198 0
174 197 0
173 197 0
174 197 0
174 198 0
175 198 0
174 198 0
173 197 0
175 198 0
174 197 0
174 198 0
174 198 0
176 199 0
174 198 0
175 198 0
175 198 0
175 198 0
174 198 0
174 197 0
172 196 0
174 198 0
175 198 0
175 198 0
175 198 0
175 198 0
174 197 0
173 197 0
173 197 0
174 197 0
175 198 0
173 197 0
175 198 0
175 198 0
173 196 0
173 197 0
174 198 0
175 198 0
173 197 0
176 199 0
173 197 0
174 197 0
173 197 0
174 197 0
174 197 0
173 197 0
175 198 0
172 197 0
176 198 0
174 198 0
174 197 0
176 198 0
176 198 0
175 198 0
174 197 0
175 198 0
175 197 0
174 198 0
175 198 0
173 197 0
173 197 0
175 198 0
174 198 0
173 197 0
173 197 0
175 198 0
175 198 0
172 196 0
174 197 0
175 198 0
174 197 0
173 197 0
175 198 0
172 196 0
173 197 0
174 198 0
175 198 0
176 198 0
174 197 0
174 197 0
172 196 0
172 196 0
173 197 0
174 198 0
171 195 0
173 197 0
175 198 0
174 198 0
173 197 0
174 198 0
175 198 0
175 198 0
175 198 0
174 197 0
173 196 0
174 198 0
173 197 0
173 197 0
172 196 0
171 195 0
171 195 0
173 197 0
172 196 0
177 199 0
174 197 0
175 198 0
174 198 0
173 196 0
172 196 0
173 196 0
171 196 0
171 195 0
173 197 0
175 198 0
174 197 0
175 198 0
174 197 0
174 197 0
173 196 0
173 196 0
175 197 0
175 198 0
174 197 0
171 195 0
173 196 0
175 198 0
173 197 0
174 197 0
173 196 0
173 196 0
172 195 0
172 195 0
172 195 0
174 196 0
176 198 0
172 195 0
172 195 0
173 195 0
172 194 0
173 196 0
172 195 0
174 197 0
174 196 0
175 198 0
173 196 0
173 195 0
175 197 0
176 198 0
175 198 0
171 193 0
173 194 0
170 193 0
173 195 0
173 195 0
174 196 0
172 193 0
171 194 0
175 196 0
173 195 0
172 194 0
173 196 0
171 194 0
170 193 0
173 195 0
169 193 0
170 193 0
170 193 0
167 190 0
169 192 0
165 188 0
167 189 0
167 190 0
167 190 0
169 193 0
170 192 0
168 192 0
168 191 0
167 190 0
168 191 0
165 189 0
165 189 0
168 190 0
171 195 0
164 188 0
170 193 0
167 191 0
165 188 0
168 191 0
172 195 0
167 191 0
169 192 0
169 193 0
171 194 0
165 187 0
169 193 0
166 189 0
168 192 0
170 194 0
170 193 0
170 193 0
169 193 0
171 194 0
171 194 0
171 194 0
168 190 0
168 191 0
171 194 0
171 194 0
172 194 0
170 193 0
173 195 0
170 193 0
173 197 0
172 196 0
171 195 0
171 194 0
169 192 0
171 194 0
170 192 0
170 193 0
169 192 0
172 196 0
170 195 0
172 196 0
169 192 0
169 192 0
172 195 0
173 196 0
172 195 0
174 198 0
170 194 0
173 197 0
172 195 0
173 196 0
171 194 0
173 196 0
171 195 0
173 196 0
173 196 0
173 196 0
173 196 0
172 196 0
174 198 0
174 197 0
172 196 0
172 196 0
174 197 0
172 196 0
175 198 0
172 195 0
172 195 0
176 198 0
172 195 0
174 198 0
175 198 0
175 198 0
174 197 0
173 196 0
172 196 0
174 198 0
173 197 0
173 197 0
173 197 0
174 197 0
175 198 0
175 198 0
172 196 0
174 197 0
175 198 0
175 198 0
172 195 0
173 195 0
174 198 0
175 197 0
172 196 0
176 198 0
175 197 0
174 197 0
174 198 0
176 198 0
173 197 0
171 194 0
173 197 0
174 197 0
174 197 0
173 197 0
172 195 0
173 197 0
173 197 0
176 198 0
172 196 0
172 196 0
172 196 0
173 197 0
173 197 0
174 197 0
173 196 0
174 197 0
175 198 0
174 197 0
173 197 0
173 196 0
175 198 0
173 197 0
174 198 0
175 198 0
176 199 0
173 197 0
173 196 0
173 197 0
176 198 0
173 197 0
174 197 0
174 197 0
175 198 0
174 198 0
174 197 0
173 197 0
174 198 0
173 197 0
174 198 0
173 197 0
175 198 0
175 198 0
174 198 0
173 197 0
176 198 0
174 198 0
174 198 0
174 197 0
174 198 0
175 198 0
173 197 0
175 198 0
173 196 0
174 198 0
175 198 0
173 197 0
175 198 0
172 197 0
173 197 0
174 198 0
174 198 0
175 198 0
173 197 0
174 198 0
174 198 0
175 198 0
174 197 0
174 197 0
174 198 0
174 198 0
174 197 0
175 198 0
175 198 0
174 197 0
173 197 0
174 197 0
174 198 0
174 197 0
175 198 0
175 198 0
174 198 0
175 198 0
176 198 0
175 198 0
174 198 0
175 198 0
174 197 0
174 197 0
172 197 0
174 197 0
173 196 0
175 198 0
174 197 0
173 197 0
172 196 0
174 198 0
174 198 0
173 197 0
174 198 0
174 198 0
175 198 0
176 198 0
174 197 0
175 198 0
173 197 0
173 197 0
175 198 0
175 198 0
174 198 0
175 198 0
175 198 0
176 199 0
176 198 0
175 198 0
173 197 0
175 198 0
177 199 0
173 197 0
174 198 0
175 198 0
175 198 0
176 199 0
173 197 0
175 198 0
175 198 0
175 198 0
175 198 0
174 198 0
176 199 0
174 197 0
175 198 0
175 198 0
173 197 0
172 197 0
175 198 0
174 197 0
174 197 0
175 198 0
175 198 0
172 197 0
174 198 0
174 198 0
174 197 0
176 198 0
173 197 0
175 198 0
172 196 0
175 198 0
175 198 0
175 198 0
175 198 0
176 199 0
175 198 0
175 198 0
175 198 0
174 197 0
173 197 0
173 197 0
173 197 0
175 198 0
174 198 0
173 197 0
173 197 0
174 198 0
174 197 0
176 199 0
173 197 0
173 197 0
174 197 0
173 197 0
175 198 0
173 197 0
174 197 0
174 197 0
174 198 0
173 197 0
173 197 0
174 198 0
173 197 0
174 197 0
175 198 0
175 198 0
175 198 0
173 197 0
175 198 0
173 197 0
174 198 0
174 198 0
172 196 0
174 197 0
173 197 0
175 198 0
175 198 0
175 198 0
173 197 0
175 198 0
175 198 0
174 198 0
175 198 0
175 198 0
175 198 0
174 197 0
174 198 0
174 198 0
173 197 0
174 197 0
172 196 0
176 198 0
175 198 0
174 197 0
173 196 0
172 196 0
174 197 0
175 198 0
172 196 0
175 198 0
174 198 0
173 197 0
173 197 0
173 196 0
173 197 0
175 198 0
175 198 0
173 197 0
175 198 0
173 196 0
174 197 0
175 198 0
174 197 0
172 196 0
174 197 0
174 198 0
171 195 0
174 197 0
172 196 0
173 197 0
173 197 0
176 199 0
173 197 0
175 198 0
173 197 0
174 197 0
174 197 0
172 195 0
173 197 0
171 195 0
173 196 0
173 196 0
174 198 0
174 197 0
173 196 0
175 198 0
169 192 0
171 195 0
176 199 0
175 197 0
171 194 0
171 194 0
172 195 0
173 196 0
171 194 0
172 194 0
172 195 0
173 196 0
175 197 0
171 194 0
171 194 0
174 196 0
168 190 0
174 197 0
175 197 0
175 197 0
173 195 0
171 194 0
175 196 0
172 194 0
170 193 0
172 195 0
170 193 0
172 195 0
174 196 0
168 191 0
170 193 0
170 192 0
173 196 0
167 190 0
168 191 0
166 189 0
168 191 0
168 192 0
168 191 0
172 196 0
170 193 0
167 190 0
171 193 0
167 190 0
167 190 0
171 193 0
170 193 0
169 193 0
171 194 0
166 190 0
172 196 0
171 194 0
172 195 0
170 193 0
167 191 0
163 186 0
169 192 0
169 193 0
171 194 0
171 195 0
171 195 0
170 194 0
168 191 0
171 195 0
172 196 0
169 192 0
170 194 0
169 191 0
169 193 0
171 195 0
171 194 0
172 194 0
170 193 0
171 195 0
168 191 0
171 194 0
171 193 0
172 195 0
170 193 0
171 194 0
168 191 0
170 193 0
170 194 0
171 193 0
172 195 0
171 195 0
169 192 0
170 194 0
170 194 0
172 195 0
171 195 0
173 196 0
169 192 0
173 196 0
173 196 0
168 191 0
172 195 0
174 197 0
170 193 0
173 196 0
173 196 0
173 196 0
173 196 0
173 195 0
171 195 0
172 196 0
174 197 0
173 197 0
172 195 0
173 196 0
174 198 0
174 197 0
172 195 0
172 196 0
172 195 0
174 197 0
172 195 0
175 197 0
173 197 0
174 198 0
174 197 0
173 197 0
173 196 0
173 197 0
171 194 0
174 197 0
174 196 0
173 197 0
175 196 0
172 196 0
172 196 0
173 196 0
172 195 0
175 198 0
175 198 0
174 198 0
172 195 0
176 198 0
173 196 0
176 198 0
173 196 0
173 196 0
175 198 0
174 198 0
174 197 0
176 199 0
171 195 0
173 196 0
175 198 0
173 196 0
171 195 0
174 198 0
174 197 0
173 197 0
175 198 0
174 197 0
173 197 0
173 197 0
173 197 0
172 196 0
174 197 0
173 197 0
174 197 0
175 198 0
174 197 0
173 197 0
174 198 0
174 197 0
174 198 0
174 198 0
174 198 0
174 197 0
174 197 0
174 197 0
174 198 0
174 198 0
175 198 0
173 197 0
174 198 0
174 198 0
173 197 0
175 198 0
174 198 0
174 198 0
173 197 0
173 197 0
174 197 0
174 198 0
174 198 0
174 198 0
173 196 0
175 198 0
174 198 0
175 198 0
174 198 0
173 197 0
175 198 0
174 197 0
175 198 0
173 197 0
174 198 0
175 198 0
175 198 0
173 197 0
175 198 0
176 199 0
173 197 0
174 198 0
173 197 0
176 199 0
173 197 0
174 198 0
174 197 0
175 198 0
175 198 0
174 198 0
174 197 0
175 198 0
174 197 0
174 197 0
175 198 0
174 197 0
175 198 0
175 198 0
173 197 0
174 198 0
175 198 0
174 197 0
175 198 0
175 198 0
175 198 0
174 198 0
175 198 0
174 198 0
174 198 0
174 197 0
175 198 0
174 197 0
174 198 0
174 198 0
174 198 0
174 198 0
175 198 0
175 198 0
175 198 0
175 198 0
175 198 0
175 198 0
175 198 0
174 197 0
174 198 0
174 197 0
175 198 0
173 197 0
174 197 0
175 198 0
175 198 0
174 198 0
174 197 0
173 197 0
175 198 0
172 196 0
175 198 0
176 199 0
175 198 0
173 197 0
173 197 0
174 197 0
173 197 0
173 197 0
174 198 0
174 198 0
175 198 0
173 197 0
175 198 0
175 198 0
175 198 0
174 198 0
174 198 0
175 198 0
173 197 0
175 198 0
174 198 0
174 198 0
175 198 0
174 197 0
175 198 0
176 199 0
174 198 0
174 197 0
174 198 0
174 197 0
173 197 0
174 197 0
174 197 0
175 198 0
176 199 0
175 198 0
173 197 0
174 197 0
174 197 0
174 198 0
175 198 0
174 198 0
174 198 0
175 198 0
175 198 0
175 198 0
175 198 0
174 197 0
173 196 0
175 198 0
174 197 0
174 197 0
175 198 0
175 198 0
174 198 0
174 198 0
173 197 0
172 197 0
174 198 0
173 197 0
174 197 0
174 198 0
176 199 0
175 198 0
173 196 0
172 196 0
173 197 0
174 197 0
176 199 0
173 197 0
175 198 0
175 198 0
175 198 0
176 199 0
174 197 0
173 197 0
174 197 0
173 197 0
173 197 0
173 197 0
173 197 0
174 198 0
171 195 0
173 197 0
175 198 0
172 196 0
175 198 0
174 197 0
175 198 0
174 198 0
175 198 0
172 197 0
174 198 0
173 196 0
172 195 0
175 198 0
172 196 0
172 196 0
173 197 0
172 196 0
174 197 0
174 198 0
174 198 0
175 198 0
175 197 0
174 198 0
174 197 0
175 198 0
174 197 0
173 197 0
172 195 0
172 195 0
173 196 0
174 198 0
175 197 0
174 197 0
175 198 0
174 198 0
174 198 0
174 197 0
172 196 0
173 196 0
173 197 0
172 196 0
175 197 0
173 197 0
171 195 0
171 195 0
171 195 0
173 197 0
172 196 0
173 196 0
169 193 0
174 196 0
174 197 0
169 192 0
172 196 0
171 195 0
170 194 0
171 194 0
170 194 0
174 197 0
173 197 0
174 196 0
171 194 0
175 198 0
170 194 0
174 196 0
176 198 0
172 195 0
172 194 0
171 194 0
172 196 0
170 194 0
172 194 0
174 197 0
169 192 0
173 196 0
175 197 0
171 193 0
172 195 0
168 190 0
169 191 0
171 193 0
173 196 0
171 193 0
167 190 0
170 193 0
168 192 0
167 190 0
171 194 0
171 194 0
167 190 0
169 192 0
170 192 0
172 195 0
169 191 0
169 193 0
173 196 0
168 192 0
168 191 0
168 191 0
168 192 0
171 194 0
169 193 0
168 192 0
168 192 0
173 195 0
172 194 0
169 192 0
171 195 0
174 196 0
170 193 0
169 193 0
169 191 0
167 190 0
167 191 0
171 195 0
173 195 0
172 195 0
170 193 0
170 193 0
167 191 0
169 193 0
171 195 0
168 192 0
170 192 0
172 194 0
170 193 0
172 196 0
170 194 0
170 193 0
173 195 0
170 193 0
171 194 0
172 196 0
171 194 0
172 195 0
172 196 0
172 195 0
170 193 0
172 196 0
171 194 0
171 195 0
170 192 0
174 197 0
171 194 0
171 194 0
171 195 0
173 196 0
175 198 0
172 196 0
171 194 0
173 196 0
170 193 0
172 194 0
173 196 0
169 192 0
175 198 0
174 197 0
172 195 0
175 198 0
175 198 0
174 197 0
172 194 0
172 195 0
174 197 0
174 198 0
172 196 0
173 195 0
171 195 0
172 196 0
175 198 0
175 197 0
171 195 0
172 195 0
174 197 0
173 196 0
174 197 0
173 197 0
175 197 0
175 198 0
172 195 0
173 197 0
174 196 0
175 198 0
173 197 0
173 196 0
174 197 0
175 198 0
174 197 0
174 197 0
173 197 0
171 195 0
174 197 0
173 196 0
173 197 0
173 197 0
174 198 0
175 198 0
173 197 0
173 197 0
174 197 0
174 197 0
173 197 0
173 196 0
174 197 0
174 198 0
172 196 0
175 198 0
174 198 0
175 198 0
174 197 0
173 197 0
173 197 0
172 196 0
176 199 0
174 197 0
173 196 0
173 197 0
172 196 0
174 197 0
176 199 0
174 198 0
175 198 0
176 199 0
172 196 0
172 196 0
174 197 0
172 196 0
174 197 0
173 197 0
172 196 0
172 196 0
174 197 0
174 197 0
173 197 0
173 197 0
176 199 0
175 198 0
174 197 0
174 197 0
175 198 0
175 198 0
174 198 0
175 198 0
172 196 0
173 197 0
176 199 0
176 198 0
172 196 0
174 197 0
176 199 0
173 197 0
175 198 0
175 198 0
174 198 0
174 198 0
173 197 0
172 196 0
173 196 0
173 197 0
174 197 0
174 197 0
174 197 0
175 198 0
174 198 0
173 197 0
173 197 0
174 198 0
176 198 0
174 198 0
174 198 0
175 198 0
173 197 0
174 197 0
175 198 0
173 197 0
175 197 0
174 198 0
175 198 0
175 198 0
174 198 0
175 198 0
173 197 0
176 199 0
175 198 0
175 198 0
175 198 0
174 198 0
174 198 0
176 199 0
176 199 0
174 197 0
173 197 0
175 198 0
174 198 0
174 197 0
175 198 0
175 198 0
174 197 0
174 197 0
176 199 0
175 198 0
174 198 0
175 198 0
174 197 0
173 197 0
175 198 0
174 197 0
175 198 0
175 198 0
174 197 0
176 199 0
173 197 0
174 198 0
175 198 0
174 198 0
173 197 0
173 197 0
174 198 0
175 198 0
175 198 0
173 197 0
175 198 0
174 198 0
175 198 0
175 198 0
174 198 0
174 198 0
172 196 0
175 198 0
175 198 0
174 197 0
176 198 0
175 198 0
174 198 0
175 198 0
174 197 0
176 199 0
173 197 0
174 198 0
174 198 0
174 198 0
174 198 0
173 197 0
176 199 0
175 198 0
176 199 0
175 198 0
173 197 0
173 197 0
175 198 0
174 198 0
173 197 0
174 197 0
176 198 0
174 197 0
176 198 0
174 197 0
174 197 0
175 198 0
174 198 0
175 198 0
174 198 0
176 198 0
174 198 0
175 198 0
173 197 0
175 198 0
174 198 0
174 198 0
174 197 0
174 197 0
175 198 0
175 198 0
172 196 0
175 198 0
174 198 0
172 196 0
174 197 0
173 197 0
174 198 0
175 198 0
173 197 0
173 197 0
175 198 0
174 198 0
174 198 0
175 198 0
173 197 0
174 198 0
175 198 0
173 197 0
175 198 0
174 198 0
175 198 0
173 196 0
173 197 0
175 198 0
173 197 0
174 197 0
174 197 0
173 197 0
172 196 0
173 197 0
175 198 0
174 197 0
174 198 0
176 199 0
174 198 0
174 197 0
173 196 0
172 195 0
172 196 0
173 197 0
173 197 0
175 198 0
173 197 0
173 197 0
173 197 0
173 197 0
174 197 0
175 198 0
172 196 0
172 196 0
173 197 0
171 195 0
174 197 0
174 197 0
174 197 0
171 195 0
173 197 0
173 196 0
172 196 0
174 197 0
171 194 0
173 197 0
171 194 0
172 196 0
172 196 0
175 198 0
172 195 0
172 196 0
173 196 0
173 197 0
173 196 0
175 197 0
173 196 0
172 196 0
173 196 0
173 196 0
172 195 0
171 195 0
172 197 0
176 198 0
174 197 0
173 196 0
172 195 0
172 196 0
172 195 0
174 197 0
169 192 0
171 194 0
172 195 0
171 194 0
174 196 0
174 197 0
176 198 0
173 196 0
173 196 0
172 195 0
173 196 0
169 192 0
174 196 0
172 195 0
171 194 0
172 195 0
173 196 0
174 197 0
174 196 0
171 194 0
168 190 0
170 192 0
171 195 0
173 196 0
170 193 0
165 188 0
171 193 0
170 193 0
170 193 0
167 189 0
167 190 0
171 194 0
168 191 0
169 193 0
166 189 0
173 196 0
172 194 0
166 190 0
172 196 0
173 196 0
170 193 0
171 194 0
168 191 0
166 190 0
167 190 0
170 193 0
168 191 0
168 193 0
164 187 0
168 192 0
172 195 0
166 190 0
170 194 0
172 194 0
171 194 0
173 196 0
172 195 0
171 195 0
168 192 0
173 197 0
168 191 0
170 193 0
169 192 0
168 191 0
170 193 0
171 194 0
172 195 0
169 192 0
170 194 0
174 197 0
170 194 0
170 193 0
174 197 0
175 197 0
171 195 0
169 194 0
170 193 0
175 197 0
170 194 0
169 192 0
175 198 0
172 196 0
173 196 0
172 194 0
174 196 0
170 194 0
173 195 0
173 196 0
171 194 0
173 196 0
172 196 0
172 195 0
171 194 0
174 197 0
171 195 0
172 195 0
172 195 0
171 194 0
172 195 0
173 196 0
171 195 0
172 195 0
174 198 0
169 193 0
171 194 0
174 197 0
173 197 0
172 196 0
170 194 0
171 194 0
166 190 0
174 196 0
174 197 0
173 197 0
171 196 0
173 197 0
174 198 0
173 196 0
173 197 0
174 197 0
175 198 0
172 196 0
174 197 0
174 198 0
173 196 0
173 196 0
175 198 0
173 196 0
174 197 0
174 197 0
176 198 0
173 196 0
175 198 0
174 197 0
175 198 0
173 197 0
176 199 0
174 197 0
173 196 0
174 197 0
173 197 0
174 198 0
172 196 0
175 198 0
176 198 0
175 197 0
174 198 0
172 196 0
175 198 0
176 199 0
173 197 0
175 198 0
174 197 0
174 198 0
174 197 0
173 197 0
173 197 0
175 198 0
175 198 0
176 199 0
173 197 0
175 198 0
173 197 0
174 197 0
175 198 0
174 197 0
175 198 0
175 198 0
174 197 0
173 197 0
175 198 0
175 198 0
174 197 0
175 198 0
176 199 0
172 196 0
173 197 0
174 197 0
174 198 0
175 198 0
174 198 0
173 196 0
175 198 0
173 197 0
174 197 0
175 198 0
174 198 0
175 198 0
174 198 0
175 198 0
172 196 0
174 197 0
174 198 0
174 198 0
173 197 0
175 198 0
173 197 0
173 196 0
173 197 0
175 198 0
173 197 0
173 197 0
173 197 0
176 198 0
174 198 0
174 197 0
175 198 0
175 198 0
174 197 0
173 197 0
174 198 0
175 198 0
175 198 0
176 199 0
174 198 0
174 198 0
175 198 0
175 198 0
174 198 0
174 198 0
175 198 0
177 199 0
173 197 0
175 198 0
174 198 0
174 198 0
177 199 0
174 198 0
173 197 0
176 199 0
175 198 0
174 198 0
173 197 0
174 198 0
176 199 0
176 199 0
174 198 0
174 198 0
174 198 0
175 198 0
175 198 0
175 198 0
173 197 0
174 198 0
175 198 0
175 198 0
174 198 0
174 198 0
174 197 0
175 198 0
176 199 0
173 197 0
175 198 0
173 197 0
174 198 0
174 198 0
175 198 0
174 197 0
174 197 0
176 198 0
175 198 0
175 198 0
174 197 0
175 198 0
174 198 0
175 198 0
172 196 0
173 197 0
173 197 0
173 197 0
174 197 0
174 198 0
174 197 0
173 197 0
175 198 0
174 198 0
175 198 0
174 197 0
174 197 0
174 198 0
174 197 0
176 199 0
176 199 0
174 198 0
173 197 0
173 197 0
176 199 0
174 198 0
175 198 0
174 197 0
175 198 0
177 199 0
174 198 0
174 197 0
174 197 0
175 198 0
174 198 0
174 197 0
174 197 0
174 198 0
174 198 0
175 198 0
174 198 0
174 197 0
174 198 0
173 197 0
174 198 0
173 197 0
175 198 0
175 198 0
174 198 0
174 197 0
174 197 0
175 198 0
175 198 0
175 198 0
175 198 0
173 197 0
173 197 0
172 196 0
175 198 0
174 198 0
174 198 0
174 198 0
173 197 0
174 198 0
173 197 0
175 198 0
174 198 0
173 197 0
174 198 0
174 198 0
173 197 0
174 198 0
173 197 0
171 196 0
175 197 0
174 198 0
174 197 0
173 196 0
173 197 0
173 197 0
175 198 0
174 198 0
174 198 0
174 197 0
174 197 0
175 198 0
173 196 0
174 198 0
174 198 0
174 197 0
172 197 0
175 198 0
174 198 0
174 197 0
174 197 0
173 197 0
172 196 0
172 196 0
171 195 0
175 198 0
174 197 0
173 197 0
173 197 0
175 197 0
171 195 0
174 197 0
175 198 0
171 196 0
174 197 0
174 198 0
173 196 0
171 195 0
174 198 0
174 197 0
171 195 0
172 196 0
173 196 0
173 197 0
175 198 0
175 198 0
173 197 0
171 194 0
172 195 0
174 197 0
173 196 0
174 197 0
174 197 0
173 196 0
174 198 0
173 196 0
172 196 0
176 198 0
176 198 0
171 194 0
174 197 0
172 195 0
174 197 0
171 195 0
169 193 0
174 197 0
172 196 0
173 196 0
172 196 0
174 197 0
172 195 0
173 195 0
171 194 0
173 196 0
175 198 0
174 196 0
173 196 0
172 196 0
173 196 0
171 195 0
170 193 0
172 195 0
171 194 0
171 194 0
172 194 0
170 193 0
172 195 0
170 193 0
170 192 0
174 197 0
172 195 0
168 192 0
170 193 0
168 191 0
169 192 0
167 191 0
170 193 0
171 194 0
170 194 0
170 193 0
168 191 0
167 190 0
170 192 0
170 194 0
172 195 0
168 192 0
169 193 0
167 191 0
169 192 0
172 195 0
170 194 0
171 194 0
168 191 0
168 191 0
173 196 0
173 196 0
165 188 0
164 187 0
174 197 0
168 192 0
173 196 0
170 193 0
170 193 0
170 192 0
170 192 0
171 194 0
172 195 0
171 195 0
171 194 0
169 192 0
171 195 0
171 195 0
168 192 0
168 190 0
173 197 0
170 193 0
173 197 0
169 192 0
166 190 0
172 196 0
173 195 0
171 194 0
173 196 0
171 194 0
172 196 0
173 196 0
171 194 0
172 195 0
173 197 0
168 191 0
172 196 0
174 197 0
173 196 0
172 195 0
173 196 0
171 193 0
170 194 0
171 195 0
173 197 0
173 196 0
174 197 0
172 194 0
172 196 0
172 195 0
175 198 0
174 197 0
172 196 0
174 197 0
174 197 0
172 196 0
173 197 0
170 194 0
172 194 0
172 195 0
174 197 0
173 197 0
175 197 0
173 196 0
173 196 0
173 197 0
172 196 0
175 197 0
172 196 0
173 197 0
174 197 0
174 196 0
173 196 0
174 197 0
175 198 0
171 194 0
174 197 0
173 197 0
176 199 0
175 198 0
173 195 0
176 198 0
174 197 0
174 197 0
174 197 0
174 197 0
171 194 0
172 196 0
174 198 0
174 197 0
173 197 0
174 197 0
174 198 0
175 198 0
174 198 0
172 196 0
175 198 0
172 196 0
174 197 0
173 197 0
175 198 0
175 198 0
175 198 0
174 198 0
174 197 0
175 198 0
176 199 0
174 198 0
175 197 0
175 198 0
176 199 0
174 197 0
174 198 0
174 198 0
175 198 0
175 198 0
173 196 0
175 198 0
175 198 0
174 197 0
174 198 0
175 198 0
173 197 0
174 198 0
176 198 0
173 197 0
175 198 0
174 197 0
174 197 0
175 198 0
174 198 0
174 197 0
174 197 0
176 198 0
175 198 0
175 198 0
174 198 0
175 198 0
174 198 0
174 197 0
174 198 0
174 197 0
173 197 0
175 198 0
175 198 0
175 198 0
176 198 0
173 197 0
174 198 0
175 198 0
175 198 0
175 198 0
174 198 0
174 197 0
175 198 0
175 198 0
175 198 0
176 198 0
173 197 0
174 198 0
173 197 0
175 198 0
176 198 0
173 197 0
174 198 0
174 198 0
174 197 0
172 197 0
174 197 0
175 198 0
175 198 0
174 197 0
173 197 0
174 198 0
175 197 0
175 198 0
174 197 0
176 198 0
175 198 0
173 197 0
175 198 0
174 198 0
174 198 0
174 198 0
175 198 0
174 198 0
176 199 0
175 198 0
174 198 0
174 197 0
174 197 0
175 198 0
174 197 0
175 198 0
175 198 0
174 197 0
174 198 0
173 197 0
175 198 0
175 198 0
174 197 0
174 198 0
176 199 0
175 198 0
174 198 0
173 197 0
174 197 0
174 198 0
173 197 0
174 197 0
173 197 0
174 198 0
174 198 0
174 198 0
174 197 0
173 197 0
173 197 0
174 198 0
175 198 0
173 197 0
173 197 0
174 198 0
174 198 0
175 198 0
176 199 0
172 196 0
174 197 0
175 198 0
175 198 0
174 197 0
175 198 0
173 197 0
176 199 0
174 197 0
174 198 0
176 198 0
174 198 0
173 197 0
174 198 0
174 197 0
175 198 0
173 197 0
174 198 0
174 198 0
175 198 0
176 198 0
176 198 0
174 197 0
174 198 0
174 197 0
173 197 0
174 198 0
174 198 0
174 197 0
175 198 0
175 198 0
173 197 0
174 198 0
173 196 0
175 198 0
175 198 0
173 197 0
173 197 0
175 198 0
173 197 0
175 198 0
172 196 0
174 198 0
173 197 0
175 198 0
173 197 0
174 197 0
172 197 0
173 197 0
171 195 0
175 198 0
173 197 0
175 198 0
175 198 0
173 197 0
174 198 0
172 197 0
175 198 0
174 198 0
173 197 0
173 197 0
174 198 0
173 197 0
172 196 0
173 197 0
174 198 0
174 198 0
172 196 0
174 197 0
173 197 0
173 197 0
175 198 0
175 198 0
173 196 0
174 198 0
174 197 0
174 198 0
176 199 0
171 195 0
173 197 0
174 197 0
174 197 0
176 199 0
174 197 0
173 197 0
173 197 0
173 196 0
176 198 0
174 197 0
173 196 0
172 196 0
175 198 0
174 198 0
173 197 0
174 197 0
172 196 0
171 194 0
174 197 0
174 198 0
170 193 0
173 197 0
173 196 0
172 196 0
174 197 0
172 196 0
175 198 0
171 195 0
176 198 0
173 196 0
176 199 0
171 195 0
172 195 0
172 195 0
173 197 0
174 197 0
174 197 0
174 197 0
174 197 0
173 196 0
174 197 0
174 197 0
173 196 0
173 196 0
173 197 0
173 196 0
173 196 0
174 197 0
174 197 0
173 196 0
174 196 0
171 194 0
171 194 0
172 195 0
173 195 0
173 195 0
172 194 0
169 191 0
172 195 0
173 196 0
172 195 0
170 193 0
169 192 0
172 196 0
174 196 0
171 193 0
170 193 0
171 193 0
170 193 0
170 192 0
168 192 0
171 194 0
173 196 0
170 194 0
169 193 0
170 194 0
171 195 0
168 191 0
165 189 0
168 192 0
168 192 0
173 196 0
167 191 0
170 193 0
170 194 0
167 190 0
169 192 0
169 192 0
169 193 0
168 191 0
167 191 0
171 195 0
170 194 0
170 193 0
170 195 0
171 194 0
171 194 0
169 193 0
168 192 0
171 194 0
172 194 0
168 193 0
170 194 0
171 195 0
169 192 0
170 193 0
171 194 0
171 195 0
166 189 0
168 191 0
171 194 0
170 193 0
168 192 0
170 194 0
170 193 0
174 197 0
173 196 0
170 194 0
169 194 0
172 196 0
170 194 0
171 193 0
172 195 0
172 195 0
171 195 0
171 195 0
170 194 0
172 195 0
173 196 0
171 195 0
173 196 0
172 195 0
173 197 0
173 196 0
169 193 0
171 195 0
174 197 0
173 196 0
173 196 0
174 197 0
169 192 0
173 196 0
174 197 0
172 195 0
173 197 0
172 195 0
170 194 0
173 196 0
173 196 0
170 193 0
172 195 0
172 196 0
172 195 0
174 197 0
174 197 0
172 196 0
173 196 0
172 196 0
173 197 0
174 198 0
173 197 0
173 196 0
174 197 0
173 197 0
173 196 0
173 196 0
175 198 0
174 196 0
173 197 0
174 197 0
170 193 0
174 197 0
173 197 0
174 197 0
174 197 0
174 197 0
173 197 0
174 197 0
173 197 0
172 196 0
173 197 0
176 199 0
174 197 0
173 197 0
173 197 0
173 197 0
174 197 0
173 196 0
173 197 0
175 198 0
173 197 0
173 197 0
174 198 0
173 197 0
175 198 0
173 197 0
173 197 0
174 197 0
174 197 0
174 197 0
174 197 0
175 198 0
173 196 0
173 197 0
174 197 0
173 197 0
174 197 0
174 198 0
173 197 0
173 197 0
174 197 0
175 198 0
174 197 0
173 197 0
174 197 0
175 198 0
172 197 0
174 198 0
175 198 0
175 198 0
176 198 0
175 198 0
173 197 0
173 197 0
175 198 0
175 198 0
171 196 0
172 195 0
175 198 0
173 197 0
175 198 0
175 198 0
173 197 0
173 197 0
176 199 0
174 197 0
175 198 0
173 196 0
174 197 0
176 199 0
175 198 0
176 199 0
174 198 0
175 198 0
174 197 0
173 197 0
173 197 0
174 197 0
174 198 0
174 197 0
175 198 0
174 197 0
174 197 0
172 197 0
176 199 0
174 197 0
176 198 0
174 198 0
174 198 0
174 197 0
175 198 0
175 198 0
174 197 0
174 197 0
175 198 0
175 198 0
175 198 0
174 197 0
173 197 0
175 198 0
175 198 0
174 198 0
174 197 0
172 196 0
175 198 0
173 197 0
176 199 0
173 197 0
174 198 0
174 197 0
175 198 0
175 198 0
174 197 0
175 198 0
174 198 0
174 198 0
175 198 0
175 198 0
176 199 0
174 197 0
175 198 0
174 198 0
174 197 0
175 198 0
175 198 0
174 198 0
174 198 0
175 198 0
175 198 0
173 197 0
175 198 0
175 198 0
173 197 0
174 197 0
176 199 0
174 198 0
175 198 0
175 198 0
175 198 0
174 198 0
175 198 0
174 198 0
174 198 0
174 198 0
174 198 0
175 198 0
174 198 0
174 198 0
174 198 0
175 198 0
175 198 0
175 198 0
174 198 0
175 198 0
174 198 0
174 198 0
173 197 0
175 198 0
176 199 0
175 198 0
174 198 0
173 197 0
174 198 0
176 199 0
174 198 0
173 197 0
172 196 0
175 198 0
174 198 0
174 198 0
174 198 0
175 198 0
174 198 0
174 198 0
174 198 0
174 197 0
174 197 0
173 197 0
175 198 0
174 197 0
172 197 0
174 198 0
175 198 0
175 198 0
173 197 0
173 197 0
172 196 0
177 199 0
175 198 0
177 199 0
174 198 0
174 197 0
175 198 0
175 198 0
175 198 0
172 196 0
175 198 0
175 198 0
175 198 0
173 197 0
174 197 0
175 198 0
175 198 0
173 197 0
174 198 0
173 196 0
173 197 0
174 197 0
173 197 0
173 197 0
174 198 0
174 197 0
173 196 0
175 198 0
174 197 0
174 198 0
175 198 0
173 196 0
175 198 0
173 197 0
176 199 0
172 196 0
174 198 0
174 198 0
175 198 0
175 198 0
176 198 0
174 197 0
175 198 0
172 196 0
173 196 0
174 197 0
173 196 0
171 194 0
174 197 0
173 197 0
171 195 0
175 197 0
174 197 0
174 197 0
174 196 0
175 198 0
174 198 0
172 196 0
172 196 0
172 196 0
174 197 0
172 196 0
174 198 0
174 197 0
173 196 0
174 197 0
173 197 0
175 198 0
173 197 0
173 197 0
173 197 0
174 197 0
174 197 0
173 196 0
174 197 0
172 196 0
173 197 0
173 196 0
174 197 0
173 196 0
171 195 0
174 197 0
172 196 0
169 192 0
171 194 0
174 198 0
173 197 0
174 198 0
173 197 0
170 193 0
175 197 0
173 196 0
173 196 0
174 197 0
171 194 0
174 198 0
172 195 0
171 195 0
171 194 0
175 197 0
171 193 0
172 195 0
174 197 0
172 194 0
172 194 0
170 194 0
173 196 0
171 194 0
169 192 0
172 195 0
169 192 0
171 194 0
173 197 0
169 193 0
171 193 0
167 189 0
171 195 0
170 193 0
168 192 0
168 192 0
171 195 0
171 195 0
172 196 0
168 192 0
172 195 0
169 192 0
166 190 0
171 194 0
172 195 0
167 191 0
170 194 0
167 190 0
171 194 0
171 194 0
166 190 0
169 192 0
170 194 0
171 194 0
167 190 0
169 193 0
170 194 0
169 193 0
170 192 0
167 191 0
168 192 0
173 196 0
171 195 0
170 195 0
169 192 0
169 193 0
168 192 0
172 196 0
170 194 0
173 196 0
172 196 0
169 192 0
170 193 0
169 192 0
174 196 0
174 197 0
170 194 0
173 196 0
170 195 0
173 195 0
169 193 0
174 197 0
173 196 0
171 195 0
173 196 0
173 196 0
173 196 0
173 197 0
173 196 0
171 195 0
173 196 0
172 196 0
174 198 0
175 197 0
170 193 0
170 193 0
171 194 0
172 196 0
171 194 0
173 196 0
171 193 0
174 197 0
174 197 0
171 195 0
173 196 0
174 198 0
174 198 0
173 196 0
171 195 0
172 195 0
173 196 0
173 197 0
172 196 0
173 195 0
172 196 0
172 196 0
173 196 0
173 197 0
173 197 0
173 197 0
172 196 0
173 196 0
172 195 0
172 196 0
171 195 0
173 196 0
174 197 0
176 199 0
172 196 0
174 197 0
173 197 0
174 197 0
173 196 0
174 197 0
173 196 0
172 196 0
173 197 0
174 196 0
173 197 0
173 197 0
173 196 0
174 197 0
173 196 0
174 197 0
175 198 0
176 199 0
174 197 0
174 198 0
175 198 0
171 196 0
174 197 0
175 198 0
174 197 0
173 197 0
173 197 0
174 197 0
175 197 0
173 197 0
176 198 0
174 198 0
171 196 0
174 197 0
176 198 0
173 197 0
175 198 0
174 197 0
173 197 0
175 198 0
174 198 0
174 197 0
174 197 0
175 198 0
174 197 0
174 197 0
175 198 0
174 198 0
172 196 0
174 198 0
173 197 0
174 197 0
175 198 0
177 199 0
174 198 0
173 197 0
174 197 0
175 198 0
174 198 0
174 198 0
174 197 0
175 198 0
176 198 0
174 198 0
173 197 0
174 198 0
173 197 0
173 197 0
175 198 0
173 197 0
173 197 0
175 198 0
175 198 0
174 197 0
174 198 0
174 197 0
174 198 0
173 197 0
175 198 0
173 197 0
176 198 0
173 197 0
174 198 0
174 198 0
173 197 0
175 198 0
174 198 0
175 198 0
174 197 0
173 197 0
174 197 0
174 197 0
174 198 0
174 197 0
173 197 0
174 197 0
174 198 0
173 197 0
174 198 0
174 198 0
176 198 0
173 197 0
175 198 0
173 197 0
174 198 0
176 199 0
176 199 0
174 198 0
176 199 0
174 197 0
173 197 0
176 199 0
175 198 0
175 198 0
174 198 0
172 196 0
173 197 0
173 197 0
174 197 0
174 197 0
175 198 0
174 198 0
175 198 0
176 199 0
175 198 0
174 198 0
176 199 0
174 197 0
175 198 0
176 199 0
174 198 0
175 198 0
174 198 0
174 198 0
175 198 0
174 198 0
175 198 0
173 197 0
175 198 0
174 197 0
175 198 0
175 198 0
173 197 0
176 198 0
173 197 0
173 197 0
176 199 0
173 197 0
175 198 0
175 198 0
175 198 0
174 197 0
174 197 0
174 198 0
176 198 0
175 198 0
175 198 0
173 197 0
175 198 0
174 198 0
174 198 0
174 198 0
174 198 0
174 198 0
175 198 0
174 198 0
175 198 0
173 197 0
174 198 0
173 197 0
173 197 0
175 198 0
175 198 0
175 198 0
174 198 0
174 198 0
175 198 0
175 198 0
174 198 0
174 197 0
174 198 0
174 197 0
175 198 0
175 198 0
174 198 0
174 198 0
175 198 0
174 197 0
173 197 0
174 198 0
176 198 0
176 199 0
175 198 0
174 197 0
174 198 0
174 197 0
174 197 0
175 198 0
174 198 0
173 196 0
173 197 0
171 195 0
173 197 0
174 198 0
175 198 0
174 197 0
175 198 0
174 197 0
175 198 0
174 197 0
172 196 0
175 198 0
174 197 0
172 196 0
175 198 0
173 197 0
174 198 0
174 198 0
175 198 0
173 197 0
172 196 0
172 196 0
173 196 0
175 198 0
176 199 0
175 198 0
174 197 0
175 198 0
174 197 0
174 198 0
173 197 0
174 197 0
174 198 0
177 199 0
173 197 0
175 198 0
175 198 0
174 198 0
173 196 0
173 196 0
174 197 0
171 195 0
173 197 0
174 197 0
174 197 0
172 196 0
173 197 0
174 198 0
173 197 0
175 198 0
173 196 0
173 197 0
171 195 0
175 198 0
171 195 0
175 197 0
173 196 0
173 197 0
170 193 0
172 195 0
174 197 0
174 198 0
172 196 0
175 197 0
171 195 0
175 198 0
169 193 0
170 194 0
174 197 0
174 197 0
172 196 0
172 196 0
173 195 0
173 196 0
175 198 0
173 196 0
171 195 0
174 197 0
174 197 0
170 194 0
173 196 0
176 198 0
173 197 0
176 198 0
171 195 0
173 196 0
173 196 0
172 195 0
171 194 0
172 195 0
172 196 0
173 196 0
173 196 0
172 195 0
171 194 0
171 194 0
169 193 0
174 196 0
174 197 0
170 194 0
170 194 0
174 197 0
171 195 0
172 196 0
167 190 0
170 194 0
171 194 0
169 192 0
169 193 0
170 193 0
170 194 0
168 191 0
169 192 0
169 193 0
170 194 0
171 195 0
169 193 0
171 195 0
168 192 0
172 195 0
168 191 0
169 192 0
169 193 0
169 193 0
168 191 0
174 197 0
169 192 0
169 192 0
168 192 0
172 195 0
169 191 0
172 195 0
170 194 0
171 194 0
171 194 0
170 193 0
171 194 0
169 193 0
168 191 0
171 194 0
170 194 0
167 191 0
169 192 0
174 197 0
169 192 0
171 193 0
169 192 0
171 194 0
169 193 0
171 194 0
171 195 0
173 197 0
170 192 0
172 194 0
171 195 0
172 196 0
170 194 0
169 193 0
173 197 0
172 195 0
173 196 0
172 196 0
172 195 0
172 195 0
170 194 0
172 195 0
170 193 0
172 196 0
171 195 0
173 196 0
172 196 0
172 195 0
172 195 0
174 196 0
174 197 0
172 195 0
173 196 0
175 198 0
173 197 0
172 194 0
170 193 0
173 196 0
172 195 0
174 198 0
173 196 0
172 196 0
173 196 0
172 196 0
173 197 0
174 196 0
172 195 0
175 198 0
173 196 0
173 197 0
173 196 0
174 197 0
174 197 0
171 196 0
173 197 0
174 197 0
174 196 0
173 196 0
174 198 0
173 196 0
174 197 0
174 198 0
175 198 0
174 198 0
174 197 0
172 195 0
174 197 0
174 197 0
173 196 0
173 196 0
174 197 0
172 196 0
173 196 0
174 198 0
174 197 0
172 196 0
176 198 0
173 197 0
174 198 0
173 197 0
174 197 0
174 197 0
173 196 0
174 197 0
174 197 0
175 198 0
174 197 0
174 197 0
172 196 0
173 196 0
174 197 0
172 196 0
172 196 0
174 198 0
175 198 0
174 197 0
175 198 0
174 197 0
174 198 0
175 198 0
173 197 0
174 198 0
173 197 0
176 198 0
173 196 0
174 197 0
173 197 0
173 197 0
173 197 0
176 199 0
173 197 0
174 198 0
174 198 0
176 199 0
175 198 0
172 196 0
175 198 0
174 198 0
175 198 0
174 197 0
175 198 0
176 198 0
173 197 0
174 198 0
175 198 0
173 197 0
174 198 0
176 198 0
173 197 0
175 198 0
175 198 0
173 197 0
173 197 0
174 198 0
176 198 0
175 198 0
175 198 0
174 198 0
175 198 0
174 197 0
174 198 0
174 197 0
174 198 0
175 198 0
175 198 0
175 198 0
175 198 0
174 197 0
176 199 0
176 198 0
172 196 0
174 198 0
172 196 0
174 198 0
173 197 0
173 197 0
173 197 0
174 198 0
174 198 0
176 198 0
175 198 0
175 198 0
175 198 0
173 197 0
174 197 0
173 196 0
174 197 0
175 198 0
175 198 0
175 198 0
173 197 0
174 198 0
174 198 0
175 198 0
174 198 0
174 198 0
175 198 0
174 198 0
173 197 0
175 198 0
174 197 0
175 198 0
174 198 0
174 198 0
175 198 0
174 198 0
176 199 0
172 197 0
174 197 0
175 198 0
173 197 0
176 199 0
174 197 0
174 198 0
176 199 0
174 198 0
173 196 0
173 197 0
173 197 0
174 198 0
175 198 0
174 198 0
176 199 0
174 198 0
176 199 0
175 198 0
174 198 0
176 199 0
176 198 0
176 199 0
174 198 0
174 197 0
174 197 0
174 197 0
174 198 0
175 198 0
173 197 0
174 197 0
173 197 0
174 198 0
175 198 0
174 197 0
175 198 0
174 197 0
175 198 0
174 198 0
176 199 0
173 197 0
173 197 0
173 197 0
174 198 0
174 198 0
175 198 0
174 198 0
175 198 0
174 198 0
174 197 0
175 197 0
175 198 0
175 198 0
174 197 0
173 197 0
175 198 0
174 198 0
175 198 0
173 197 0
171 195 0
174 198 0
175 198 0
175 198 0
175 198 0
173 197 0
175 198 0
174 198 0
175 198 0
174 197 0
174 197 0
175 198 0
171 196 0
175 198 0
176 199 0
173 197 0
174 197 0
174 198 0
176 199 0
175 198 0
172 196 0
174 198 0
174 198 0
173 197 0
175 198 0
173 197 0
176 199 0
174 198 0
174 197 0
173 197 0
174 198 0
174 197 0
173 196 0
173 196 0
173 197 0
173 197 0
174 197 0
172 196 0
175 198 0
175 198 0
174 198 0
174 197 0
172 196 0
175 198 0
174 198 0
172 196 0
172 196 0
173 196 0
172 197 0
175 198 0
174 197 0
174 197 0
175 198 0
175 198 0
174 197 0
173 196 0
173 197 0
172 196 0
173 196 0
172 196 0
176 198 0
173 197 0
172 195 0
173 196 0
173 197 0
171 194 0
173 197 0
174 197 0
171 195 0
173 196 0
171 195 0
172 196 0
173 195 0
171 195 0
173 197 0
174 197 0
173 196 0
172 196 0
175 198 0
169 193 0
173 197 0
173 197 0
173 196 0
171 194 0
173 196 0
174 197 0
172 194 0
172 195 0
174 197 0
175 198 0
173 196 0
172 195 0
174 197 0
175 198 0
174 197 0
170 193 0
173 197 0
175 197 0
170 193 0
174 197 0
174 197 0
173 196 0
171 193 0
177 199 0
170 194 0
174 196 0
172 196 0
171 194 0
173 197 0
173 195 0
173 196 0
170 193 0
170 193 0
172 195 0
167 190 0
170 194 0
167 191 0
171 194 0
170 194 0
171 194 0
171 194 0
172 195 0
168 192 0
173 196 0
169 193 0
169 193 0
170 193 0
167 191 0
169 193 0
171 193 0
171 195 0
169 193 0
169 193 0
171 195 0
171 194 0
169 193 0
170 194 0
170 193 0
170 193 0
169 192 0
169 193 0
171 194 0
169 193 0
173 196 0
169 193 0
171 194 0
172 195 0
171 194 0
170 193 0
170 193 0
171 195 0
172 196 0
171 194 0
168 192 0
171 195 0
172 195 0
171 195 0
170 194 0
172 196 0
173 197 0
174 196 0
171 194 0
171 194 0
173 196 0
169 193 0
173 194 0
171 194 0
173 196 0
170 194 0
171 194 0
171 193 0
170 194 0
174 197 0
172 195 0
171 194 0
172 196 0
172 195 0
175 197 0
174 197 0
173 196 0
172 195 0
172 196 0
172 195 0
170 195 0
172 196 0
170 193 0
172 195 0
173 196 0
173 195 0
173 196 0
172 196 0
169 192 0
173 196 0
173 196 0
174 197 0
172 196 0
174 197 0
173 196 0
173 197 0
175 198 0
171 194 0
175 198 0
175 197 0
172 195 0
173 196 0
173 197 0
175 197 0
173 196 0
171 194 0
173 196 0
173 197 0
172 196 0
174 198 0
172 195 0
174 197 0
174 197 0
174 198 0
175 197 0
171 194 0
172 196 0
173 196 0
173 196 0
172 196 0
175 198 0
175 198 0
174 198 0
174 197 0
174 197 0
174 197 0
174 197 0
173 196 0
173 196 0
174 197 0
173 197 0
174 197 0
174 198 0
175 198 0
175 198 0
174 197 0
174 197 0
174 198 0
174 197 0
175 198 0
173 197 0
175 198 0
173 197 0
174 197 0
174 197 0
173 197 0
174 197 0
173 197 0
175 198 0
172 196 0
174 197 0
174 198 0
172 195 0
173 197 0
175 198 0
174 197 0
175 198 0
173 197 0
173 197 0
173 197 0
176 199 0
175 198 0
174 197 0
173 197 0
173 197 0
174 197 0
174 197 0
173 197 0
173 197 0
174 198 0
173 197 0
172 196 0
174 198 0
174 198 0
175 198 0
174 197 0
174 197 0
175 198 0
174 197 0
173 197 0
175 198 0
176 199 0
174 197 0
176 198 0
175 198 0
174 198 0
174 197 0
174 198 0
175 198 0
175 198 0
174 197 0
175 198 0
174 198 0
174 198 0
173 197 0
176 199 0
176 199 0
174 198 0
172 196 0
174 198 0
175 198 0
174 197 0
175 198 0
174 197 0
173 197 0
174 198 0
174 198 0
174 198 0
175 198 0
176 199 0
174 198 0
175 198 0
173 197 0
174 198 0
174 198 0
175 198 0
175 198 0
174 197 0
175 198 0
173 197 0
174 198 0
174 198 0
174 197 0
175 198 0
171 196 0
173 197 0
176 199 0
173 197 0
175 198 0
174 198 0
176 198 0
175 198 0
174 198 0
174 198 0
174 198 0
175 198 0
175 198 0
174 198 0
173 197 0
174 197 0
172 197 0
175 198 0
173 197 0
175 198 0
175 198 0
176 199 0
174 198 0
173 197 0
174 197 0
173 197 0
175 198 0
175 198 0
175 198 0
173 197 0
174 198 0
176 199 0
174 198 0
173 197 0
173 197 0
173 197 0
174 198 0
174 198 0
174 197 0
175 198 0
174 198 0
174 198 0
175 198 0
174 197 0
173 197 0
174 197 0
176 199 0
173 197 0
176 198 0
173 197 0
174 198 0
174 197 0
175 198 0
174 197 0
175 198 0
174 198 0
174 198 0
174 197 0
174 197 0
174 198 0
175 198 0
173 197 0
173 197 0
173 196 0
174 198 0
175 198 0
174 197 0
174 198 0
174 197 0
175 198 0
175 198 0
175 198 0
175 198 0
175 198 0
172 196 0
173 197 0
174 197 0
175 198 0
176 199 0
173 197 0
174 198 0
173 197 0
174 198 0
175 198 0
174 198 0
175 198 0
175 198 0
174 198 0
175 198 0
173 197 0
176 199 0
173 197 0
174 197 0
172 196 0
173 196 0
173 196 0
175 198 0
175 198 0
174 198 0
175 198 0
174 197 0
173 197 0
174 197 0
174 198 0
174 197 0
175 198 0
174 198 0
173 197 0
174 198 0
172 197 0
174 198 0
174 198 0
173 197 0
174 197 0
174 198 0
176 199 0
172 196 0
172 196 0
175 198 0
174 197 0
172 196 0
173 197 0
175 198 0
173 197 0
172 196 0
174 198 0
172 197 0
176 199 0
173 197 0
174 197 0
173 197 0
174 197 0
173 197 0
174 198 0
172 196 0
170 195 0
175 198 0
172 196 0
172 196 0
174 197 0
171 195 0
174 198 0
175 198 0
174 197 0
172 195 0
174 197 0
171 195 0
173 197 0
172 196 0
172 196 0
174 197 0
173 196 0
170 194 0
172 195 0
173 196 0
174 197 0
173 196 0
172 195 0
174 197 0
172 195 0
171 195 0
172 195 0
173 195 0
173 196 0
173 197 0
171 194 0
170 194 0
169 192 0
170 194 0
170 193 0
175 197 0
173 196 0
171 195 0
172 195 0
175 197 0
175 198 0
172 195 0
174 197 0
172 195 0
169 193 0
170 194 0
171 194 0
171 194 0
172 195 0
171 194 0
171 195 0
170 194 0
172 195 0
171 194 0
171 194 0
170 193 0
167 191 0
169 192 0
172 196 0
169 193 0
170 194 0
173 196 0
171 195 0
172 196 0
172 195 0
172 196 0
171 194 0
172 195 0
165 189 0
168 192 0
170 194 0
169 193 0
171 195 0
168 190 0
173 196 0
172 195 0
171 194 0
168 191 0
170 193 0
168 191 0
169 192 0
169 192 0
171 194 0
173 196 0
175 198 0
171 195 0
172 195 0
170 194 0
171 194 0
172 194 0
168 191 0
173 195 0
170 195 0
171 194 0
172 195 0
172 195 0
169 192 0
174 197 0
167 190 0
173 197 0
170 193 0
172 196 0
171 195 0
172 195 0
171 195 0
169 193 0
170 193 0
169 192 0
169 193 0
170 194 0
173 196 0
172 195 0
171 194 0
173 197 0
171 194 0
172 195 0
173 196 0
173 196 0
173 195 0
176 197 0
174 197 0
172 195 0
170 194 0
174 197 0
172 195 0
173 196 0
173 196 0
174 197 0
173 197 0
172 196 0
173 196 0
172 195 0
174 197 0
171 194 0
173 197 0
173 196 0
174 197 0
173 197 0
172 196 0
171 195 0
173 197 0
175 198 0
174 197 0
173 197 0
173 196 0
170 193 0
173 196 0
173 196 0
174 197 0
175 198 0
173 197 0
172 195 0
174 198 0
175 197 0
174 197 0
174 197 0
173 197 0
175 197 0
174 197 0
173 196 0
174 197 0
173 197 0
175 198 0
174 198 0
173 196 0
175 198 0
174 197 0
175 198 0
174 197 0
174 198 0
175 198 0
172 196 0
173 196 0
173 196 0
174 197 0
175 198 0
176 199 0
173 197 0
175 198 0
175 197 0
174 197 0
174 197 0
173 196 0
175 198 0
174 197 0
173 197 0
175 198 0
174 197 0
175 198 0
175 198 0
175 198 0
175 198 0
176 199 0
174 198 0
174 197 0
173 197 0
174 198 0
174 198 0
173 197 0
173 197 0
173 197 0
173 197 0
174 197 0
174 198 0
175 198 0
176 199 0
174 198 0
175 198 0
173 197 0
174 198 0
176 198 0
176 199 0
176 199 0
175 198 0
174 198 0
173 197 0
176 198 0
176 198 0
176 198 0
174 197 0
174 198 0
176 198 0
176 199 0
176 198 0
175 198 0
172 197 0
174 197 0
174 197 0
173 197 0
173 197 0
176 199 0
174 198 0
174 198 0
172 196 0
174 198 0
174 198 0
174 198 0
173 197 0
175 198 0
175 198 0
174 198 0
174 198 0
175 198 0
175 198 0
174 198 0
174 198 0
174 197 0
174 197 0
174 197 0
175 198 0
173 197 0
175 198 0
172 196 0
175 198 0
174 197 0
175 198 0
175 198 0
175 198 0
174 197 0
175 198 0
175 198 0
174 197 0
174 198 0
174 198 0
174 198 0
174 197 0
174 198 0
174 197 0
174 198 0
174 198 0
175 198 0
174 198 0
173 197 0
173 197 0
174 197 0
175 198 0
174 198 0
172 196 0
173 197 0
174 197 0
174 198 0
176 199 0
174 197 0
174 198 0
175 198 0
175 198 0
174 198 0
175 198 0
175 198 0
174 198 0
172 196 0
173 197 0
175 198 0
174 198 0
174 198 0
175 198 0
175 198 0
174 198 0
174 198 0
176 198 0
172 197 0
174 198 0
175 198 0
175 198 0
175 198 0
175 198 0
175 198 0
175 198 0
176 198 0
175 198 0
175 198 0
173 197 0
175 198 0
175 198 0
174 197 0
173 197 0
175 198 0
175 198 0
175 198 0
175 198 0
175 198 0
176 199 0
174 197 0
173 196 0
174 198 0
175 198 0
173 197 0
173 197 0
174 198 0
173 197 0
175 198 0
173 197 0
173 197 0
174 198 0
175 198 0
175 198 0
175 198 0
174 197 0
173 197 0
173 197 0
172 197 0
175 198 0
174 197 0
173 197 0
173 197 0
172 197 0
175 198 0
174 198 0
174 198 0
175 198 0
174 197 0
174 198 0
173 197 0
174 198 0
174 197 0
175 198 0
174 197 0
173 197 0
175 198 0
173 197 0
172 196 0
173 197 0
175 198 0
172 197 0
175 198 0
175 198 0
174 197 0
173 197 0
174 198 0
174 198 0
174 197 0
176 198 0
175 198 0
175 198 0
175 198 0
174 198 0
175 198 0
174 198 0
173 197 0
173 197 0
174 198 0
173 197 0
174 197 0
173 197 0
172 196 0
174 197 0
174 197 0
174 197 0
175 198 0
170 194 0
173 197 0
172 196 0
174 197 0
173 196 0
172 197 0
174 197 0
173 197 0
171 195 0
175 198 0
172 196 0
172 197 0
173 196 0
173 197 0
174 198 0
172 196 0
174 197 0
172 196 0
175 198 0
174 197 0
176 198 0
175 197 0
172 195 0
175 198 0
173 196 0
172 197 0
171 195 0
172 196 0
174 197 0
174 197 0
171 194 0
171 195 0
172 195 0
172 196 0
173 196 0
173 196 0
172 195 0
173 196 0
171 195 0
174 197 0
173 196 0
173 196 0
175 198 0
172 196 0
173 197 0
173 196 0
172 196 0
173 195 0
173 196 0
170 192 0
172 195 0
173 196 0
172 195 0
172 194 0
168 191 0
173 196 0
173 196 0
170 192 0
172 195 0
170 193 0
168 192 0
169 191 0
173 196 0
169 193 0
171 194 0
165 189 0
170 194 0
168 192 0
172 195 0
171 195 0
168 191 0
171 194 0
168 192 0
171 195 0
172 195 0
174 197 0
173 196 0
169 192 0
172 195 0
168 192 0
172 196 0
168 191 0
170 193 0
170 192 0
172 196 0
173 196 0
171 193 0
169 193 0
172 196 0
170 195 0
171 195 0
172 196 0
169 192 0
170 193 0
169 193 0
173 196 0
172 196 0
170 193 0
172 195 0
172 195 0
171 193 0
170 194 0
171 195 0
172 196 0
172 195 0
170 193 0
173 197 0
171 195 0
171 195 0
172 196 0
170 194 0
174 197 0
173 196 0
173 197 0
173 196 0
171 194 0
175 198 0
172 194 0
174 197 0
172 196 0
173 196 0
172 194 0
172 195 0
171 194 0
172 195 0
175 198 0
170 194 0
172 196 0
173 197 0
173 196 0
171 195 0
174 198 0
173 196 0
173 197 0
172 195 0
175 198 0
172 196 0
172 196 0
174 197 0
174 196 0
170 195 0
173 197 0
171 195 0
171 194 0
171 195 0
171 194 0
171 195 0
173 196 0
175 198 0
173 197 0
174 197 0
175 198 0
174 198 0
171 195 0
173 197 0
171 194 0
174 196 0
175 198 0
174 198 0
174 198 0
173 197 0
173 196 0
173 196 0
173 197 0
174 197 0
174 198 0
175 198 0
174 197 0
172 196 0
175 197 0
173 196 0
175 198 0
173 196 0
177 199 0
172 195 0
174 197 0
174 198 0
174 197 0
172 196 0
173 197 0
175 198 0
175 198 0
175 198 0
174 197 0
173 197 0
173 196 0
174 198 0
173 197 0
173 197 0
173 197 0
173 197 0
172 195 0
173 197 0
174 197 0
172 196 0
174 197 0
174 198 0
174 197 0
174 198 0
174 198 0
175 198 0
174 197 0
175 198 0
175 198 0
176 198 0
176 199 0
174 198 0
174 197 0
173 197 0
175 198 0
174 197 0
175 198 0
174 197 0
176 198 0
175 198 0
175 198 0
173 197 0
174 198 0
176 199 0
175 198 0
175 197 0
175 198 0
175 198 0
174 198 0
174 198 0
174 198 0
175 198 0
174 197 0
176 199 0
175 198 0
174 198 0
175 198 0
174 198 0
173 197 0
173 197 0
171 194 0
175 198 0
172 196 0
176 198 0
174 198 0
174 198 0
174 198 0
174 196 0
174 197 0
174 197 0
175 198 0
176 198 0
173 197 0
174 198 0
174 198 0
175 198 0
176 199 0
176 198 0
173 197 0
175 198 0
175 198 0
176 198 0
175 198 0
175 198 0
174 198 0
174 198 0
174 197 0
174 198 0
175 198 0
174 198 0
174 197 0
175 198 0
174 198 0
174 197 0
174 197 0
174 198 0
175 198 0
175 198 0
174 198 0
174 198 0
175 198 0
175 198 0
175 198 0
175 198 0
174 197 0
174 198 0
175 198 0
175 198 0
175 198 0
174 198 0
175 198 0
174 198 0
175 198 0
175 198 0
176 198 0
176 199 0
175 198 0
175 198 0
175 198 0
174 197 0
176 199 0
174 197 0
173 197 0
175 198 0
174 197 0
175 198 0
174 198 0
174 198 0
173 196 0
171 196 0
175 198 0
174 197 0
175 198 0
174 197 0
174 197 0
173 197 0
175 198 0
175 198 0
174 198 0
176 199 0
174 197 0
176 199 0
174 198 0
175 198 0
174 198 0
172 197 0
174 198 0
175 198 0
175 198 0
174 197 0
174 198 0
175 198 0
174 198 0
175 198 0
175 198 0
173 197 0
175 198 0
173 197 0
173 196 0
176 199 0
174 198 0
174 198 0
172 197 0
172 196 0
174 197 0
175 198 0
174 197 0
173 197 0
176 199 0
173 197 0
174 197 0
175 198 0
173 197 0
174 198 0
174 198 0
173 197 0
175 198 0
175 198 0
175 198 0
174 198 0
174 198 0
172 196 0
173 197 0
174 197 0
175 198 0
175 198 0
172 197 0
174 198 0
174 197 0
174 197 0
176 198 0
175 198 0
173 197 0
176 198 0
175 198 0
173 197 0
172 197 0
175 198 0
175 198 0
174 198 0
174 197 0
172 196 0
174 197 0
173 197 0
173 197 0
174 197 0
173 197 0
175 198 0
174 197 0
173 197 0
173 197 0
173 197 0
173 197 0
174 197 0
174 198 0
175 198 0
175 198 0
173 197 0
174 198 0
172 197 0
175 198 0
175 198 0
173 196 0
174 197 0
173 197 0
174 197 0
176 199 0
173 197 0
175 198 0
175 198 0
174 197 0
175 198 0
173 197 0
173 197 0
176 199 0
172 195 0
173 196 0
174 198 0
174 197 0
173 197 0
174 197 0
175 198 0
173 196 0
174 197 0
173 196 0
173 197 0
172 195 0
174 197 0
171 195 0
173 196 0
173 197 0
170 194 0
174 197 0
174 197 0
175 198 0
174 197 0
174 197 0
169 193 0
172 196 0
174 196 0
171 195 0
174 197 0
173 197 0
170 194 0
173 197 0
174 197 0
172 196 0
173 197 0
171 195 0
172 195 0
175 197 0
170 194 0
175 198 0
171 195 0
171 194 0
172 195 0
171 195 0
173 196 0
173 196 0
173 195 0
172 195 0
171 195 0
173 196 0
172 194 0
171 194 0
172 196 0
172 195 0
170 193 0
169 194 0
170 194 0
174 197 0
171 194 0
174 197 0
170 194 0
171 194 0
170 193 0
173 196 0
171 195 0
174 197 0
170 194 0
169 192 0
169 191 0
174 197 0
166 191 0
172 196 0
170 194 0
168 191 0
173 196 0
168 190 0
168 192 0
170 193 0
168 191 0
169 192 0
172 195 0
173 196 0
172 195 0
172 195 0
172 195 0
169 192 0
172 195 0
172 195 0
169 193 0
170 194 0
171 195 0
171 194 0
175 197 0
170 193 0
169 193 0
171 194 0
173 196 0
170 194 0
171 194 0
173 196 0
173 197 0
173 196 0
171 194 0
172 196 0
175 198 0
172 196 0
170 194 0
171 193 0
172 196 0
173 197 0
171 195 0
173 196 0
172 195 0
172 195 0
172 195 0
169 193 0
173 195 0
172 196 0
174 198 0
172 195 0
173 197 0
173 197 0
173 197 0
172 195 0
174 197 0
171 194 0
173 196 0
174 197 0
172 195 0
175 198 0
173 197 0
173 197 0
173 197 0
172 196 0
174 197 0
173 196 0
171 194 0
174 197 0
171 195 0
173 197 0
173 196 0
174 197 0
174 198 0
172 195 0
173 196 0
173 197 0
172 196 0
174 197 0
175 198 0
172 196 0
174 196 0
174 197 0
173 197 0
173 196 0
175 198 0
175 198 0
173 197 0
174 197 0
172 196 0
173 196 0
174 197 0
174 196 0
172 196 0
174 197 0
172 196 0
173 196 0
174 197 0
175 198 0
174 197 0
175 198 0
174 198 0
173 196 0
173 197 0
174 197 0
174 198 0
174 197 0
174 197 0
172 196 0
174 197 0
173 196 0
174 198 0
173 196 0
174 197 0
174 197 0
174 198 0
172 195 0
174 197 0
174 197 0
174 198 0
173 197 0
174 198 0
174 197 0
174 198 0
174 198 0
174 197 0
174 198 0
174 197 0
175 198 0
173 197 0
173 196 0
173 197 0
174 198 0
174 197 0
173 196 0
175 198 0
174 198 0
173 197 0
173 197 0
173 197 0
173 197 0
173 197 0
172 196 0
172 196 0
174 197 0
175 198 0
174 197 0
175 198 0
173 197 0
173 197 0
175 198 0
171 195 0
176 198 0
176 199 0
174 197 0
173 197 0
174 197 0
174 198 0
175 197 0
175 198 0
173 197 0
173 197 0
175 198 0
173 197 0
174 198 0
174 198 0
174 197 0
174 198 0
174 198 0
175 198 0
174 198 0
175 198 0
175 198 0
175 198 0
174 198 0
173 197 0
174 198 0
174 198 0
175 198 0
174 198 0
174 198 0
174 197 0
173 197 0
174 198 0
174 197 0
173 197 0
174 198 0
174 198 0
173 197 0
174 197 0
175 198 0
173 197 0
175 198 0
173 197 0
174 197 0
173 197 0
175 198 0
174 198 0
174 197 0
173 197 0
175 198 0
175 198 0
174 197 0
175 198 0
176 198 0
175 198 0
174 198 0
175 198 0
173 197 0
174 198 0
174 198 0
174 198 0
173 197 0
174 197 0
176 198 0
175 198 0
175 198 0
176 199 0
177 199 0
175 198 0
174 198 0
174 198 0
175 198 0
174 198 0
173 197 0
174 197 0
174 198 0
173 196 0
176 198 0
175 198 0
175 198 0
175 198 0
174 198 0
174 198 0
174 198 0
177 199 0
174 198 0
175 198 0
174 198 0
174 197 0
175 198 0
175 198 0
174 197 0
175 198 0
174 197 0
173 197 0
172 196 0
174 198 0
174 198 0
175 198 0
174 198 0
173 197 0
175 198 0
176 199 0
174 197 0
174 198 0
171 195 0
173 197 0
174 198 0
174 198 0
174 198 0
174 198 0
174 197 0
175 198 0
174 198 0
176 198 0
175 198 0
175 198 0
173 197 0
173 197 0
174 197 0
173 197 0
173 197 0
172 196 0
173 197 0
175 198 0
177 199 0
172 196 0
176 199 0
174 197 0
174 197 0
174 197 0
173 196 0
173 196 0
175 198 0
172 197 0
175 198 0
173 197 0
173 197 0
174 197 0
175 198 0
173 197 0
175 198 0
174 197 0
173 197 0
174 198 0
175 198 0
173 197 0
175 198 0
173 197 0
174 197 0
172 196 0
174 198 0
174 198 0
173 197 0
174 198 0
176 199 0
174 197 0
173 197 0
175 198 0
174 198 0
172 196 0
172 196 0
173 197 0
173 197 0
174 197 0
172 196 0
174 198 0
173 197 0
175 198 0
175 198 0
174 198 0
174 197 0
173 197 0
172 197 0
172 196 0
172 196 0
174 198 0
172 195 0
174 198 0
172 196 0
174 197 0
171 195 0
172 196 0
173 197 0
174 197 0
173 197 0
173 197 0
173 197 0
172 196 0
171 195 0
174 198 0
174 197 0
173 197 0
173 197 0
171 195 0
173 196 0
173 196 0
173 197 0
174 197 0
172 196 0
173 196 0
174 197 0
173 196 0
173 195 0
173 197 0
173 197 0
174 197 0
169 193 0
176 198 0
174 197 0
175 198 0
173 197 0
173 196 0
174 197 0
173 197 0
173 196 0
173 197 0
173 196 0
174 197 0
172 196 0
172 196 0
171 195 0
173 195 0
170 193 0
173 197 0
174 197 0
170 194 0
171 194 0
173 196 0
171 194 0
174 197 0
167 190 0
172 196 0
172 196 0
170 194 0
169 193 0
169 193 0
171 195 0
169 192 0
168 192 0
169 193 0
170 193 0
171 194 0
169 192 0
169 192 0
169 193 0
172 196 0
171 194 0
169 192 0
172 196 0
168 193 0
165 190 0
174 197 0
173 196 0
173 196 0
171 194 0
169 193 0
170 194 0
170 194 0
170 193 0
171 193 0
170 194 0
171 195 0
170 193 0
168 192 0
171 194 0
171 194 0
168 192 0
172 195 0
171 194 0
173 195 0
171 194 0
171 193 0
170 193 0
170 194 0
173 196 0
173 196 0
173 195 0
174 198 0
171 195 0
171 195 0
171 195 0
173 197 0
173 197 0
168 191 0
174 197 0
173 196 0
174 197 0
172 195 0
174 197 0
174 197 0
174 197 0
172 195 0
170 193 0
171 194 0
172 196 0
171 194 0
172 195 0
173 197 0
174 197 0
174 198 0
171 194 0
172 195 0
171 195 0
174 197 0
173 197 0
172 195 0
171 195 0
174 196 0
173 197 0
172 195 0
173 197 0
171 194 0
175 198 0
174 197 0
174 196 0
174 196 0
174 197 0
173 196 0
170 194 0
173 195 0
173 197 0
174 197 0
172 195 0
173 196 0
173 197 0
174 197 0
173 196 0
172 196 0
175 198 0
173 197 0
173 196 0
173 196 0
175 198 0
173 197 0
174 197 0
175 198 0
174 198 0
174 198 0
173 196 0
173 197 0
172 196 0
174 197 0
173 197 0
173 197 0
174 196 0
174 198 0
173 196 0
173 196 0
176 199 0
174 198 0
173 196 0
172 196 0
174 197 0
173 197 0
175 198 0
173 197 0
174 198 0
175 198 0
175 198 0
175 197 0
176 198 0
173 197 0
172 197 0
173 196 0
170 194 0
174 197 0
174 198 0
175 198 0
174 197 0
175 198 0
175 198 0
174 197 0
173 196 0
174 197 0
174 197 0
173 197 0
173 196 0
173 196 0
174 197 0
174 197 0
174 197 0
176 199 0
171 196 0
175 198 0
175 198 0
175 198 0
173 197 0
172 196 0
175 198 0
174 197 0
175 198 0
175 198 0
173 197 0
172 197 0
174 197 0
176 199 0
175 198 0
176 199 0
174 197 0
173 197 0
176 198 0
176 198 0
174 197 0
175 198 0
174 197 0
173 196 0
175 198 0
175 198 0
174 198 0
175 198 0
175 198 0
175 198 0
174 198 0
173 196 0
174 197 0
174 197 0
174 198 0
176 199 0
174 197 0
174 197 0
175 198 0
175 198 0
174 198 0
174 197 0
176 198 0
173 197 0
174 198 0
175 198 0
174 198 0
173 197 0
176 199 0
173 197 0
173 197 0
174 197 0
175 198 0
175 198 0
174 197 0
173 197 0
175 198 0
174 197 0
174 198 0
175 198 0
173 197 0
174 198 0
174 198 0
173 197 0
175 198 0
176 198 0
174 198 0
174 198 0
174 197 0
175 198 0
174 197 0
172 196 0
174 198 0
175 198 0
175 198 0
175 198 0
174 197 0
177 199 0
176 198 0
175 198 0
175 198 0
175 198 0
177 199 0
176 198 0
175 198 0
174 198 0
175 198 0
176 199 0
175 198 0
174 198 0
174 197 0
174 198 0
175 198 0
173 197 0
173 197 0
173 197 0
174 197 0
172 197 0
174 198 0
174 198 0
175 198 0
175 198 0
175 198 0
175 198 0
174 198 0
173 197 0
175 198 0
173 197 0
174 198 0
173 197 0
175 198 0
173 197 0
173 197 0
173 197 0
174 198 0
173 197 0
174 197 0
175 198 0
174 197 0
173 197 0
176 198 0
174 198 0
176 199 0
175 198 0
176 199 0
175 198 0
174 197 0
174 197 0
174 198 0
174 198 0
176 199 0
173 197 0
175 198 0
174 197 0
173 197 0
173 197 0
173 197 0
174 198 0
174 198 0
175 198 0
174 197 0
173 197 0
175 198 0
174 198 0
174 197 0
175 198 0
176 198 0
174 198 0
174 197 0
176 199 0
173 197 0
174 197 0
176 199 0
173 197 0
173 197 0
174 198 0
174 197 0
174 198 0
172 196 0
175 198 0
174 197 0
174 198 0
172 196 0
172 196 0
174 197 0
174 198 0
173 197 0
173 197 0
175 198 0
173 197 0
174 197 0
175 198 0
174 197 0
174 198 0
173 197 0
174 198 0
173 197 0
172 196 0
174 197 0
172 196 0
172 196 0
173 197 0
173 197 0
173 197 0
172 196 0
173 197 0
175 198 0
174 198 0
175 198 0
174 198 0
175 198 0
174 197 0
173 197 0
174 198 0
174 197 0
175 198 0
173 196 0
174 198 0
174 198 0
172 195 0
171 195 0
173 197 0
175 198 0
174 198 0
174 197 0
172 196 0
175 198 0
173 196 0
173 196 0
174 197 0
171 195 0
173 197 0
172 196 0
174 197 0
173 196 0
174 197 0
170 195 0
174 197 0
172 195 0
175 198 0
173 197 0
172 195 0
172 196 0
175 198 0
172 196 0
171 194 0
172 196 0
173 196 0
174 197 0
173 197 0
173 196 0
170 194 0
173 197 0
172 196 0
173 197 0
173 196 0
172 195 0
174 197 0
174 197 0
172 195 0
171 195 0
172 196 0
173 196 0
170 194 0
173 196 0
173 195 0
174 197 0
172 195 0
171 195 0
173 196 0
172 196 0
174 197 0
174 196 0
173 196 0
173 196 0
170 193 0
172 196 0
172 196 0
172 196 0
171 194 0
172 196 0
172 195 0
171 195 0
169 191 0
172 195 0
173 196 0
171 194 0
170 194 0
170 193 0
173 196 0
172 195 0
169 194 0
169 193 0
168 191 0
171 194 0
170 192 0
172 195 0
171 194 0
172 195 0
171 194 0
173 196 0
170 193 0
168 192 0
170 194 0
170 194 0
172 195 0
172 196 0
173 196 0
172 194 0
173 197 0
174 195 0
168 191 0
169 194 0
171 195 0
171 195 0
171 195 0
173 195 0
172 195 0
171 195 0
172 195 0
172 196 0
171 195 0
170 193 0
173 196 0
171 195 0
170 193 0
173 196 0
171 195 0
170 193 0
171 194 0
172 196 0
173 196 0
175 198 0
174 197 0
174 197 0
174 197 0
173 197 0
172 193 0
175 198 0
171 195 0
172 196 0
173 197 0
173 196 0
172 195 0
171 194 0
173 196 0
171 195 0
172 196 0
176 198 0
174 198 0
173 195 0
173 197 0
171 195 0
171 195 0
174 198 0
175 198 0
174 197 0
174 197 0
170 193 0
173 197 0
174 197 0
175 198 0
173 196 0
173 197 0
172 196 0
173 196 0
172 196 0
174 198 0
174 197 0
173 197 0
171 195 0
173 197 0
172 196 0
173 196 0
172 196 0
174 198 0
175 198 0
174 197 0
174 197 0
173 195 0
174 198 0
173 197 0
174 197 0
173 197 0
174 198 0
175 198 0
173 196 0
173 197 0
172 196 0
172 195 0
172 195 0
173 196 0
176 199 0
174 198 0
173 197 0
174 197 0
173 196 0
173 197 0
173 197 0
173 197 0
173 195 0
174 198 0
173 197 0
174 197 0
174 197 0
175 197 0
175 198 0
175 198 0
174 197 0
175 198 0
174 197 0
174 198 0
173 197 0
175 198 0
176 199 0
174 197 0
175 198 0
173 197 0
174 197 0
174 198 0
175 198 0
174 197 0
174 197 0
174 198 0
174 197 0
175 198 0
175 198 0
175 198 0
174 198 0
175 198 0
176 199 0
174 198 0
175 198 0
175 198 0
174 198 0
174 197 0
175 198 0
174 197 0
174 198 0
175 198 0
175 198 0
173 197 0
173 197 0
175 198 0
174 197 0
173 197 0
173 197 0
175 198 0
176 199 0
175 198 0
175 198 0
175 198 0
174 197 0
174 197 0
175 198 0
175 198 0
174 198 0
174 198 0
174 198 0
174 197 0
174 198 0
174 197 0
175 198 0
172 197 0
175 198 0
175 198 0
174 198 0
174 197 0
173 196 0
173 197 0
174 197 0
175 198 0
175 198 0
173 197 0
176 199 0
174 198 0
173 197 0
175 198 0
174 197 0
175 198 0
174 198 0
175 198 0
175 198 0
174 197 0
176 198 0
175 198 0
174 198 0
174 197 0
174 197 0
174 197 0
173 197 0
173 197 0
175 198 0
174 197 0
174 198 0
174 198 0
174 197 0
174 198 0
175 198 0
176 199 0
175 198 0
174 198 0
174 197 0
173 197 0
173 197 0
176 199 0
176 199 0
174 198 0
175 198 0
174 197 0
172 196 0
174 197 0
175 198 0
175 198 0
175 198 0
174 198 0
174 198 0
175 198 0
175 198 0
174 197 0
174 197 0
175 198 0
175 198 0
174 197 0
174 197 0
176 199 0
174 198 0
175 197 0
174 198 0
175 198 0
175 198 0
173 197 0
173 197 0
175 198 0
176 198 0
175 198 0
173 197 0
174 198 0
174 197 0
175 198 0
174 198 0
176 199 0
175 198 0
174 198 0
174 197 0
173 197 0
175 198 0
174 198 0
173 197 0
174 197 0
174 198 0
173 197 0
174 198 0
173 197 0
174 198 0
173 197 0
173 197 0
175 198 0
174 198 0
174 197 0
174 198 0
173 197 0
173 197 0
172 196 0
173 197 0
176 199 0
175 198 0
174 198 0
175 198 0
172 196 0
174 198 0
172 197 0
174 197 0
174 198 0
173 196 0
173 197 0
174 197 0
174 198 0
174 198 0
172 196 0
174 197 0
175 198 0
173 197 0
175 198 0
173 197 0
173 197 0
172 196 0
172 196 0
171 196 0
174 197 0
175 198 0
172 196 0
176 199 0
172 196 0
172 196 0
176 198 0
174 198 0
174 197 0
175 198 0
175 198 0
174 198 0
173 197 0
170 195 0
173 197 0
172 196 0
173 197 0
175 198 0
175 198 0
173 197 0
173 197 0
174 198 0
173 197 0
173 197 0
175 198 0
175 198 0
174 197 0
172 196 0
175 198 0
172 195 0
172 196 0
173 197 0
173 196 0
173 196 0
172 196 0
171 196 0
173 197 0
173 197 0
174 197 0
174 197 0
174 197 0
171 194 0
173 197 0
175 198 0
173 196 0
174 197 0
173 197 0
173 196 0
172 196 0
172 195 0
172 195 0
174 197 0
172 197 0
173 196 0
172 196 0
173 197 0
174 197 0
174 197 0
173 197 0
173 197 0
172 196 0
175 198 0
172 196 0
174 197 0
172 195 0
170 195 0
172 195 0
171 195 0
173 196 0
175 198 0
174 197 0
171 195 0
172 196 0
173 196 0
172 195 0
171 194 0
173 196 0
173 197 0
171 194 0
172 195 0
172 196 0
172 195 0
171 194 0
170 193 0
171 194 0
169 192 0
172 196 0
168 192 0
171 195 0
169 193 0
170 193 0
169 193 0
173 197 0
171 195 0
172 195 0
170 194 0
169 193 0
170 194 0
171 194 0
171 195 0
172 195 0
170 194 0
169 192 0
174 197 0
174 197 0
166 189 0
170 193 0
172 196 0
170 194 0
172 196 0
171 194 0
171 195 0
170 194 0
169 193 0
173 196 0
170 194 0
171 195 0
173 196 0
172 195 0
171 194 0
172 196 0
173 195 0
172 195 0
174 198 0
174 197 0
170 193 0
172 195 0
171 195 0
175 198 0
172 195 0
170 193 0
170 193 0
170 194 0
171 195 0
172 195 0
174 198 0
172 195 0
173 197 0
174 198 0
174 197 0
170 194 0
169 193 0
171 195 0
172 195 0
172 195 0
172 195 0
172 195 0
172 196 0
173 196 0
172 195 0
173 196 0
171 194 0
172 196 0
174 197 0
172 195 0
172 196 0
173 196 0
174 198 0
170 193 0
175 198 0
174 198 0
173 197 0
174 198 0
171 195 0
173 197 0
174 197 0
173 197 0
171 196 0
172 195 0
173 197 0
171 194 0
173 197 0
173 196 0
172 196 0
173 196 0
175 198 0
173 197 0
175 197 0
174 197 0
173 197 0
173 196 0
176 198 0
174 198 0
173 196 0
174 197 0
174 198 0
174 197 0
173 197 0
174 197 0
173 197 0
173 197 0
174 198 0
175 198 0
175 198 0
174 197 0
174 197 0
174 197 0
174 197 0
172 196 0
173 197 0
173 197 0
173 196 0
174 198 0
175 198 0
172 196 0
174 197 0
172 196 0
173 196 0
174 197 0
174 198 0
174 198 0
173 197 0
173 197 0
173 197 0
173 196 0
173 197 0
173 197 0
175 198 0
174 197 0
176 199 0
173 197 0
174 198 0
174 197 0
174 197 0
175 198 0
173 197 0
175 198 0
173 197 0
174 198 0
173 196 0
175 198 0
174 198 0
175 198 0
175 198 0
176 199 0
174 197 0
174 197 0
174 197 0
174 197 0
173 197 0
173 197 0
173 197 0
175 198 0
174 197 0
175 198 0
174 198 0
173 197 0
176 198 0
174 198 0
175 198 0
174 197 0
173 196 0
173 197 0
175 198 0
174 197 0
173 197 0
174 197 0
175 198 0
174 198 0
174 197 0
173 197 0
172 197 0
175 198 0
173 197 0
174 198 0
174 198 0
175 198 0
174 198 0
174 197 0
174 198 0
174 198 0
177 199 0
174 198 0
175 198 0
174 198 0
174 197 0
174 198 0
174 198 0
176 199 0
174 197 0
175 198 0
176 199 0
175 198 0
174 197 0
174 198 0
177 199 0
176 199 0
174 197 0
173 197 0
174 197 0
174 198 0
174 198 0
173 197 0
174 197 0
175 198 0
175 198 0
173 197 0
172 196 0
175 198 0
176 198 0
174 198 0
175 198 0
174 198 0
174 198 0
175 198 0
174 197 0
174 197 0
175 198 0
176 199 0
175 198 0
174 198 0
173 197 0
175 198 0
175 198 0
175 198 0
174 198 0
174 198 0
174 198 0
174 198 0
173 197 0
174 198 0
174 198 0
175 198 0
174 197 0
173 197 0
175 198 0
172 196 0
174 198 0
174 198 0
174 197 0
174 197 0
173 197 0
173 197 0
176 199 0
173 197 0
175 198 0
173 197 0
175 198 0
175 198 0
175 198 0
174 197 0
174 198 0
175 198 0
173 197 0
173 197 0
173 197 0
174 198 0
174 198 0
174 198 0
172 195 0
175 198 0
174 197 0
175 198 0
175 198 0
176 199 0
174 198 0
173 197 0
175 198 0
175 198 0
175 198 0
174 197 0
176 199 0
175 198 0
175 198 0
173 197 0
174 198 0
175 198 0
174 197 0
172 196 0
174 197 0
175 198 0
174 198 0
174 198 0
173 197 0
175 198 0
174 197 0
175 198 0
174 197 0
172 196 0
173 197 0
174 198 0
173 197 0
173 197 0
174 198 0
175 198 0
176 198 0
173 197 0
174 198 0
174 197 0
174 197 0
174 197 0
174 198 0
173 197 0
175 198 0
174 197 0
172 196 0
174 197 0
171 195 0
174 197 0
174 197 0
175 198 0
173 196 0
174 197 0
176 198 0
173 197 0
173 197 0
175 198 0
173 197 0
172 196 0
174 197 0
174 198 0
175 198 0
173 196 0
174 197 0
174 197 0
173 197 0
175 198 0
173 197 0
172 196 0
176 199 0
173 196 0
172 196 0
173 197 0
175 198 0
172 196 0
173 196 0
173 197 0
173 197 0
172 196 0
173 196 0
175 198 0
174 198 0
172 196 0
174 197 0
173 197 0
174 197 0
174 198 0
173 196 0
173 196 0
172 196 0
173 197 0
173 197 0
174 197 0
174 197 0
174 197 0
172 195 0
172 195 0
175 198 0
172 196 0
174 197 0
174 197 0
172 195 0
174 197 0
172 196 0
172 196 0
174 197 0
172 196 0
172 196 0
173 197 0
172 196 0
171 195 0
172 196 0
174 197 0
173 196 0
172 196 0
173 197 0
170 194 0
171 195 0
172 195 0
174 197 0
173 197 0
172 195 0
174 197 0
172 195 0
173 196 0
174 197 0
173 196 0
173 196 0
171 195 0
170 193 0
169 193 0
170 194 0
171 195 0
174 197 0
170 194 0
171 194 0
172 195 0
168 192 0
173 196 0
172 196 0
168 192 0
173 197 0
173 196 0
170 193 0
173 196 0
170 193 0
172 196 0
170 194 0
170 194 0
173 196 0
171 195 0
171 195 0
170 194 0
171 194 0
173 196 0
170 194 0
169 193 0
171 195 0
169 193 0
171 195 0
171 194 0
171 195 0
172 196 0
171 195 0
174 197 0
168 192 0
171 195 0
171 195 0
170 194 0
168 190 0
170 193 0
170 193 0
173 196 0
173 196 0
170 194 0
173 196 0
171 194 0
174 197 0
173 196 0
174 197 0
173 196 0
174 197 0
173 196 0
171 195 0
173 197 0
174 197 0
168 191 0
170 193 0
173 196 0
171 194 0
175 198 0
173 196 0
174 197 0
174 197 0
175 198 0
173 197 0
172 196 0
174 197 0
170 195 0
174 197 0
171 195 0
173 197 0
172 195 0
174 197 0
172 196 0
174 196 0
175 198 0
172 196 0
174 197 0
174 197 0
173 197 0
171 195 0
174 198 0
173 197 0
174 197 0
174 197 0
173 196 0
174 197 0
175 197 0
174 197 0
173 196 0
172 196 0
174 198 0
173 197 0
173 197 0
173 196 0
173 197 0
174 197 0
172 195 0
173 196 0
175 197 0
174 197 0
175 198 0
174 197 0
173 197 0
173 196 0
175 198 0
176 198 0
173 196 0
174 197 0
173 196 0
172 195 0
174 197 0
173 196 0
171 195 0
174 197 0
175 197 0
173 196 0
173 196 0
174 197 0
174 197 0
173 197 0
174 197 0
174 197 0
176 199 0
173 197 0
173 196 0
174 197 0
173 197 0
174 198 0
172 196 0
173 197 0
173 196 0
173 197 0
173 197 0
176 198 0
173 196 0
173 196 0
174 196 0
174 197 0
175 198 0
173 196 0
176 199 0
173 196 0
174 197 0
175 198 0
174 197 0
173 197 0
173 197 0
174 197 0
175 198 0
173 196 0
176 198 0
172 196 0
173 197 0
175 198 0
174 197 0
175 198 0
174 197 0
174 197 0
175 198 0
175 198 0
173 197 0
175 198 0
175 198 0
174 197 0
174 198 0
175 198 0
173 197 0
175 198 0
173 197 0
174 197 0
173 196 0
174 198 0
175 198 0
174 198 0
174 198 0
175 198 0
172 196 0
176 198 0
174 197 0
175 198 0
174 197 0
174 198 0
173 197 0
174 197 0
173 197 0
174 198 0
176 199 0
174 197 0
174 197 0
173 197 0
175 198 0
173 197 0
175 198 0
176 198 0
174 197 0
173 197 0
174 198 0
175 198 0
173 197 0
174 197 0
173 197 0
174 198 0
174 197 0
173 197 0
174 197 0
175 198 0
174 198 0
175 198 0
175 198 0
175 198 0
175 198 0
174 197 0
175 198 0
174 198 0
174 197 0
173 196 0
173 197 0
172 197 0
174 197 0
174 198 0
174 198 0
173 197 0
174 198 0
176 199 0
175 198 0
174 198 0
173 197 0
174 198 0
173 197 0
174 198 0
175 198 0
174 198 0
173 197 0
175 198 0
174 197 0
174 198 0
176 199 0
174 198 0
176 198 0
174 197 0
175 198 0
174 198 0
174 197 0
174 198 0
175 198 0
175 198 0
174 198 0
173 197 0
174 197 0
175 198 0
174 198 0
175 198 0
175 198 0
173 197 0
173 197 0
175 198 0
174 197 0
175 198 0
174 198 0
174 198 0
175 198 0
175 198 0
174 197 0
173 197 0
174 198 0
175 198 0
174 197 0
174 198 0
176 199 0
174 197 0
173 197 0
176 198 0
174 198 0
175 198 0
174 198 0
173 197 0
174 197 0
175 198 0
173 197 0
174 198 0
174 197 0
174 198 0
174 197 0
175 198 0
174 197 0
173 197 0
175 198 0
173 197 0
173 196 0
174 198 0
175 198 0
175 198 0
174 198 0
173 197 0
174 198 0
174 197 0
173 197 0
172 196 0
175 198 0
174 198 0
173 197 0
175 198 0
175 198 0
176 199 0
174 197 0
175 198 0
174 198 0
174 197 0
173 197 0
174 198 0
173 197 0
175 198 0
174 197 0
174 197 0
172 196 0
173 197 0
173 197 0
175 198 0
174 198 0
174 198 0
175 198 0
173 197 0
173 197 0
173 197 0
175 198 0
173 196 0
173 196 0
174 198 0
174 197 0
172 197 0
173 197 0
173 197 0
171 195 0
174 197 0
174 197 0
171 195 0
173 196 0
174 198 0
172 196 0
174 197 0
176 199 0
173 196 0
172 196 0
172 195 0
173 197 0
172 196 0
173 197 0
173 197 0
172 196 0
173 197 0
171 195 0
172 196 0
172 196 0
174 197 0
173 196 0
173 196 0
172 196 0
174 197 0
171 196 0
173 197 0
173 197 0
173 196 0
173 197 0
172 196 0
169 193 0
172 196 0
176 198 0
173 196 0
171 194 0
172 196 0
174 197 0
173 197 0
172 195 0
171 195 0
174 197 0
174 197 0
173 196 0
173 196 0
172 195 0
173 197 0
171 195 0
170 194 0
172 195 0
172 195 0
170 193 0
170 193 0
171 195 0
173 196 0
172 195 0
171 195 0
173 196 0
173 197 0
171 195 0
174 197 0
171 195 0
168 192 0
170 193 0
169 193 0
171 194 0
171 195 0
174 197 0
174 197 0
171 195 0
170 193 0
173 196 0
168 192 0
171 194 0
172 196 0
174 196 0
171 194 0
173 196 0
169 193 0
168 191 0
169 193 0
172 196 0
170 194 0
172 195 0
171 195 0
171 195 0
168 192 0
172 195 0
170 193 0
170 194 0
169 193 0
170 194 0
168 192 0
170 193 0
169 192 0
172 196 0
173 197 0
170 194 0
170 193 0
173 196 0
167 190 0
172 195 0
172 196 0
172 195 0
170 194 0
174 197 0
173 197 0
172 195 0
174 197 0
173 197 0
171 195 0
172 196 0
172 196 0
170 193 0
173 196 0
168 192 0
173 196 0
175 197 0
170 193 0
172 195 0
172 195 0
175 198 0
172 195 0
171 194 0
171 195 0
173 196 0
173 195 0
169 194 0
174 197 0
172 196 0
171 195 0
171 195 0
172 196 0
170 194 0
173 196 0
174 197 0
172 195 0
174 197 0
171 196 0
172 196 0
172 195 0
174 197 0
173 197 0
173 196 0
172 196 0
174 197 0
174 197 0
171 194 0
170 194 0
173 196 0
173 197 0
174 197 0
174 197 0
172 196 0
173 196 0
171 195 0
173 197 0
173 197 0
174 197 0
174 197 0
174 197 0
173 197 0
172 195 0
173 197 0
172 197 0
173 197 0
171 194 0
173 197 0
174 198 0
174 198 0
173 196 0
174 198 0
176 199 0
174 197 0
174 197 0
173 197 0
175 197 0
173 197 0
173 197 0
174 198 0
175 197 0
174 197 0
174 197 0
174 197 0
171 194 0
176 198 0
172 196 0
174 197 0
174 197 0
173 197 0
173 197 0
173 197 0
173 197 0
173 196 0
172 196 0
175 198 0
174 197 0
173 197 0
174 198 0
174 198 0
173 197 0
173 197 0
175 198 0
174 197 0
175 198 0
175 198 0
174 196 0
173 197 0
173 197 0
174 198 0
174 197 0
176 198 0
176 199 0
175 198 0
175 198 0
176 199 0
174 198 0
174 197 0
174 198 0
173 197 0
174 198 0
174 197 0
175 198 0
175 198 0
175 198 0
172 196 0
174 198 0
175 198 0
173 197 0
174 198 0
174 197 0
174 198 0
174 197 0
175 198 0
174 198 0
171 195 0
175 198 0
175 198 0
174 198 0
175 198 0
173 197 0
174 198 0
177 199 0
177 199 0
174 197 0
174 198 0
173 197 0
174 198 0
174 198 0
176 199 0
174 198 0
175 198 0
174 197 0
176 199 0
174 198 0
174 197 0
175 198 0
173 197 0
175 198 0
173 197 0
175 198 0
174 198 0
173 197 0
175 198 0
175 198 0
173 197 0
175 198 0
175 198 0
173 197 0
174 198 0
175 198 0
175 198 0
173 197 0
175 198 0
174 198 0
174 198 0
175 198 0
175 198 0
175 198 0
176 198 0
176 198 0
176 199 0
173 197 0
175 198 0
174 198 0
174 198 0
172 197 0
174 198 0
175 198 0
174 198 0
175 198 0
173 197 0
174 197 0
175 198 0
176 199 0
176 198 0
175 198 0
174 198 0
175 198 0
175 198 0
175 198 0
175 198 0
174 198 0
173 197 0
175 198 0
176 199 0
174 198 0
175 198 0
175 198 0
175 198 0
175 198 0
175 198 0
174 198 0
174 197 0
174 197 0
172 196 0
176 198 0
174 198 0
175 198 0
176 198 0
175 198 0
173 197 0
175 198 0
174 198 0
176 198 0
175 198 0
174 198 0
175 198 0
173 197 0
175 198 0
175 198 0
174 198 0
174 197 0
176 199 0
172 196 0
173 197 0
175 198 0
175 198 0
175 198 0
175 198 0
176 199 0
173 197 0
174 198 0
176 198 0
176 198 0
174 197 0
174 198 0
174 197 0
176 199 0
175 198 0
174 197 0
175 198 0
172 196 0
173 197 0
175 198 0
173 197 0
174 197 0
176 199 0
175 198 0
175 198 0
174 198 0
173 197 0
176 199 0
173 197 0
174 197 0
175 198 0
175 198 0
174 198 0
172 196 0
175 198 0
172 196 0
172 196 0
174 198 0
175 198 0
175 198 0
174 197 0
174 198 0
174 198 0
176 199 0
174 198 0
173 197 0
176 199 0
174 197 0
173 197 0
174 198 0
175 198 0
173 197 0
176 199 0
173 197 0
174 197 0
175 198 0
174 198 0
172 196 0
174 197 0
172 196 0
173 197 0
175 198 0
173 197 0
172 196 0
172 196 0
174 198 0
175 198 0
175 198 0
174 197 0
173 197 0
174 197 0
176 199 0
173 197 0
176 198 0
172 197 0
175 198 0
175 198 0
175 198 0
174 198 0
173 197 0
175 198 0
174 198 0
175 198 0
173 197 0
172 196 0
175 198 0
174 197 0
173 197 0
174 197 0
175 198 0
173 197 0
172 196 0
174 198 0
171 196 0
172 195 0
172 196 0
172 195 0
173 197 0
172 195 0
172 196 0
175 198 0
173 197 0
174 198 0
173 197 0
175 198 0
169 193 0
172 196 0
170 193 0
173 197 0
172 196 0
170 193 0
174 197 0
176 199 0
173 197 0
173 197 0
172 196 0
174 197 0
173 196 0
171 195 0
172 196 0
171 195 0
174 196 0
174 198 0
171 194 0
173 197 0
173 196 0
171 195 0
172 195 0
170 194 0
169 193 0
172 195 0
173 196 0
172 196 0
173 196 0
169 194 0
172 196 0
172 196 0
172 196 0
172 195 0
170 194 0
171 195 0
173 196 0
170 193 0
173 196 0
172 195 0
172 196 0
172 195 0
175 198 0
173 197 0
171 195 0
171 195 0
175 198 0
172 195 0
171 195 0
169 194 0
173 197 0
173 197 0
171 194 0
168 191 0
172 196 0
170 194 0
171 196 0
172 195 0
174 197 0
170 194 0
170 194 0
172 196 0
170 194 0
173 197 0
171 195 0
173 197 0
170 193 0
171 193 0
173 196 0
170 193 0
172 194 0
173 196 0
172 195 0
173 196 0
172 196 0
172 195 0
173 196 0
174 198 0
172 194 0
174 197 0
173 196 0
172 195 0
174 197 0
171 195 0
175 197 0
173 196 0
174 197 0
175 197 0
172 196 0
175 198 0
171 195 0
174 197 0
174 196 0
172 196 0
170 194 0
172 196 0
175 198 0
173 197 0
174 197 0
173 196 0
171 195 0
173 197 0
172 195 0
172 195 0
174 197 0
173 196 0
173 196 0
173 196 0
174 197 0
174 197 0
172 195 0
174 197 0
173 197 0
171 194 0
175 198 0
174 198 0
172 194 0
173 196 0
173 196 0
172 195 0
175 198 0
172 194 0
173 196 0
173 196 0
172 195 0
173 197 0
175 198 0
173 196 0
174 198 0
174 198 0
174 198 0
174 197 0
171 195 0
172 196 0
173 197 0
173 196 0
172 196 0
174 198 0
173 197 0
173 197 0
173 196 0
172 196 0
174 197 0
175 198 0
173 197 0
173 196 0
175 198 0
172 196 0
174 198 0
172 195 0
174 197 0
173 197 0
173 197 0
174 198 0
175 197 0
172 196 0
173 197 0
174 198 0
174 197 0
174 198 0
175 198 0
174 198 0
174 197 0
174 198 0
174 197 0
176 198 0
174 197 0
173 196 0
173 196 0
173 197 0
174 198 0
175 198 0
175 198 0
175 198 0
173 197 0
173 197 0
174 197 0
175 198 0
174 197 0
175 198 0
174 197 0
174 197 0
174 198 0
174 198 0
174 197 0
174 198 0
174 198 0
173 197 0
173 197 0
171 196 0
176 198 0
174 198 0
174 198 0
174 197 0
175 198 0
173 197 0
175 198 0
173 197 0
173 197 0
173 197 0
174 198 0
175 198 0
174 198 0
172 197 0
174 198 0
175 198 0
175 198 0
175 198 0
174 197 0
175 198 0
174 198 0
175 198 0
173 197 0
174 198 0
173 197 0
173 197 0
174 198 0
173 197 0
174 198 0
175 198 0
175 198 0
174 198 0
174 198 0
176 199 0
175 197 0
173 197 0
173 196 0
174 197 0
172 196 0
175 198 0
174 198 0
175 198 0
173 197 0
176 198 0
174 198 0
172 196 0
174 197 0
175 198 0
174 197 0
174 198 0
175 198 0
174 197 0
175 198 0
173 197 0
173 197 0
173 197 0
174 197 0
175 198 0
175 198 0
174 197 0
174 197 0
176 198 0
174 198 0
176 199 0
174 197 0
175 198 0
175 198 0
174 198 0
173 197 0
175 198 0
173 197 0
173 197 0
174 198 0
173 197 0
173 197 0
175 198 0
174 198 0
173 197 0
175 198 0
174 198 0
175 198 0
174 197 0
174 197 0
174 197 0
176 199 0
175 198 0
173 197 0
176 199 0
175 198 0
175 198 0
173 197 0
175 198 0
174 197 0
175 198 0
172 196 0
176 199 0
174 197 0
175 198 0
175 198 0
174 197 0
174 197 0
175 198 0
175 198 0
174 197 0
174 197 0
175 198 0
174 198 0
175 198 0
175 198 0
174 198 0
174 198 0
174 197 0
173 196 0
174 197 0
172 196 0
175 198 0
175 198 0
174 197 0
172 197 0
174 197 0
176 198 0
174 198 0
174 198 0
174 198 0
175 198 0
175 198 0
173 197 0
173 196 0
175 198 0
173 197 0
174 198 0
174 197 0
175 198 0
173 197 0
174 198 0
174 198 0
174 198 0
173 197 0
173 196 0
175 198 0
174 197 0
176 198 0
173 196 0
175 198 0
175 198 0
176 198 0
172 196 0
172 196 0
174 198 0
175 197 0
173 196 0
173 197 0
173 197 0
173 197 0
173 196 0
173 197 0
175 198 0
173 197 0
175 198 0
172 196 0
174 198 0
173 197 0
174 197 0
176 199 0
175 198 0
174 197 0
171 196 0
173 197 0
172 196 0
172 196 0
171 196 0
172 197 0
174 198 0
174 197 0
174 197 0
172 196 0
175 198 0
170 194 0
174 198 0
174 198 0
174 197 0
172 196 0
175 198 0
173 197 0
173 196 0
172 196 0
170 194 0
174 197 0
174 197 0
172 196 0
173 197 0
174 198 0
173 197 0
174 198 0
176 199 0
172 196 0
174 197 0
172 196 0
173 197 0
173 197 0
171 196 0
174 198 0
173 197 0
173 196 0
172 197 0
174 197 0
173 196 0
173 196 0
172 195 0
173 197 0
174 197 0
173 196 0
173 196 0
172 196 0
171 194 0
174 197 0
171 194 0
173 197 0
173 197 0
176 198 0
174 197 0
174 197 0
173 196 0
173 196 0
175 197 0
173 197 0
173 195 0
172 196 0
173 197 0
174 196 0
174 197 0
170 193 0
171 196 0
173 196 0
172 196 0
173 196 0
172 196 0
170 194 0
172 195 0
171 194 0
169 193 0
172 196 0
171 194 0
172 196 0
168 193 0
171 195 0
170 193 0
172 195 0
173 196 0
168 191 0
173 196 0
171 195 0
171 194 0
170 193 0
169 193 0
172 195 0
171 194 0
174 197 0
172 196 0
172 196 0
172 195 0
169 193 0
172 195 0
171 195 0
171 195 0
170 194 0
170 194 0
170 193 0
167 191 0
174 196 0
172 196 0
171 195 0
171 194 0
171 195 0
172 196 0
173 197 0
172 195 0
170 194 0
172 196 0
172 195 0
173 196 0
173 197 0
170 194 0
173 196 0
172 196 0
173 196 0
169 193 0
174 197 0
173 196 0
172 194 0
169 192 0
171 195 0
172 196 0
174 197 0
173 197 0
173 196 0
171 194 0
173 197 0
173 196 0
169 193 0
172 195 0
172 195 0
171 194 0
175 198 0
172 194 0
173 197 0
174 197 0
170 193 0
172 196 0
173 197 0
173 196 0
171 196 0
172 196 0
172 196 0
174 197 0
173 197 0
173 196 0
173 197 0
174 197 0
175 197 0
169 193 0
172 196 0
172 196 0
174 198 0
171 195 0
172 195 0
174 197 0
173 197 0
173 197 0
176 198 0
173 195 0
174 197 0
174 197 0
174 197 0
172 196 0
173 196 0
176 198 0
173 197 0
175 198 0
174 197 0
173 197 0
173 197 0
174 197 0
174 198 0
175 198 0
174 197 0
175 198 0
174 197 0
172 195 0
175 198 0
174 198 0
176 198 0
174 197 0
175 198 0
173 196 0
174 197 0
173 197 0
173 197 0
174 197 0
175 198 0
174 198 0
173 197 0
173 196 0
174 198 0
172 196 0
175 198 0
174 198 0
175 198 0
173 197 0
176 199 0
173 196 0
174 197 0
174 198 0
174 197 0
173 197 0
175 198 0
175 197 0
173 197 0
174 197 0
174 198 0
174 198 0
176 198 0
175 198 0
174 196 0
173 197 0
175 198 0
175 198 0
175 198 0
173 197 0
175 198 0
174 198 0
174 197 0
175 198 0
172 196 0
173 197 0
173 197 0
175 198 0
174 197 0
176 198 0
174 197 0
174 197 0
174 197 0
176 198 0
174 198 0
174 198 0
174 198 0
176 198 0
173 197 0
175 198 0
174 197 0
175 198 0
175 198 0
174 197 0
174 197 0
174 198 0
174 198 0
173 197 0
175 198 0
174 198 0
173 197 0
175 198 0
174 197 0
173 197 0
175 198 0
174 198 0
175 198 0
175 198 0
177 199 0
174 197 0
175 198 0
173 197 0
174 197 0
173 197 0
173 197 0
175 198 0
174 198 0
175 198 0
174 198 0
172 196 0
175 198 0
176 199 0
174 197 0
176 199 0
173 197 0
174 198 0
172 196 0
175 198 0
175 198 0
175 198 0
173 197 0
175 198 0
175 198 0
175 198 0
175 198 0
174 198 0
176 198 0
174 198 0
175 198 0
175 198 0
174 198 0
174 197 0
174 198 0
174 198 0
175 198 0
174 197 0
175 198 0
174 198 0
175 198 0
174 198 0
175 198 0
174 197 0
174 198 0
175 198 0
175 198 0
172 197 0
174 198 0
174 198 0
173 197 0
175 198 0
174 198 0
173 197 0
174 198 0
173 197 0
174 198 0
172 197 0
174 197 0
175 197 0
174 198 0
175 198 0
173 197 0
173 197 0
175 198 0
174 198 0
173 197 0
175 198 0
175 198 0
175 198 0
173 197 0
174 198 0
175 198 0
174 197 0
173 197 0
175 198 0
176 199 0
174 198 0
172 196 0
173 197 0
174 198 0
175 198 0
173 197 0
174 198 0
175 198 0
172 196 0
174 198 0
174 198 0
173 197 0
174 197 0
174 198 0
174 198 0
174 198 0
175 198 0
174 198 0
174 197 0
174 197 0
176 198 0
175 198 0
173 197 0
175 198 0
174 198 0
174 197 0
173 197 0
174 198 0
175 198 0
174 197 0
175 198 0
173 197 0
176 199 0
173 197 0
175 198 0
173 197 0
173 197 0
175 198 0
175 198 0
174 197 0
173 197 0
173 197 0
174 198 0
176 199 0
174 198 0
171 195 0
172 196 0
173 197 0
172 197 0
175 198 0
173 197 0
173 197 0
174 198 0
172 196 0
173 196 0
174 197 0
175 198 0
172 195 0
173 197 0
176 199 0
175 198 0
174 198 0
174 198 0
174 197 0
174 197 0
174 197 0
173 197 0
173 197 0
175 198 0
175 198 0
172 196 0
172 195 0
172 196 0
174 198 0
175 198 0
174 198 0
175 197 0
173 196 0
176 199 0
173 196 0
176 198 0
173 196 0
175 198 0
174 197 0
174 197 0
175 198 0
173 197 0
175 197 0
173 197 0
174 197 0
173 197 0
171 195 0
173 196 0
174 197 0
173 196 0
171 195 0
172 195 0
175 198 0
173 196 0
173 196 0
174 198 0
175 198 0
172 196 0
171 195 0
173 197 0
173 197 0
172 196 0
173 196 0
175 198 0
171 195 0
174 197 0
172 196 0
171 195 0
174 197 0
171 195 0
174 196 0
173 197 0
174 197 0
174 197 0
175 197 0
173 196 0
174 197 0
172 195 0
171 195 0
171 195 0
176 198 0
172 195 0
172 196 0
171 195 0
173 196 0
172 195 0
172 195 0
172 196 0
171 195 0
171 195 0
173 196 0
172 196 0
169 192 0
172 196 0
172 196 0
172 196 0
171 195 0
171 194 0
170 194 0
173 196 0
172 196 0
171 194 0
174 197 0
172 196 0
170 194 0
171 194 0
171 194 0
171 193 0
171 195 0
170 193 0
173 197 0
172 195 0
171 194 0
171 194 0
172 196 0
171 194 0
172 196 0
171 195 0
173 196 0
174 197 0
170 194 0
172 196 0
171 195 0
175 198 0
172 195 0
172 195 0
168 192 0
170 193 0
172 195 0
172 196 0
169 192 0
173 196 0
172 194 0
173 196 0
173 197 0
171 195 0
173 196 0
174 198 0
171 195 0
172 196 0
175 198 0
171 194 0
175 197 0
174 196 0
173 197 0
173 197 0
172 196 0
173 197 0
174 198 0
171 195 0
172 196 0
171 194 0
173 197 0
173 196 0
175 198 0
174 197 0
172 196 0
171 194 0
172 196 0
173 196 0
173 196 0
173 197 0
173 196 0
171 194 0
174 197 0
175 198 0
173 196 0
174 197 0
173 196 0
176 198 0
173 197 0
173 197 0
172 195 0
174 197 0
173 196 0
173 197 0
173 197 0
172 196 0
174 197 0
173 197 0
174 197 0
170 194 0
174 197 0
173 197 0
175 198 0
172 196 0
174 197 0
171 195 0
172 195 0
176 199 0
174 197 0
175 198 0
173 196 0
172 196 0
172 196 0
173 196 0
175 197 0
173 196 0
174 198 0
172 196 0
174 197 0
172 196 0
174 196 0
175 198 0
174 197 0
175 198 0
175 198 0
175 198 0
172 196 0
173 195 0
174 197 0
173 197 0
174 197 0
174 197 0
175 198 0
173 197 0
174 197 0
175 198 0
173 197 0
173 196 0
174 198 0
173 197 0
175 198 0
174 198 0
175 198 0
175 198 0
174 197 0
172 196 0
172 196 0
175 198 0
174 197 0
175 198 0
171 194 0
173 197 0
175 198 0
173 197 0
173 196 0
175 198 0
175 198 0
175 198 0
173 197 0
172 197 0
175 198 0
176 198 0
175 198 0
174 198 0
173 197 0
174 198 0
174 198 0
174 197 0
174 197 0
174 197 0
173 197 0
172 196 0
175 198 0
173 197 0
176 198 0
175 198 0
175 198 0
173 197 0
175 198 0
174 197 0
175 198 0
174 197 0
174 198 0
174 198 0
173 197 0
173 197 0
173 197 0
176 198 0
175 198 0
173 197 0
172 196 0
174 198 0
174 197 0
173 197 0
173 197 0
175 198 0
175 198 0
175 198 0
175 198 0
175 198 0
174 198 0
174 198 0
175 198 0
174 197 0
172 197 0
173 197 0
174 198 0
174 197 0
173 197 0
174 198 0
173 197 0
173 197 0
174 198 0
174 198 0
171 196 0
175 198 0
172 196 0
175 198 0
174 198 0
172 197 0
174 198 0
174 197 0
174 197 0
174 197 0
173 197 0
174 197 0
174 198 0
174 198 0
173 197 0
175 198 0
176 198 0
174 198 0
173 196 0
173 197 0
173 197 0
175 198 0
173 197 0
175 198 0
175 198 0
175 198 0
174 198 0
174 198 0
175 198 0
174 198 0
175 198 0
175 198 0
176 199 0
175 198 0
175 198 0
175 198 0
174 198 0
174 198 0
175 198 0
175 198 0
173 197 0
175 198 0
175 198 0
173 196 0
176 198 0
175 198 0
174 198 0
174 197 0
175 198 0
174 198 0
174 197 0
173 197 0
174 197 0
174 197 0
173 197 0
174 197 0
174 198 0
176 198 0
174 197 0
175 198 0
175 198 0
174 198 0
176 198 0
175 198 0
174 197 0
173 197 0
173 196 0
174 197 0
173 197 0
176 199 0
175 198 0
175 198 0
174 198 0
175 198 0
174 198 0
174 197 0
172 196 0
174 198 0
173 197 0
175 198 0
175 198 0
174 197 0
174 197 0
174 197 0
173 197 0
174 198 0
173 197 0
175 198 0
175 198 0
174 197 0
174 198 0
173 197 0
175 198 0
174 198 0
172 196 0
174 198 0
175 198 0
174 198 0
175 198 0
174 198 0
173 197 0
175 198 0
174 198 0
172 196 0
174 197 0
174 197 0
175 198 0
177 199 0
174 197 0
176 198 0
174 197 0
174 197 0
175 198 0
173 196 0
175 198 0
174 198 0
175 198 0
172 196 0
174 198 0
173 197 0
174 198 0
174 197 0
173 197 0
172 196 0
171 195 0
172 196 0
174 197 0
175 198 0
175 198 0
172 196 0
172 196 0
174 197 0
173 197 0
174 197 0
172 195 0
173 197 0
175 198 0
173 196 0
174 197 0
174 197 0
173 196 0
173 197 0
175 198 0
173 196 0
173 197 0
174 198 0
173 196 0
172 195 0
172 195 0
172 196 0
171 195 0
172 196 0
172 195 0
172 196 0
175 198 0
174 197 0
174 197 0
174 197 0
174 197 0
172 196 0
173 197 0
175 197 0
172 195 0
172 195 0
173 197 0
173 197 0
174 198 0
172 196 0
174 197 0
173 195 0
170 194 0
173 197 0
172 196 0
173 196 0
173 197 0
173 197 0
173 196 0
171 194 0
172 196 0
170 194 0
171 195 0
171 195 0
173 196 0
171 195 0
171 195 0
172 195 0
172 194 0
175 198 0
169 193 0
171 195 0
173 196 0
172 196 0
172 195 0
171 194 0
170 195 0
171 195 0
172 196 0
173 196 0
172 195 0
171 194 0
175 198 0
171 194 0
173 196 0
173 196 0
171 194 0
172 195 0
173 196 0
173 197 0
173 196 0
172 195 0
171 194 0
169 193 0
171 194 0
171 194 0
170 194 0
173 197 0
169 192 0
170 194 0
171 195 0
172 196 0
173 196 0
172 196 0
174 197 0
171 195 0
173 196 0
175 198 0
173 196 0
173 196 0
170 193 0
172 196 0
170 193 0
172 196 0
171 194 0
173 197 0
174 196 0
173 196 0
173 196 0
171 195 0
172 196 0
171 194 0
172 195 0
171 194 0
173 197 0
172 196 0
172 196 0
173 197 0
173 196 0
173 197 0
171 193 0
174 198 0
172 195 0
168 192 0
171 194 0
172 196 0
172 195 0
172 196 0
173 196 0
171 195 0
172 196 0
174 197 0
172 195 0
171 194 0
173 196 0
173 196 0
174 196 0
172 196 0
175 198 0
174 197 0
173 197 0
173 196 0
174 197 0
173 197 0
174 197 0
174 198 0
173 196 0
172 195 0
174 197 0
173 196 0
173 197 0
172 195 0
174 198 0
173 197 0
174 197 0
174 197 0
172 195 0
174 197 0
171 195 0
172 195 0
172 195 0
173 196 0
174 197 0
175 198 0
172 196 0
172 196 0
172 195 0
176 198 0
173 197 0
173 197 0
174 197 0
174 197 0
174 197 0
171 195 0
174 197 0
175 198 0
173 197 0
173 197 0
172 196 0
174 197 0
173 197 0
175 198 0
174 198 0
174 198 0
175 198 0
175 198 0
174 197 0
173 197 0
173 197 0
175 198 0
173 197 0
174 198 0
173 197 0
173 197 0
175 198 0
175 197 0
174 198 0
175 198 0
175 198 0
174 197 0
174 197 0
175 198 0
173 196 0
173 196 0
174 197 0
174 197 0
173 196 0
172 196 0
173 196 0
175 198 0
175 198 0
174 198 0
172 196 0
175 198 0
173 197 0
176 199 0
172 196 0
175 198 0
174 197 0
175 197 0
174 197 0
174 197 0
173 197 0
173 196 0
175 198 0
173 197 0
174 197 0
174 197 0
176 198 0
174 197 0
174 197 0
174 197 0
175 198 0
174 197 0
175 198 0
175 198 0
174 198 0
175 198 0
173 196 0
175 198 0
175 198 0
174 197 0
173 197 0
174 197 0
174 197 0
175 198 0
174 198 0
173 197 0
174 198 0
175 198 0
175 198 0
173 197 0
175 198 0
175 198 0
174 198 0
174 198 0
173 197 0
174 198 0
173 197 0
175 198 0
175 198 0
175 198 0
175 198 0
174 197 0
175 198 0
173 197 0
176 199 0
175 198 0
176 198 0
173 197 0
174 198 0
171 196 0
174 197 0
174 198 0
174 198 0
175 198 0
176 199 0
174 198 0
174 198 0
173 197 0
176 199 0
174 198 0
173 197 0
174 198 0
173 197 0
175 198 0
174 198 0
173 197 0
175 198 0
175 198 0
174 198 0
173 197 0
173 197 0
173 197 0
173 197 0
175 198 0
174 198 0
173 197 0
173 197 0
174 197 0
175 198 0
174 198 0
175 198 0
175 198 0
174 198 0
173 197 0
174 197 0
174 197 0
173 197 0
174 198 0
175 198 0
174 198 0
176 198 0
172 197 0
176 199 0
174 197 0
175 198 0
175 198 0
175 198 0
174 198 0
175 198 0
173 197 0
173 197 0
175 198 0
174 197 0
174 198 0
175 198 0
174 197 0
175 198 0
175 198 0
174 198 0
173 197 0
175 198 0
175 198 0
175 198 0
176 199 0
175 198 0
174 198 0
174 198 0
174 197 0
172 196 0
173 197 0
174 198 0
176 199 0
174 198 0
174 197 0
175 198 0
176 199 0
173 197 0
174 197 0
175 198 0
176 198 0
173 197 0
174 198 0
173 197 0
174 197 0
175 198 0
174 198 0
174 198 0
174 198 0
174 198 0
176 199 0
173 197 0
174 198 0
173 197 0
174 198 0
173 197 0
175 198 0
174 198 0
174 198 0
174 198 0
174 197 0
171 196 0
174 198 0
174 198 0
174 197 0
175 198 0
173 197 0
175 198 0
174 197 0
175 198 0
173 197 0
175 198 0
175 198 0
175 198 0
176 198 0
175 197 0
174 197 0
174 198 0
174 197 0
175 198 0
173 197 0
174 197 0
173 197 0
170 194 0
173 196 0
173 197 0
175 198 0
173 196 0
174 198 0
175 198 0
174 197 0
173 197 0
173 196 0
176 198 0
174 198 0
173 197 0
173 197 0
174 197 0
175 198 0
173 197 0
175 198 0
173 197 0
172 196 0
174 197 0
175 198 0
174 197 0
175 198 0
172 196 0
173 197 0
173 197 0
174 197 0
172 196 0
172 196 0
172 196 0
174 197 0
173 197 0
170 194 0
175 198 0
173 196 0
172 196 0
171 195 0
173 197 0
172 196 0
173 196 0
172 196 0
173 196 0
174 197 0
170 194 0
174 197 0
174 197 0
173 196 0
174 196 0
172 196 0
173 196 0
171 196 0
172 196 0
174 197 0
171 195 0
172 195 0
175 198 0
170 194 0
172 196 0
172 195 0
175 197 0
172 196 0
172 195 0
173 197 0
172 195 0
174 197 0
173 196 0
174 197 0
172 196 0
172 196 0
173 196 0
172 195 0
172 195 0
172 196 0
172 195 0
171 195 0
172 196 0
174 197 0
173 196 0
173 197 0
171 195 0
170 193 0
170 194 0
173 196 0
171 194 0
172 196 0
173 196 0
171 195 0
172 195 0
172 195 0
171 195 0
169 193 0
169 193 0
171 194 0
169 192 0
173 196 0
175 197 0
166 189 0
172 196 0
174 198 0
169 193 0
172 195 0
170 195 0
174 197 0
173 196 0
170 193 0
174 197 0
171 194 0
173 196 0
175 198 0
173 197 0
170 194 0
173 196 0
171 194 0
171 195 0
171 195 0
172 196 0
171 194 0
174 197 0
172 195 0
173 196 0
174 197 0
170 194 0
174 196 0
172 195 0
170 194 0
173 197 0
175 198 0
174 197 0
172 196 0
173 197 0
171 195 0
173 196 0
173 197 0
172 196 0
172 195 0
173 196 0
175 198 0
175 198 0
173 197 0
172 197 0
174 197 0
172 195 0
175 197 0
173 196 0
173 197 0
175 198 0
174 197 0
175 198 0
172 195 0
172 195 0
172 196 0
172 196 0
173 197 0
174 198 0
175 198 0
173 196 0
173 197 0
174 198 0
175 198 0
175 198 0
172 196 0
173 196 0
172 195 0
172 196 0
173 197 0
173 196 0
173 196 0
175 198 0
175 198 0
174 198 0
173 197 0
174 197 0
174 197 0
174 197 0
174 197 0
176 199 0
175 198 0
173 197 0
175 198 0
173 197 0
174 196 0
174 197 0
174 198 0
174 197 0
173 197 0
174 197 0
174 197 0
174 197 0
173 197 0
173 197 0
173 197 0
173 197 0
173 197 0
173 196 0
173 197 0
174 197 0
173 197 0
174 198 0
175 198 0
174 197 0
174 197 0
174 197 0
173 197 0
175 198 0
176 198 0
174 197 0
174 197 0
174 198 0
175 197 0
174 197 0
173 197 0
174 197 0
174 197 0
174 197 0
173 197 0
174 198 0
174 198 0
174 197 0
175 198 0
174 198 0
173 196 0
173 196 0
174 197 0
173 197 0
174 197 0
174 197 0
174 197 0
173 197 0
173 197 0
176 199 0
174 198 0
174 197 0
175 198 0
174 198 0
173 197 0
176 198 0
175 198 0
176 199 0
174 198 0
172 196 0
173 197 0
175 198 0
174 197 0
174 198 0
173 197 0
174 197 0
173 197 0
173 196 0
174 197 0
175 198 0
175 198 0
175 198 0
176 199 0
175 198 0
174 198 0
174 198 0
175 198 0
175 198 0
173 197 0
173 197 0
173 196 0
175 198 0
175 198 0
174 198 0
174 197 0
174 198 0
174 197 0
174 198 0
176 199 0
176 199 0
175 198 0
175 198 0
174 198 0
175 198 0
175 198 0
175 198 0
174 197 0
175 198 0
175 198 0
175 198 0
174 197 0
174 198 0
175 198 0
175 198 0
172 197 0
177 199 0
174 198 0
175 198 0
173 197 0
174 197 0
173 197 0
174 198 0
174 198 0
174 198 0
176 199 0
174 197 0
174 198 0
176 199 0
174 197 0
176 198 0
174 198 0
175 198 0
175 198 0
174 198 0
173 197 0
173 197 0
174 198 0
174 197 0
174 198 0
174 198 0
174 198 0
172 196 0
174 198 0
174 198 0
173 197 0
174 198 0
175 198 0
176 199 0
175 198 0
174 197 0
174 197 0
175 198 0
174 197 0
176 198 0
176 199 0
174 198 0
174 197 0
174 198 0
174 198 0
173 197 0
175 198 0
173 197 0
174 198 0
174 198 0
175 198 0
174 197 0
176 199 0
174 198 0
173 197 0
174 198 0
175 198 0
175 198 0
174 197 0
176 199 0
173 197 0
175 198 0
174 198 0
174 197 0
174 198 0
175 198 0
175 198 0
173 197 0
172 197 0
172 196 0
174 198 0
174 197 0
173 197 0
176 198 0
175 198 0
175 198 0
173 197 0
173 197 0
174 197 0
174 198 0
176 199 0
175 198 0
174 197 0
174 198 0
175 198 0
175 198 0
174 198 0
173 197 0
175 198 0
174 197 0
174 198 0
173 197 0
173 197 0
173 196 0
175 198 0
174 197 0
175 198 0
174 197 0
174 197 0
174 197 0
174 198 0
175 198 0
174 197 0
175 198 0
173 197 0
173 197 0
174 198 0
174 198 0
172 196 0
175 198 0
173 197 0
174 197 0
173 197 0
172 196 0
174 197 0
174 197 0
174 197 0
175 198 0
174 197 0
173 197 0
173 197 0
173 196 0
174 197 0
173 196 0
173 197 0
173 196 0
173 197 0
173 196 0
174 197 0
171 195 0
175 198 0
173 197 0
175 198 0
175 198 0
171 195 0
171 196 0
174 197 0
175 198 0
176 199 0
173 197 0
176 198 0
175 198 0
172 196 0
173 196 0
172 195 0
174 197 0
174 197 0
173 196 0
174 197 0
173 196 0
175 198 0
173 196 0
173 197 0
174 197 0
175 198 0
172 195 0
172 195 0
172 196 0
173 196 0
173 197 0
172 196 0
174 198 0
173 195 0
171 195 0
173 197 0
173 196 0
171 195 0
172 195 0
173 197 0
174 198 0
174 198 0
173 197 0
171 193 0
173 197 0
171 194 0
174 197 0
173 197 0
170 193 0
173 196 0
171 194 0
171 195 0
173 197 0
172 195 0
172 196 0
171 194 0
174 197 0
173 196 0
174 197 0
171 194 0
171 195 0
172 195 0
174 197 0
174 198 0
171 195 0
173 197 0
174 197 0
174 198 0
174 198 0
172 195 0
171 195 0
172 196 0
173 197 0
171 195 0
169 194 0
172 196 0
172 196 0
169 193 0
173 196 0
172 196 0
171 195 0
171 194 0
172 195 0
173 196 0
171 194 0
174 197 0
171 194 0
174 197 0
171 195 0
171 195 0
173 197 0
171 194 0
172 196 0
172 195 0
172 196 0
171 195 0
172 195 0
173 196 0
172 196 0
170 195 0
171 194 0
173 197 0
174 197 0
174 197 0
173 197 0
174 197 0
172 195 0
170 193 0
173 197 0
173 196 0
172 195 0
171 195 0
171 195 0
173 196 0
173 196 0
172 196 0
174 197 0
171 196 0
173 197 0
174 197 0
174 197 0
172 196 0
171 195 0
174 197 0
172 196 0
174 197 0
174 197 0
172 196 0
171 194 0
172 196 0
173 196 0
173 196 0
173 195 0
174 197 0
173 196 0
173 197 0
171 195 0
174 197 0
175 198 0
174 197 0
175 198 0
173 196 0
172 196 0
175 197 0
175 198 0
173 196 0
174 197 0
172 196 0
174 197 0
173 196 0
172 196 0
173 197 0
173 196 0
174 198 0
174 197 0
173 197 0
176 198 0
172 196 0
174 197 0
171 195 0
174 197 0
173 196 0
173 197 0
174 197 0
174 197 0
175 198 0
174 197 0
175 198 0
174 198 0
173 197 0
174 197 0
176 199 0
175 197 0
174 197 0
173 197 0
172 196 0
175 198 0
175 197 0
174 198 0
173 197 0
176 198 0
173 197 0
175 198 0
172 197 0
173 197 0
174 198 0
176 198 0
174 197 0
174 198 0
174 197 0
174 198 0
175 198 0
175 198 0
174 197 0
175 198 0
176 199 0
175 198 0
175 198 0
173 197 0
175 197 0
175 198 0
175 198 0
174 197 0
175 198 0
174 198 0
173 197 0
173 196 0
174 197 0
174 198 0
174 197 0
174 197 0
173 197 0
175 198 0
175 198 0
174 198 0
174 198 0
175 198 0
175 198 0
175 198 0
173 197 0
175 198 0
173 197 0
174 197 0
175 198 0
175 198 0
174 198 0
174 198 0
174 198 0
172 196 0
173 197 0
175 198 0
176 198 0
174 198 0
176 198 0
173 197 0
173 196 0
173 197 0
174 198 0
175 198 0
174 197 0
174 198 0
173 197 0
174 196 0
174 197 0
174 197 0
173 197 0
176 199 0
174 198 0
174 197 0
174 198 0
173 197 0
175 198 0
173 197 0
174 197 0
175 198 0
177 199 0
174 198 0
174 197 0
173 196 0
174 198 0
174 198 0
175 198 0
174 198 0
174 197 0
174 197 0
174 198 0
175 198 0
176 199 0
174 197 0
176 198 0
174 198 0
175 198 0
174 197 0
176 198 0
174 198 0
174 198 0
175 198 0
176 199 0
175 198 0
176 198 0
177 199 0
175 198 0
176 198 0
175 198 0
174 198 0
175 198 0
174 198 0
174 198 0
175 198 0
174 198 0
174 197 0
174 198 0
174 198 0
172 197 0
176 198 0
173 197 0
174 198 0
175 198 0
173 197 0
175 198 0
173 197 0
173 197 0
176 199 0
173 196 0
173 197 0
175 198 0
175 198 0
174 198 0
175 198 0
174 197 0
175 198 0
173 197 0
174 198 0
176 198 0
174 198 0
174 198 0
174 198 0
176 199 0
174 197 0
173 196 0
173 197 0
175 198 0
176 199 0
176 198 0
173 197 0
176 199 0
175 198 0
174 198 0
174 197 0
175 198 0
174 198 0
175 198 0
173 196 0
176 199 0
174 197 0
175 198 0
173 197 0
175 198 0
173 197 0
175 198 0
175 198 0
176 199 0
174 198 0
174 198 0
175 198 0
175 198 0
173 197 0
173 197 0
175 198 0
173 197 0
175 198 0
175 198 0
175 198 0
173 196 0
176 199 0
175 198 0
172 196 0
175 198 0
173 197 0
173 196 0
174 197 0
175 198 0
175 198 0
175 198 0
173 197 0
173 197 0
175 197 0
172 196 0
173 196 0
176 199 0
173 197 0
175 198 0
174 197 0
174 198 0
173 196 0
174 197 0
173 196 0
175 198 0
175 198 0
173 196 0
172 196 0
172 195 0
173 197 0
173 197 0
173 197 0
174 197 0
174 197 0
173 197 0
173 197 0
174 197 0
174 198 0
173 197 0
174 198 0
172 197 0
177 199 0
172 196 0
174 197 0
174 197 0
174 198 0
176 199 0
173 197 0
174 197 0
172 197 0
172 196 0
173 197 0
173 197 0
175 198 0
172 196 0
174 198 0
172 197 0
175 198 0
173 197 0
172 196 0
174 197 0
174 197 0
174 197 0
173 196 0
173 196 0
174 198 0
171 195 0
173 197 0
173 197 0
175 198 0
174 197 0
173 197 0
172 195 0
173 197 0
173 197 0
174 197 0
170 194 0
173 197 0
173 196 0
172 195 0
175 198 0
174 197 0
171 195 0
170 194 0
173 196 0
171 195 0
173 196 0
174 197 0
174 197 0
174 198 0
170 195 0
172 195 0
172 196 0
174 197 0
174 197 0
174 197 0
172 195 0
172 196 0
170 195 0
172 195 0
173 197 0
173 197 0
174 198 0
173 197 0
172 196 0
170 193 0
168 192 0
173 197 0
173 197 0
174 197 0
171 195 0
171 195 0
172 196 0
172 196 0
172 196 0
172 195 0
174 198 0
171 195 0
173 197 0
173 196 0
171 195 0
171 195 0
172 195 0
171 195 0
172 195 0
170 194 0
172 195 0
171 195 0
172 196 0
173 196 0
172 194 0
172 195 0
173 196 0
173 196 0
174 197 0
170 193 0
172 195 0
173 197 0
173 196 0
173 196 0
172 194 0
173 197 0
171 195 0
174 197 0
172 195 0
174 197 0
172 196 0
173 197 0
174 196 0
174 196 0
171 195 0
173 196 0
170 195 0
174 198 0
172 195 0
172 196 0
171 194 0
171 195 0
174 197 0
173 196 0
173 196 0
174 197 0
174 198 0
174 198 0
172 195 0
173 196 0
171 195 0
172 195 0
174 197 0
172 196 0
174 197 0
174 197 0
172 195 0
173 197 0
173 197 0
172 196 0
173 196 0
174 197 0
172 196 0
173 197 0
174 197 0
174 197 0
174 197 0
173 196 0
172 196 0
172 196 0
173 196 0
174 198 0
171 196 0
174 197 0
172 196 0
173 196 0
173 196 0
173 197 0
175 198 0
174 198 0
173 196 0
172 196 0
175 198 0
174 197 0
174 196 0
172 197 0
174 198 0
175 197 0
174 197 0
173 197 0
174 196 0
173 196 0
175 198 0
172 196 0
172 195 0
173 197 0
173 196 0
173 197 0
174 197 0
174 197 0
175 198 0
175 198 0
174 197 0
175 198 0
174 198 0
172 195 0
172 196 0
173 197 0
172 196 0
174 198 0
175 198 0
173 197 0
174 197 0
174 198 0
175 198 0
174 197 0
173 197 0
174 198 0
174 198 0
175 198 0
174 197 0
172 196 0
174 197 0
175 198 0
173 197 0
173 197 0
173 197 0
175 198 0
174 197 0
173 197 0
174 198 0
175 198 0
174 196 0
173 196 0
174 198 0
175 198 0
173 197 0
174 197 0
173 197 0
172 196 0
174 198 0
174 197 0
173 197 0
174 198 0
174 198 0
172 196 0
175 198 0
175 198 0
175 198 0
174 197 0
173 197 0
175 198 0
174 198 0
176 198 0
173 197 0
175 198 0
174 197 0
174 198 0
175 198 0
174 198 0
173 197 0
174 198 0
175 198 0
174 197 0
174 198 0
174 197 0
173 197 0
174 198 0
177 199 0
175 198 0
175 198 0
174 198 0
175 198 0
174 198 0
176 199 0
174 196 0
175 198 0
174 198 0
172 196 0
175 198 0
174 197 0
176 198 0
174 197 0
174 198 0
175 198 0
174 198 0
174 198 0
174 198 0
173 197 0
175 198 0
175 198 0
173 197 0
174 197 0
173 197 0
174 197 0
174 198 0
174 198 0
176 198 0
173 197 0
174 198 0
175 198 0
174 197 0
174 198 0
174 197 0
172 196 0
175 198 0
175 198 0
175 198 0
175 198 0
175 198 0
176 198 0
174 198 0
175 198 0
174 198 0
177 199 0
175 198 0
173 197 0
176 199 0
176 199 0
174 197 0
176 198 0
175 198 0
173 197 0
173 197 0
174 197 0
174 197 0
174 197 0
174 198 0
174 198 0
175 198 0
174 198 0
174 198 0
174 198 0
174 198 0
175 198 0
176 199 0
175 198 0
176 199 0
175 198 0
173 197 0
173 197 0
175 198 0
174 197 0
174 197 0
177 199 0
175 198 0
175 198 0
173 197 0
173 197 0
174 197 0
175 198 0
174 198 0
175 198 0
175 198 0
174 198 0
175 198 0
173 197 0
176 198 0
173 197 0
174 197 0
175 198 0
175 198 0
175 198 0
175 198 0
174 198 0
174 198 0
174 197 0
174 197 0
172 196 0
176 199 0
173 197 0
173 197 0
173 197 0
174 197 0
175 198 0
174 198 0
174 198 0
175 198 0
174 198 0
172 197 0
176 199 0
174 198 0
173 197 0
174 198 0
175 198 0
173 197 0
174 197 0
172 196 0
173 197 0
174 198 0
175 198 0
174 197 0
171 196 0
174 198 0
177 199 0
175 198 0
172 197 0
172 196 0
173 197 0
173 197 0
173 197 0
175 198 0
174 198 0
175 198 0
174 198 0
175 198 0
173 197 0
173 197 0
174 197 0
174 197 0
175 198 0
174 198 0
174 197 0
174 198 0
175 198 0
173 197 0
174 198 0
174 198 0
175 198 0
175 197 0
173 197 0
174 198 0
175 198 0
173 197 0
174 197 0
175 198 0
174 198 0
175 198 0
174 198 0
173 197 0
175 198 0
174 198 0
173 196 0
173 197 0
175 198 0
173 197 0
173 197 0
173 196 0
175 198 0
174 197 0
174 197 0
175 198 0
173 197 0
171 195 0
173 197 0
173 197 0
175 198 0
173 197 0
173 196 0
175 197 0
172 195 0
173 197 0
172 195 0
175 198 0
173 197 0
175 198 0
175 198 0
175 198 0
172 195 0
175 198 0
172 196 0
172 195 0
174 197 0
173 196 0
172 195 0
174 197 0
174 197 0
172 196 0
174 197 0
174 197 0
173 197 0
172 196 0
173 196 0
173 197 0
173 196 0
174 198 0
174 197 0
173 197 0
173 197 0
173 196 0
171 195 0
174 197 0
174 197 0
172 195 0
172 196 0
173 196 0
170 194 0
167 191 0
173 197 0
173 197 0
170 193 0
168 191 0
171 195 0
171 195 0
175 198 0
173 197 0
173 197 0
174 197 0
174 197 0
173 197 0
170 194 0
171 194 0
172 195 0
171 195 0
172 196 0
172 195 0
171 195 0
174 197 0
172 196 0
170 194 0
171 195 0
173 197 0
171 195 0
171 194 0
173 196 0
170 193 0
172 195 0
171 196 0
172 195 0
172 195 0
175 198 0
174 197 0
174 197 0
173 196 0
172 196 0
173 197 0
172 195 0
173 197 0
173 195 0
173 196 0
175 197 0
175 198 0
173 197 0
173 197 0
173 197 0
173 197 0
175 198 0
172 196 0
171 194 0
173 197 0
172 195 0
173 197 0
173 196 0
171 194 0
173 196 0
172 196 0
171 194 0
174 196 0
175 198 0
172 196 0
173 196 0
173 197 0
172 195 0
172 195 0
174 197 0
174 197 0
171 195 0
172 196 0
174 197 0
172 196 0
170 193 0
172 195 0
173 196 0
174 197 0
173 196 0
174 197 0
173 196 0
173 195 0
175 198 0
173 196 0
174 197 0
173 197 0
173 197 0
174 198 0
173 197 0
174 197 0
174 198 0
173 196 0
174 198 0
173 197 0
173 197 0
173 197 0
173 197 0
173 197 0
174 197 0
174 197 0
172 196 0
173 197 0
174 197 0
173 196 0
174 196 0
172 196 0
175 198 0
174 198 0
172 196 0
174 197 0
172 196 0
176 198 0
173 196 0
174 197 0
175 198 0
174 197 0
173 197 0
175 197 0
172 196 0
173 197 0
173 197 0
173 196 0
175 198 0
174 197 0
174 198 0
174 197 0
173 196 0
174 197 0
175 198 0
176 198 0
173 197 0
173 197 0
174 197 0
174 197 0
175 198 0
175 198 0
176 198 0
174 198 0
174 197 0
174 197 0
172 196 0
174 197 0
174 198 0
176 199 0
174 197 0
175 198 0
173 197 0
175 198 0
175 198 0
174 197 0
175 198 0
174 197 0
175 198 0
173 196 0
175 198 0
174 197 0
174 198 0
174 197 0
176 198 0
173 197 0
173 196 0
174 197 0
172 196 0
174 197 0
173 197 0
172 196 0
175 198 0
176 199 0
173 197 0
172 196 0
174 198 0
173 197 0
174 197 0
174 198 0
175 198 0
173 197 0
174 197 0
174 198 0
177 199 0
174 198 0
173 197 0
175 198 0
176 199 0
173 197 0
176 198 0
173 197 0
175 198 0
173 197 0
172 197 0
174 197 0
175 198 0
175 198 0
173 197 0
175 198 0
173 197 0
173 197 0
174 198 0
173 197 0
173 197 0
176 198 0
175 198 0
174 198 0
175 198 0
173 197 0
173 197 0
174 198 0
176 198 0
174 198 0
175 198 0
174 198 0
173 197 0
174 198 0
175 198 0
175 198 0
173 197 0
175 198 0
174 198 0
172 196 0
174 198 0
174 197 0
174 198 0
174 198 0
172 197 0
173 197 0
174 198 0
175 198 0
175 198 0
174 198 0
174 197 0
174 197 0
175 198 0
175 198 0
174 197 0
172 197 0
174 198 0
175 198 0
174 197 0
174 198 0
173 197 0
174 198 0
173 197 0
175 198 0
175 198 0
176 198 0
174 198 0
174 198 0
173 197 0
173 197 0
175 198 0
175 198 0
173 197 0
175 198 0
175 198 0
173 197 0
174 198 0
174 198 0
175 198 0
174 198 0
173 197 0
174 198 0
173 197 0
173 197 0
174 197 0
174 198 0
173 197 0
174 197 0
175 198 0
174 198 0
172 196 0
174 198 0
173 197 0
175 198 0
174 198 0
175 198 0
174 197 0
174 198 0
174 198 0
173 197 0
175 198 0
175 198 0
173 197 0
174 198 0
174 197 0
174 197 0
175 198 0
176 199 0
172 196 0
175 198 0
172 196 0
175 198 0
175 198 0
173 197 0
174 198 0
174 198 0
175 198 0
175 198 0
175 198 0
175 198 0
171 195 0
174 197 0
174 197 0
173 196 0
174 197 0
174 197 0
173 197 0
174 198 0
174 197 0
174 198 0
175 198 0
175 198 0
173 197 0
174 197 0
176 198 0
174 197 0
174 197 0
172 197 0
175 198 0
173 197 0
172 196 0
174 198 0
175 198 0
173 197 0
173 197 0
176 198 0
173 197 0
173 197 0
175 198 0
173 197 0
176 199 0
174 197 0
170 195 0
174 198 0
174 198 0
174 198 0
173 197 0
173 197 0
173 196 0
173 197 0
172 196 0
173 197 0
173 197 0
175 198 0
175 198 0
175 198 0
173 197 0
173 196 0
172 196 0
174 198 0
173 197 0
176 198 0
174 198 0
174 197 0
172 196 0
173 197 0
173 196 0
174 198 0
174 197 0
173 197 0
173 197 0
173 197 0
176 199 0
175 198 0
173 196 0
174 197 0
176 199 0
173 197 0
172 196 0
173 197 0
173 196 0
173 196 0
173 196 0
173 197 0
175 198 0
173 197 0
169 193 0
174 197 0
174 197 0
171 195 0
173 196 0
173 197 0
173 197 0
174 197 0
171 195 0
172 195 0
172 196 0
175 198 0
175 198 0
174 197 0
172 195 0
169 194 0
172 196 0
168 192 0
172 195 0
171 195 0
173 197 0
172 196 0
172 195 0
171 195 0
173 196 0
174 197 0
174 197 0
172 195 0
173 196 0
172 196 0
170 194 0
171 195 0
173 196 0
171 195 0
174 198 0
169 193 0
171 194 0
172 196 0
169 193 0
173 196 0
171 195 0
171 194 0
176 198 0
173 197 0
173 196 0
175 197 0
170 193 0
170 193 0
173 197 0
171 194 0
173 196 0
172 195 0
171 194 0
172 195 0
171 195 0
173 196 0
173 196 0
171 195 0
174 196 0
174 196 0
173 196 0
172 196 0
171 195 0
174 197 0
172 196 0
170 194 0
172 195 0
172 195 0
173 196 0
172 195 0
174 197 0
171 195 0
171 195 0
170 194 0
174 196 0
172 196 0
169 193 0
170 194 0
169 193 0
170 194 0
174 196 0
172 196 0
169 192 0
171 196 0
174 197 0
173 196 0
173 197 0
172 196 0
174 197 0
174 198 0
174 198 0
172 196 0
172 196 0
173 197 0
173 197 0
173 197 0
173 196 0
174 197 0
173 196 0
174 198 0
174 198 0
173 197 0
173 197 0
172 196 0
173 197 0
173 197 0
171 195 0
172 195 0
173 196 0
173 196 0
173 197 0
175 198 0
175 198 0
173 196 0
173 196 0
172 195 0
174 198 0
174 197 0
174 197 0
173 197 0
174 197 0
172 196 0
175 198 0
173 196 0
172 196 0
172 196 0
170 194 0
173 196 0
174 197 0
172 196 0
174 197 0
174 197 0
173 197 0
173 197 0
173 197 0
172 196 0
173 196 0
174 198 0
174 198 0
174 197 0
176 198 0
172 195 0
172 196 0
176 198 0
173 196 0
174 198 0
172 196 0
174 197 0
177 199 0
174 197 0
174 198 0
174 197 0
173 197 0
173 197 0
175 198 0
175 198 0
175 198 0
174 198 0
175 198 0
174 198 0
174 197 0
174 198 0
174 198 0
175 197 0
175 198 0
175 197 0
175 198 0
173 197 0
173 197 0
173 197 0
175 198 0
174 197 0
175 198 0
173 197 0
172 196 0
174 197 0
172 196 0
175 198 0
174 197 0
175 198 0
173 197 0
174 197 0
175 198 0
173 197 0
174 197 0
172 196 0
175 198 0
173 196 0
175 198 0
174 198 0
174 197 0
172 196 0
176 199 0
173 197 0
173 197 0
174 197 0
176 199 0
173 197 0
176 198 0
173 196 0
175 198 0
174 197 0
174 198 0
173 197 0
173 197 0
175 198 0
174 198 0
174 197 0
174 197 0
175 198 0
175 198 0
173 197 0
174 197 0
174 198 0
173 197 0
172 196 0
175 198 0
174 197 0
174 198 0
173 197 0
175 198 0
174 197 0
173 197 0
175 198 0
175 198 0
175 198 0
175 198 0
175 198 0
175 198 0
174 197 0
175 198 0
175 198 0
174 198 0
173 197 0
174 197 0
173 197 0
175 198 0
175 198 0
175 198 0
175 198 0
174 198 0
173 197 0
176 199 0
173 197 0
174 198 0
175 198 0
173 197 0
173 197 0
174 197 0
173 197 0
174 197 0
173 197 0
175 198 0
173 197 0
174 198 0
174 198 0
173 197 0
174 198 0
174 198 0
174 198 0
176 199 0
174 198 0
175 198 0
174 198 0
173 197 0
175 198 0
175 198 0
174 197 0
175 198 0
174 198 0
176 199 0
174 197 0
175 198 0
173 197 0
173 197 0
175 198 0
174 198 0
174 198 0
175 198 0
174 198 0
174 198 0
175 198 0
175 198 0
174 198 0
173 197 0
172 196 0
176 199 0
175 198 0
173 197 0
174 198 0
174 197 0
174 197 0
173 197 0
174 197 0
175 198 0
174 197 0
174 198 0
175 198 0
174 198 0
176 198 0
176 199 0
172 196 0
174 198 0
174 197 0
175 198 0
174 197 0
173 197 0
173 196 0
174 198 0
174 197 0
175 198 0
176 199 0
174 198 0
173 197 0
173 197 0
174 198 0
175 198 0
174 198 0
174 198 0
173 197 0
174 197 0
174 198 0
172 195 0
174 198 0
175 198 0
175 198 0
173 197 0
172 196 0
175 198 0
174 197 0
174 198 0
173 197 0
175 198 0
174 197 0
175 198 0
174 197 0
175 198 0
176 199 0
173 197 0
173 197 0
173 197 0
172 196 0
175 198 0
173 197 0
173 197 0
176 199 0
175 198 0
171 196 0
175 198 0
174 197 0
175 198 0
173 197 0
172 197 0
175 198 0
172 196 0
174 197 0
172 196 0
174 197 0
174 197 0
172 196 0
175 198 0
174 198 0
172 196 0
173 197 0
173 196 0
174 197 0
174 198 0
172 196 0
173 197 0
174 198 0
174 197 0
175 198 0
174 198 0
173 197 0
175 198 0
175 198 0
175 198 0
174 197 0
174 198 0
173 196 0
173 196 0
175 198 0
172 196 0
174 198 0
176 198 0
172 196 0
174 198 0
173 197 0
173 196 0
175 197 0
174 198 0
173 196 0
173 197 0
172 196 0
173 197 0
172 196 0
175 197 0
172 195 0
171 195 0
173 196 0
174 197 0
172 195 0
174 198 0
174 197 0
174 198 0
174 197 0
173 196 0
172 196 0
173 197 0
173 197 0
169 193 0
174 198 0
176 199 0
171 194 0
172 196 0
173 196 0
174 197 0
171 195 0
172 196 0
172 196 0
173 197 0
174 198 0
172 196 0
172 196 0
171 195 0
171 195 0
170 194 0
173 196 0
174 197 0
174 198 0
172 195 0
171 195 0
173 196 0
171 195 0
171 195 0
171 194 0
172 197 0
171 195 0
173 197 0
173 197 0
174 197 0
175 198 0
171 195 0
174 198 0
172 196 0
173 196 0
172 196 0
171 195 0
172 196 0
174 197 0
174 197 0
172 195 0
171 194 0
170 194 0
171 195 0
174 197 0
171 195 0
171 194 0
173 196 0
171 195 0
172 196 0
172 195 0
173 196 0
171 195 0
174 197 0
175 198 0
173 196 0
172 195 0
173 196 0
171 195 0
172 195 0
172 196 0
170 194 0
172 196 0
170 194 0
174 197 0
170 193 0
172 195 0
172 196 0
175 198 0
172 195 0
173 197 0
170 193 0
175 198 0
174 198 0
174 196 0
175 197 0
173 196 0
174 197 0
173 196 0
175 198 0
175 198 0
174 197 0
173 196 0
173 197 0
173 196 0
173 196 0
174 197 0
175 198 0
173 197 0
172 195 0
173 196 0
174 197 0
174 197 0
172 196 0
172 196 0
174 197 0
176 198 0
174 197 0
174 197 0
171 195 0
171 195 0
173 196 0
173 196 0
174 197 0
172 196 0
172 196 0
173 197 0
173 196 0
173 197 0
173 196 0
174 198 0
172 195 0
172 195 0
173 196 0
173 197 0
174 197 0
174 197 0
172 196 0
173 197 0
175 198 0
176 199 0
174 198 0
173 197 0
174 197 0
174 197 0
175 198 0
174 197 0
175 198 0
173 197 0
171 196 0
174 197 0
175 198 0
175 198 0
175 198 0
173 197 0
175 198 0
172 197 0
175 198 0
174 197 0
174 197 0
175 197 0
173 197 0
174 198 0
174 198 0
175 198 0
172 196 0
173 196 0
173 196 0
176 198 0
174 197 0
174 197 0
174 197 0
175 197 0
174 197 0
174 198 0
173 197 0
175 198 0
175 198 0
174 198 0
173 197 0
173 197 0
174 198 0
173 197 0
174 198 0
175 198 0
174 197 0
173 197 0
175 198 0
173 197 0
175 198 0
175 198 0
176 198 0
174 198 0
175 198 0
174 198 0
172 196 0
175 198 0
174 197 0
176 199 0
174 198 0
175 198 0
175 198 0
175 198 0
173 197 0
172 196 0
174 198 0
173 197 0
172 197 0
173 197 0
174 197 0
173 197 0
175 198 0
174 198 0
175 198 0
175 198 0
174 197 0
173 197 0
174 198 0
173 197 0
175 197 0
172 196 0
173 197 0
174 198 0
175 198 0
177 199 0
175 198 0
174 197 0
174 198 0
175 198 0
175 197 0
174 197 0
174 198 0
175 198 0
174 198 0
173 197 0
174 197 0
175 198 0
174 198 0
173 197 0
176 198 0
174 197 0
174 197 0
174 197 0
174 197 0
175 198 0
176 199 0
175 198 0
175 198 0
174 198 0
175 198 0
173 197 0
173 197 0
175 198 0
174 198 0
176 199 0
174 197 0
175 198 0
174 198 0
175 198 0
175 198 0
176 199 0
172 196 0
174 197 0
174 198 0
174 197 0
175 198 0
175 198 0
174 197 0
175 198 0
176 199 0
175 198 0
175 198 0
174 198 0
173 197 0
174 198 0
172 196 0
174 198 0
175 198 0
173 197 0
175 198 0
174 198 0
174 198 0
175 198 0
174 197 0
172 196 0
174 198 0
173 197 0
174 198 0
175 198 0
172 196 0
175 198 0
174 197 0
173 197 0
174 197 0
174 197 0
174 198 0
176 199 0
172 196 0
174 197 0
174 197 0
175 198 0
177 199 0
174 198 0
175 198 0
175 198 0
174 198 0
175 198 0
174 198 0
174 198 0
175 198 0
173 197 0
174 198 0
173 197 0
175 198 0
172 196 0
174 197 0
175 198 0
175 198 0
174 198 0
175 198 0
174 198 0
174 198 0
174 197 0
174 198 0
176 198 0
175 198 0
175 198 0
175 198 0
174 197 0
174 197 0
174 198 0
176 198 0
173 196 0
173 197 0
175 198 0
174 197 0
175 198 0
173 197 0
175 198 0
175 198 0
176 199 0
176 198 0
174 197 0
173 196 0
174 198 0
173 197 0
174 197 0
175 198 0
174 198 0
174 197 0
175 198 0
174 197 0
175 198 0
173 197 0
174 198 0
174 198 0
175 198 0
174 197 0
174 198 0
175 198 0
174 197 0
176 199 0
174 197 0
173 197 0
173 196 0
172 196 0
174 198 0
173 197 0
172 196 0
174 198 0
174 198 0
173 197 0
173 197 0
174 197 0
173 197 0
175 198 0
172 195 0
176 199 0
174 197 0
172 196 0
172 196 0
174 198 0
176 199 0
173 197 0
174 198 0
175 198 0
172 196 0
172 196 0
173 197 0
174 197 0
175 198 0
175 198 0
174 197 0
172 195 0
171 194 0
175 198 0
173 196 0
172 197 0
172 196 0
173 196 0
173 197 0
173 195 0
173 196 0
173 197 0
172 196 0
175 198 0
172 196 0
174 197 0
175 198 0
174 197 0
173 196 0
175 198 0
173 197 0
171 195 0
172 196 0
173 197 0
173 196 0
172 197 0
172 196 0
171 195 0
172 196 0
174 197 0
175 198 0
170 194 0
172 196 0
172 196 0
172 196 0
171 195 0
173 196 0
169 192 0
174 197 0
172 196 0
174 197 0
173 196 0
173 197 0
172 195 0
172 196 0
172 195 0
176 198 0
171 194 0
172 196 0
172 195 0
174 198 0
171 195 0
171 195 0
172 196 0
171 195 0
174 196 0
171 195 0
175 198 0
174 197 0
172 194 0
171 195 0
174 197 0
174 197 0
170 194 0
174 197 0
170 194 0
173 197 0
169 193 0
169 193 0
171 194 0
172 196 0
173 196 0
173 197 0
172 196 0
172 196 0
171 195 0
172 195 0
172 195 0
171 195 0
172 196 0
173 197 0
174 197 0
174 197 0
174 196 0
168 192 0
171 195 0
170 194 0
173 196 0
172 196 0
170 194 0
175 198 0
172 196 0
173 196 0
175 198 0
174 197 0
173 196 0
174 197 0
172 195 0
175 198 0
172 196 0
175 198 0
172 194 0
174 197 0
173 197 0
174 197 0
171 194 0
173 197 0
173 196 0
171 194 0
169 192 0
174 197 0
172 196 0
170 193 0
172 196 0
172 196 0
174 197 0
174 197 0
174 197 0
172 196 0
174 197 0
171 194 0
175 197 0
172 196 0
171 195 0
173 196 0
173 196 0
174 197 0
173 197 0
171 194 0
174 198 0
175 198 0
174 197 0
173 197 0
175 198 0
174 197 0
173 196 0
175 198 0
174 197 0
171 195 0
172 196 0
173 196 0
174 197 0
175 198 0
172 196 0
174 198 0
174 197 0
173 197 0
175 198 0
171 195 0
175 198 0
175 197 0
174 198 0
171 195 0
171 196 0
174 197 0
175 197 0
174 196 0
174 197 0
173 197 0
175 198 0
174 198 0
174 197 0
174 198 0
173 196 0
174 197 0
173 197 0
172 196 0
172 196 0
174 197 0
173 197 0
174 198 0
174 198 0
172 196 0
175 198 0
172 196 0
173 197 0
173 197 0
174 198 0
175 198 0
175 198 0
174 198 0
171 195 0
174 197 0
175 198 0
174 197 0
174 197 0
175 198 0
177 199 0
175 198 0
173 197 0
176 199 0
174 197 0
172 196 0
173 197 0
173 197 0
175 198 0
173 197 0
174 198 0
175 198 0
174 198 0
175 198 0
173 196 0
176 198 0
174 198 0
173 197 0
173 197 0
173 197 0
174 197 0
172 196 0
175 198 0
174 197 0
172 196 0
173 197 0
174 197 0
173 196 0
173 196 0
174 197 0
174 197 0
174 197 0
176 199 0
175 198 0
175 198 0
174 197 0
175 198 0
175 198 0
173 197 0
173 197 0
174 197 0
174 197 0
172 196 0
175 197 0
174 198 0
175 198 0
173 196 0
175 198 0
174 197 0
174 197 0
174 198 0
174 197 0
175 198 0
175 198 0
174 198 0
173 197 0
174 198 0
173 197 0
173 197 0
173 197 0
173 197 0
175 198 0
173 197 0
174 198 0
173 197 0
173 197 0
173 197 0
175 198 0
175 198 0
175 198 0
174 197 0
176 198 0
175 198 0
175 198 0
175 198 0
174 198 0
174 198 0
174 198 0
176 199 0
174 198 0
175 198 0
174 198 0
174 198 0
175 198 0
175 198 0
174 197 0
174 198 0
173 197 0
174 197 0
174 198 0
175 198 0
173 197 0
174 197 0
174 198 0
175 198 0
174 198 0
175 198 0
175 198 0
173 197 0
174 198 0
175 198 0
175 198 0
175 198 0
173 197 0
174 198 0
176 198 0
173 197 0
173 197 0
174 198 0
175 198 0
174 197 0
177 199 0
173 197 0
174 197 0
176 199 0
174 197 0
175 198 0
171 196 0
174 198 0
174 198 0
172 197 0
174 197 0
174 197 0
175 198 0
174 198 0
174 198 0
174 197 0
174 198 0
174 198 0
176 198 0
175 198 0
173 196 0
176 199 0
175 198 0
173 197 0
175 198 0
174 197 0
175 198 0
174 198 0
173 197 0
175 198 0
174 198 0
174 197 0
174 197 0
174 198 0
174 198 0
174 197 0
174 197 0
174 197 0
173 197 0
176 199 0
174 198 0
175 197 0
173 197 0
172 196 0
174 197 0
173 197 0
173 196 0
175 198 0
174 198 0
175 198 0
175 198 0
173 197 0
174 197 0
174 198 0
172 196 0
175 198 0
174 197 0
173 197 0
173 197 0
175 198 0
172 196 0
173 197 0
175 198 0
174 198 0
174 197 0
174 198 0
174 198 0
176 198 0
175 198 0
172 195 0
175 198 0
174 197 0
174 198 0
174 198 0
176 198 0
174 197 0
173 197 0
173 196 0
175 198 0
174 198 0
171 195 0
174 198 0
173 197 0
175 197 0
173 197 0
174 197 0
174 198 0
173 197 0
175 198 0
174 197 0
175 197 0
174 197 0
171 195 0
174 197 0
174 198 0
172 196 0
174 198 0
173 197 0
173 196 0
174 198 0
174 197 0
173 196 0
174 197 0
173 197 0
172 196 0
172 196 0
173 197 0
170 194 0
171 195 0
171 195 0
174 197 0
174 197 0
174 198 0
174 197 0
171 196 0
170 194 0
172 196 0
174 197 0
172 196 0
175 198 0
172 195 0
173 195 0
174 197 0
174 197 0
174 197 0
175 198 0
173 197 0
175 197 0
174 197 0
174 198 0
171 194 0
173 196 0
174 197 0
173 196 0
173 196 0
174 198 0
174 198 0
172 196 0
170 194 0
174 198 0
172 196 0
169 193 0
174 197 0
173 197 0
171 194 0
172 196 0
172 196 0
174 197 0
171 195 0
170 194 0
171 195 0
172 196 0
174 197 0
172 196 0
171 195 0
173 196 0
171 195 0
173 196 0
172 196 0
171 195 0
174 197 0
173 196 0
173 197 0
173 196 0
173 196 0
172 195 0
172 196 0
172 195 0
171 195 0
169 193 0
172 197 0
170 195 0
173 196 0
173 197 0
173 196 0
171 195 0
174 197 0
174 198 0
172 195 0
172 196 0
170 194 0
172 196 0
173 197 0
172 196 0
172 196 0
174 197 0
173 196 0
172 196 0
174 197 0
171 194 0
173 196 0
175 198 0
173 196 0
167 191 0
173 197 0
171 195 0
173 197 0
174 197 0
174 197 0
173 197 0
174 197 0
173 196 0
172 195 0
173 196 0
173 197 0
173 197 0
172 196 0
175 197 0
174 197 0
171 194 0
174 197 0
172 196 0
170 195 0
172 195 0
175 198 0
173 197 0
172 196 0
172 196 0
175 197 0
174 197 0
173 196 0
172 196 0
173 197 0
173 197 0
172 196 0
174 197 0
175 197 0
173 196 0
175 198 0
172 196 0
171 195 0
174 198 0
175 198 0
173 197 0
173 197 0
172 196 0
173 197 0
173 196 0
173 196 0
170 194 0
173 196 0
175 198 0
174 197 0
174 197 0
174 198 0
174 197 0
174 197 0
174 197 0
173 197 0
174 197 0
173 197 0
176 198 0
173 196 0
173 196 0
172 196 0
174 197 0
173 197 0
173 196 0
173 196 0
173 197 0
172 196 0
176 198 0
172 195 0
172 196 0
175 198 0
174 197 0
174 197 0
175 198 0
173 197 0
175 198 0
175 198 0
173 197 0
175 198 0
174 197 0
173 197 0
175 198 0
173 197 0
173 196 0
174 197 0
173 197 0
175 198 0
175 198 0
173 196 0
174 197 0
171 195 0
175 198 0
173 197 0
175 198 0
175 198 0
173 197 0
173 197 0
175 198 0
175 198 0
174 197 0
175 198 0
173 197 0
175 198 0
174 197 0
173 197 0
172 196 0
175 198 0
175 198 0
175 198 0
174 197 0
175 198 0
172 197 0
174 197 0
173 197 0
174 197 0
172 196 0
173 197 0
175 198 0
175 198 0
174 198 0
176 198 0
174 198 0
174 197 0
174 198 0
173 196 0
175 198 0
174 197 0
176 199 0
175 198 0
174 197 0
175 198 0
173 197 0
173 196 0
173 197 0
174 198 0
174 198 0
173 197 0
174 198 0
176 199 0
174 198 0
173 197 0
172 196 0
175 198 0
175 198 0
174 197 0
173 196 0
173 197 0
172 196 0
173 197 0
176 198 0
175 198 0
174 198 0
173 197 0
174 198 0
176 198 0
174 197 0
174 198 0
173 197 0
173 197 0
174 197 0
175 198 0
174 198 0
175 198 0
175 198 0
174 198 0
174 198 0
174 197 0
177 199 0
174 198 0
172 196 0
174 198 0
174 198 0
174 197 0
174 197 0
173 197 0
173 197 0
176 199 0
176 198 0
174 198 0
173 197 0
174 197 0
172 196 0
174 198 0
175 198 0
177 199 0
175 198 0
174 197 0
174 197 0
175 198 0
173 197 0
173 197 0
174 198 0
175 198 0
174 198 0
176 198 0
174 198 0
175 198 0
175 198 0
174 198 0
174 197 0
173 197 0
174 198 0
174 198 0
175 198 0
176 198 0
175 198 0
174 198 0
174 197 0
175 198 0
174 197 0
174 198 0
174 198 0
175 198 0
175 198 0
174 197 0
175 198 0
174 197 0
174 197 0
173 197 0
175 198 0
175 198 0
174 198 0
173 196 0
176 199 0
175 198 0
174 197 0
173 197 0
174 198 0
174 198 0
176 198 0
176 199 0
174 198 0
175 198 0
175 198 0
173 197 0
174 198 0
172 196 0
174 197 0
174 198 0
175 198 0
175 198 0
174 198 0
175 198 0
174 198 0
173 197 0
172 197 0
173 197 0
174 197 0
174 198 0
173 197 0
174 197 0
175 198 0
176 199 0
175 198 0
174 197 0
173 197 0
175 198 0
174 197 0
174 198 0
172 196 0
173 196 0
175 198 0
175 198 0
173 197 0
173 197 0
174 198 0
175 198 0
174 198 0
172 196 0
175 198 0
174 198 0
174 198 0
172 197 0
174 198 0
175 198 0
175 198 0
173 197 0
175 198 0
175 198 0
173 197 0
174 197 0
175 197 0
175 198 0
174 197 0
173 197 0
174 197 0
175 197 0
174 198 0
175 198 0
174 197 0
175 198 0
175 198 0
175 198 0
173 196 0
175 197 0
174 198 0
173 197 0
173 197 0
175 198 0
174 197 0
173 197 0
172 196 0
175 198 0
173 197 0
173 197 0
171 195 0
175 197 0
175 198 0
174 198 0
175 198 0
172 195 0
173 197 0
173 197 0
173 196 0
173 197 0
173 197 0
171 196 0
172 196 0
172 196 0
172 196 0
173 197 0
172 196 0
173 197 0
173 197 0
174 197 0
174 198 0
175 198 0
173 197 0
175 198 0
175 198 0
174 198 0
174 197 0
174 197 0
173 197 0
171 195 0
171 196 0
173 197 0
174 198 0
174 198 0
173 196 0
174 197 0
174 198 0
171 194 0
174 198 0
171 195 0
173 196 0
174 197 0
174 197 0
172 195 0
170 194 0
171 195 0
173 196 0
173 196 0
174 197 0
172 196 0
175 198 0
171 195 0
172 194 0
172 197 0
173 196 0
174 198 0
172 195 0
173 197 0
172 196 0
173 196 0
170 194 0
170 194 0
171 195 0
172 196 0
175 198 0
174 197 0
173 197 0
170 195 0
171 194 0
172 196 0
173 196 0
173 197 0
171 195 0
173 197 0
171 194 0
172 195 0
172 195 0
172 195 0
171 195 0
171 195 0
172 195 0
173 196 0
173 197 0
174 198 0
173 197 0
173 196 0
170 193 0
173 197 0
172 195 0
173 196 0
174 197 0
171 195 0
173 197 0
174 197 0
173 196 0
175 198 0
171 194 0
170 194 0
173 197 0
172 196 0
173 196 0
170 194 0
173 197 0
173 197 0
174 198 0
174 197 0
172 196 0
171 194 0
173 197 0
172 196 0
173 196 0
174 198 0
174 197 0
175 198 0
172 196 0
175 198 0
174 197 0
172 196 0
175 198 0
174 198 0
171 195 0
174 198 0
172 196 0
171 195 0
172 195 0
173 196 0
174 197 0
173 196 0
174 197 0
174 197 0
173 196 0
175 198 0
175 198 0
174 198 0
174 197 0
174 197 0
173 197 0
173 196 0
175 197 0
173 197 0
174 197 0
174 197 0
174 197 0
175 198 0
174 197 0
174 197 0
172 196 0
173 196 0
175 198 0
173 197 0
175 198 0
173 197 0
172 196 0
173 197 0
172 196 0
175 198 0
173 197 0
174 197 0
174 197 0
176 198 0
173 197 0
173 197 0
173 196 0
173 197 0
174 197 0
173 197 0
174 197 0
173 196 0
173 197 0
175 198 0
174 197 0
175 198 0
174 197 0
174 196 0
174 198 0
174 197 0
172 196 0
173 197 0
176 198 0
174 197 0
175 198 0
174 198 0
174 197 0
173 197 0
173 196 0
175 198 0
176 199 0
174 197 0
174 197 0
176 199 0
175 198 0
174 197 0
174 198 0
173 197 0
173 197 0
173 196 0
173 197 0
174 198 0
174 197 0
176 198 0
174 197 0
175 198 0
173 197 0
174 197 0
175 198 0
174 198 0
176 199 0
173 197 0
175 198 0
173 197 0
173 197 0
174 197 0
175 198 0
173 197 0
175 198 0
174 198 0
175 198 0
173 197 0
175 198 0
175 198 0
173 196 0
175 198 0
175 198 0
173 197 0
175 198 0
173 196 0
174 197 0
175 198 0
173 197 0
176 198 0
174 197 0
175 198 0
175 198 0
175 198 0
175 198 0
175 198 0
174 198 0
174 198 0
175 198 0
172 196 0
173 197 0
174 198 0
175 198 0
175 198 0
174 198 0
175 198 0
174 198 0
174 197 0
173 196 0
172 197 0
173 197 0
175 198 0
174 198 0
174 197 0
174 198 0
174 198 0
174 197 0
175 198 0
174 197 0
175 198 0
174 198 0
175 198 0
175 198 0
173 196 0
174 198 0
173 197 0
175 198 0
173 197 0
176 199 0
176 198 0
175 198 0
174 198 0
175 198 0
172 196 0
174 198 0
173 197 0
174 198 0
174 198 0
175 198 0
174 198 0
174 197 0
175 198 0
174 198 0
174 198 0
175 198 0
173 197 0
175 198 0
174 197 0
174 198 0
175 198 0
175 198 0
174 198 0
174 198 0
174 198 0
174 197 0
174 198 0
174 198 0
175 198 0
175 198 0
175 198 0
174 197 0
175 198 0
174 198 0
174 198 0
173 197 0
174 197 0
175 198 0
174 198 0
176 199 0
175 198 0
176 198 0
174 198 0
174 198 0
175 198 0
174 198 0
174 197 0
174 198 0
175 198 0
174 198 0
175 198 0
174 197 0
176 199 0
174 197 0
175 198 0
174 198 0
174 197 0
176 199 0
172 197 0
174 198 0
174 198 0
176 199 0
175 198 0
174 198 0
174 198 0
173 197 0
174 197 0
175 198 0
173 197 0
174 197 0
175 198 0
172 196 0
173 197 0
175 198 0
175 198 0
173 197 0
176 199 0
175 198 0
175 198 0
174 197 0
174 197 0
175 198 0
175 198 0
173 197 0
174 198 0
175 198 0
175 198 0
175 198 0
172 197 0
173 197 0
174 197 0
172 196 0
172 196 0
174 198 0
174 198 0
174 198 0
174 197 0
173 197 0
173 196 0
175 198 0
176 199 0
172 196 0
174 198 0
174 198 0
174 197 0
173 196 0
175 198 0
174 197 0
173 197 0
172 196 0
172 196 0
173 196 0
174 198 0
174 198 0
175 198 0
174 197 0
174 197 0
174 197 0
174 197 0
173 197 0
172 196 0
175 198 0
171 195 0
174 197 0
172 196 0
174 198 0
175 198 0
174 197 0
174 198 0
173 197 0
174 197 0
173 196 0
175 198 0
175 198 0
173 196 0
174 197 0
174 198 0
175 198 0
173 197 0
173 197 0
175 198 0
172 196 0
175 198 0
175 198 0
175 198 0
171 194 0
172 196 0
173 197 0
174 197 0
172 196 0
172 196 0
174 197 0
173 197 0
173 196 0
175 198 0
172 195 0
173 197 0
173 197 0
175 198 0
173 197 0
174 198 0
174 197 0
174 197 0
173 196 0
171 194 0
174 197 0
174 197 0
173 196 0
173 197 0
173 197 0
172 196 0
172 195 0
172 196 0
173 196 0
174 198 0
174 197 0
173 196 0
171 194 0
172 195 0
172 195 0
173 196 0
175 198 0
172 196 0
171 195 0
173 195 0
172 196 0
172 195 0
174 197 0
174 197 0
172 196 0
172 196 0
173 196 0
175 198 0
171 194 0
173 197 0
172 196 0
174 197 0
171 195 0
171 195 0
172 196 0
173 197 0
172 196 0
172 195 0
173 197 0
172 195 0
173 197 0
172 196 0
171 195 0
172 196 0
173 197 0
174 197 0
171 195 0
170 194 0
173 196 0
173 196 0
172 194 0
173 197 0
174 197 0
174 197 0
171 195 0
174 197 0
171 194 0
175 198 0
172 197 0
171 194 0
173 196 0
171 195 0
174 198 0
171 194 0
172 196 0
173 196 0
173 197 0
172 195 0
173 196 0
174 197 0
172 196 0
173 197 0
171 194 0
173 195 0
174 198 0
173 196 0
175 198 0
174 197 0
172 195 0
172 196 0
172 196 0
174 197 0
174 198 0
172 196 0
173 196 0
169 193 0
173 196 0
171 194 0
173 197 0
173 196 0
174 198 0
173 197 0
175 197 0
173 196 0
174 198 0
172 196 0
172 196 0
176 199 0
174 198 0
174 197 0
174 197 0
174 198 0
174 198 0
171 195 0
174 197 0
174 198 0
174 196 0
173 196 0
173 197 0
173 196 0
173 197 0
174 196 0
175 198 0
175 198 0
174 197 0
174 197 0
172 196 0
175 198 0
174 197 0
173 196 0
173 196 0
172 196 0
173 197 0
176 199 0
173 197 0
170 194 0
175 198 0
172 196 0
173 197 0
175 198 0
174 197 0
174 198 0
176 199 0
174 197 0
174 198 0
174 197 0
174 198 0
175 198 0
175 198 0
172 196 0
174 198 0
174 197 0
174 197 0
173 196 0
175 198 0
174 197 0
174 197 0
174 198 0
173 197 0
174 197 0
173 197 0
174 197 0
176 198 0
172 196 0
174 197 0
175 198 0
174 198 0
173 197 0
173 197 0
174 197 0
171 195 0
175 198 0
173 196 0
174 197 0
173 196 0
175 198 0
174 198 0
175 198 0
174 197 0
174 198 0
173 197 0
172 196 0
175 198 0
175 198 0
174 197 0
175 198 0
173 197 0
174 198 0
175 198 0
173 197 0
174 198 0
174 197 0
176 198 0
174 198 0
175 198 0
173 197 0
174 198 0
175 197 0
174 198 0
175 198 0
175 198 0
176 198 0
174 197 0
173 197 0
174 198 0
174 198 0
174 198 0
175 198 0
174 197 0
174 197 0
172 196 0
174 198 0
174 198 0
174 197 0
174 197 0
174 197 0
174 198 0
173 197 0
172 197 0
175 198 0
174 198 0
175 198 0
177 199 0
175 198 0
174 197 0
175 198 0
172 197 0
173 197 0
172 196 0
173 197 0
175 198 0
176 198 0
175 198 0
175 198 0
174 198 0
175 198 0
173 197 0
175 198 0
174 198 0
175 198 0
174 198 0
175 198 0
174 198 0
175 198 0
175 198 0
174 198 0
175 198 0
173 197 0
176 198 0
174 198 0
174 198 0
175 198 0
174 198 0
176 199 0
175 198 0
176 198 0
174 198 0
175 198 0
173 197 0
171 196 0
174 197 0
175 198 0
174 198 0
175 198 0
174 198 0
173 197 0
174 198 0
175 198 0
175 198 0
174 198 0
175 198 0
175 198 0
174 198 0
174 198 0
174 197 0
174 197 0
174 197 0
175 198 0
173 196 0
175 198 0
174 198 0
174 198 0
174 197 0
173 197 0
175 198 0
176 199 0
176 198 0
175 198 0
175 198 0
174 198 0
174 197 0
176 198 0
174 198 0
175 198 0
174 197 0
174 197 0
174 197 0
175 198 0
173 197 0
173 197 0
175 198 0
174 197 0
174 197 0
175 198 0
174 197 0
174 198 0
175 198 0
176 198 0
176 198 0
173 197 0
175 198 0
174 197 0
175 198 0
173 197 0
174 198 0
173 197 0
176 199 0
175 198 0
174 198 0
175 198 0
174 198 0
172 196 0
171 195 0
174 197 0
177 199 0
175 198 0
175 198 0
175 198 0
173 197 0
173 197 0
175 198 0
176 198 0
174 197 0
176 198 0
174 198 0
174 197 0
172 196 0
174 197 0
174 197 0
173 196 0
174 197 0
174 198 0
172 196 0
175 198 0
174 197 0
174 198 0
174 198 0
174 197 0
174 197 0
174 198 0
174 197 0
173 197 0
174 197 0
175 198 0
173 196 0
174 198 0
173 196 0
174 197 0
174 197 0
173 196 0
174 198 0
174 198 0
174 198 0
174 198 0
173 197 0
175 198 0
174 196 0
170 195 0
174 197 0
174 197 0
174 197 0
173 197 0
172 196 0
175 198 0
173 197 0
173 197 0
173 197 0
174 198 0
174 197 0
171 194 0
174 197 0
172 196 0
173 197 0
173 196 0
174 197 0
174 197 0
175 197 0
173 197 0
173 197 0
173 196 0
175 198 0
176 198 0
173 196 0
175 198 0
172 195 0
174 197 0
173 197 0
175 198 0
173 197 0
173 197 0
175 198 0
174 197 0
172 196 0
171 194 0
174 198 0
174 198 0
171 194 0
173 196 0
173 196 0
171 195 0
174 197 0
172 196 0
173 196 0
173 196 0
174 198 0
172 195 0
170 194 0
171 194 0
173 197 0
170 194 0
172 195 0
174 197 0
173 197 0
172 195 0
173 197 0
171 194 0
172 196 0
174 197 0
172 195 0
174 197 0
172 196 0
173 196 0
172 196 0
169 193 0
172 195 0
171 195 0
171 195 0
171 195 0
173 196 0
174 197 0
172 196 0
176 198 0
173 197 0
172 196 0
172 195 0
173 196 0
174 197 0
173 197 0
172 194 0
172 196 0
171 195 0
170 194 0
173 196 0
169 193 0
171 195 0
175 198 0
175 197 0
171 195 0
173 196 0
173 197 0
173 196 0
172 196 0
173 197 0
174 197 0
170 194 0
172 195 0
171 195 0
173 196 0
172 197 0
173 196 0
173 196 0
173 197 0
174 197 0
174 197 0
173 197 0
174 197 0
173 197 0
174 197 0
172 196 0
171 195 0
175 198 0
171 195 0
175 197 0
174 198 0
173 196 0
170 193 0
172 196 0
174 197 0
175 198 0
174 197 0
174 197 0
173 196 0
174 197 0
174 197 0
171 195 0
175 198 0
173 196 0
173 197 0
171 195 0
172 196 0
173 197 0
172 196 0
172 196 0
174 197 0
172 195 0
172 196 0
173 197 0
174 197 0
173 196 0
173 196 0
173 197 0
175 198 0
175 198 0
173 197 0
173 197 0
174 197 0
174 198 0
174 197 0
174 197 0
172 196 0
174 197 0
174 197 0
173 197 0
175 198 0
173 197 0
174 198 0
173 197 0
175 198 0
172 196 0
173 197 0
172 195 0
174 197 0
173 197 0
174 197 0
173 196 0
174 198 0
174 198 0
173 197 0
174 197 0
172 196 0
174 198 0
173 197 0
173 196 0
172 196 0
174 197 0
173 197 0
173 197 0
174 197 0
174 197 0
174 198 0
173 197 0
173 197 0
173 197 0
174 197 0
176 199 0
173 197 0
174 198 0
174 196 0
174 197 0
175 198 0
174 197 0
174 198 0
173 196 0
173 197 0
173 197 0
173 197 0
175 198 0
175 198 0
174 197 0
174 197 0
175 198 0
175 198 0
173 197 0
174 198 0
173 196 0
175 198 0
172 196 0
175 198 0
175 198 0
174 197 0
173 197 0
174 197 0
173 196 0
175 198 0
174 197 0
174 198 0
174 197 0
174 197 0
173 196 0
172 196 0
174 197 0
175 198 0
175 198 0
174 197 0
174 197 0
173 197 0
175 198 0
175 198 0
173 197 0
174 197 0
174 198 0
175 198 0
173 197 0
175 198 0
173 197 0
175 198 0
174 197 0
174 197 0
174 197 0
173 197 0
175 198 0
174 198 0
174 198 0
175 198 0
174 197 0
175 198 0
174 198 0
175 198 0
173 196 0
173 197 0
174 197 0
172 197 0
176 198 0
174 198 0
174 197 0
173 197 0
174 198 0
175 198 0
174 198 0
175 198 0
176 198 0
173 197 0
174 198 0
174 198 0
175 198 0
174 197 0
174 197 0
176 199 0
174 197 0
174 198 0
173 197 0
175 198 0
176 199 0
174 197 0
174 197 0
173 197 0
174 198 0
175 198 0
174 198 0
174 198 0
174 197 0
174 197 0
173 197 0
174 197 0
175 198 0
173 197 0
174 197 0
175 198 0
174 197 0
175 198 0
176 198 0
173 197 0
175 198 0
175 198 0
176 199 0
174 197 0
174 197 0
174 198 0
174 197 0
174 197 0
174 198 0
176 198 0
175 198 0
176 199 0
175 198 0
174 197 0
174 197 0
175 198 0
174 198 0
174 197 0
176 199 0
173 197 0
174 198 0
175 198 0
174 198 0
174 198 0
176 199 0
174 197 0
174 198 0
174 198 0
174 198 0
176 198 0
173 197 0
173 197 0
175 198 0
174 198 0
174 198 0
174 197 0
174 197 0
174 198 0
173 197 0
174 197 0
174 197 0
173 197 0
174 198 0
174 198 0
174 197 0
175 198 0
175 198 0
173 197 0
174 197 0
175 198 0
173 197 0
174 198 0
173 196 0
176 198 0
174 197 0
176 198 0
176 198 0
175 198 0
174 197 0
174 198 0
175 198 0
175 198 0
174 198 0
175 198 0
174 197 0
173 197 0
175 198 0
174 198 0
174 198 0
173 197 0
176 199 0
173 197 0
174 198 0
176 198 0
174 198 0
172 196 0
174 197 0
172 196 0
174 197 0
175 198 0
173 197 0
175 198 0
174 198 0
174 198 0
173 197 0
175 198 0
174 197 0
175 198 0
173 197 0
173 197 0
175 198 0
174 197 0
174 197 0
174 197 0
173 196 0
173 196 0
174 197 0
174 198 0
174 197 0
174 198 0
173 196 0
174 198 0
172 196 0
174 197 0
172 196 0
175 198 0
173 196 0
173 197 0
173 197 0
173 197 0
173 196 0
173 197 0
175 198 0
175 197 0
174 197 0
175 198 0
175 198 0
174 198 0
172 196 0
175 198 0
175 198 0
174 198 0
174 197 0
172 196 0
175 198 0
172 196 0
173 197 0
173 197 0
173 197 0
173 197 0
174 198 0
172 196 0
173 196 0
172 195 0
174 197 0
173 197 0
175 197 0
172 195 0
173 196 0
171 195 0
175 198 0
173 197 0
174 197 0
175 198 0
172 195 0
173 197 0
174 197 0
173 196 0
174 197 0
173 197 0
173 196 0
170 193 0
172 196 0
173 197 0
174 197 0
173 196 0
173 197 0
173 196 0
174 198 0
173 196 0
173 197 0
173 197 0
172 195 0
172 196 0
172 195 0
172 196 0
172 195 0
172 196 0
174 197 0
174 197 0
172 195 0
173 196 0
170 194 0
172 196 0
173 196 0
171 194 0
173 196 0
171 195 0
173 196 0
173 197 0
171 194 0
172 195 0
172 195 0
174 197 0
173 197 0
173 196 0
173 197 0
170 194 0
172 196 0
170 194 0
175 198 0
171 194 0
171 195 0
173 196 0
173 197 0
171 195 0
173 197 0
173 196 0
170 195 0
172 195 0
175 198 0
173 197 0
172 196 0
174 197 0
169 193 0
172 196 0
172 195 0
173 197 0
173 196 0
171 194 0
173 197 0
174 197 0
175 197 0
173 197 0
173 197 0
173 196 0
171 194 0
170 194 0
174 197 0
174 198 0
173 196 0
173 196 0
173 197 0
172 196 0
172 196 0
174 197 0
175 198 0
174 197 0
172 195 0
174 197 0
173 197 0
174 198 0
175 198 0
175 197 0
173 197 0
172 195 0
174 197 0
173 196 0
171 195 0
174 197 0
175 198 0
170 194 0
173 196 0
172 196 0
174 198 0
173 196 0
172 196 0
175 197 0
174 197 0
173 197 0
173 196 0
175 198 0
174 197 0
175 198 0
174 197 0
174 197 0
172 196 0
172 195 0
174 198 0
174 197 0
174 198 0
172 196 0
175 198 0
173 196 0
173 197 0
175 198 0
174 197 0
174 198 0
172 195 0
173 196 0
172 196 0
175 198 0
175 198 0
173 197 0
171 195 0
172 196 0
175 198 0
174 198 0
176 198 0
175 198 0
174 198 0
175 198 0
174 197 0
174 197 0
175 198 0
173 196 0
174 197 0
176 199 0
175 198 0
175 197 0
172 197 0
173 197 0
173 197 0
173 196 0
174 198 0
173 196 0
174 196 0
174 197 0
173 197 0
175 197 0
173 197 0
174 198 0
175 198 0
174 197 0
174 197 0
175 198 0
174 198 0
174 197 0
175 198 0
175 198 0
175 197 0
174 198 0
174 197 0
173 197 0
174 197 0
175 198 0
174 197 0
174 197 0
175 198 0
175 198 0
175 198 0
173 197 0
175 198 0
174 197 0
173 197 0
173 196 0
174 198 0
172 197 0
174 197 0
173 197 0
172 197 0
174 197 0
175 198 0
172 196 0
174 196 0
174 197 0
174 198 0
173 196 0
175 198 0
175 198 0
173 197 0
172 195 0
174 198 0
174 196 0
176 198 0
174 197 0
175 198 0
175 198 0
173 197 0
175 198 0
174 197 0
173 197 0
175 198 0
175 198 0
174 197 0
174 197 0
174 198 0
173 197 0
175 198 0
174 198 0
174 197 0
174 197 0
175 198 0
174 198 0
176 199 0
176 198 0
174 198 0
174 198 0
174 198 0
173 197 0
172 196 0
175 198 0
175 198 0
174 197 0
173 197 0
175 198 0
173 197 0
174 198 0
175 198 0
175 198 0
174 198 0
174 198 0
173 197 0
174 198 0
175 198 0
174 198 0
173 197 0
175 198 0
177 199 0
173 197 0
173 197 0
174 198 0
172 197 0
173 197 0
175 198 0
173 197 0
174 197 0
175 198 0
175 198 0
174 197 0
174 197 0
175 198 0
175 198 0
172 196 0
175 198 0
177 199 0
174 198 0
175 198 0
176 199 0
176 199 0
174 198 0
174 197 0
175 198 0
173 197 0
175 198 0
173 197 0
173 197 0
175 198 0
173 197 0
175 198 0
174 198 0
175 198 0
174 198 0
173 197 0
172 196 0
174 198 0
174 197 0
173 197 0
173 197 0
173 197 0
174 197 0
174 198 0
173 196 0
174 197 0
175 198 0
174 198 0
172 196 0
174 197 0
173 197 0
174 198 0
174 198 0
175 198 0
175 198 0
174 197 0
173 197 0
174 198 0
174 198 0
174 197 0
172 196 0
175 198 0
175 198 0
174 198 0
174 197 0
172 196 0
173 197 0
174 198 0
174 198 0
174 197 0
175 198 0
175 198 0
175 198 0
174 197 0
174 197 0
174 198 0
174 198 0
173 197 0
172 197 0
173 197 0
175 198 0
174 197 0
173 197 0
173 196 0
173 197 0
174 197 0
174 197 0
174 197 0
173 197 0
175 198 0
174 197 0
174 197 0
174 197 0
173 197 0
174 197 0
173 197 0
175 198 0
173 197 0
174 197 0
173 196 0
173 197 0
173 197 0
175 198 0
173 196 0
174 197 0
174 197 0
174 197 0
174 198 0
175 198 0
174 197 0
176 199 0
171 196 0
173 196 0
174 197 0
174 198 0
175 198 0
175 198 0
173 197 0
174 198 0
173 197 0
174 198 0
172 195 0
173 196 0
174 197 0
174 197 0
172 196 0
174 196 0
174 198 0
173 197 0
174 198 0
176 198 0
172 196 0
172 196 0
172 196 0
172 195 0
174 197 0
173 196 0
175 198 0
174 197 0
173 197 0
171 195 0
174 198 0
175 198 0
175 198 0
174 197 0
175 197 0
174 197 0
172 195 0
173 196 0
175 198 0
172 195 0
173 197 0
175 198 0
172 196 0
174 197 0
172 196 0
171 195 0
173 196 0
172 197 0
172 195 0
172 195 0
173 197 0
172 196 0
173 196 0
173 197 0
173 197 0
173 196 0
172 196 0
174 197 0
171 196 0
172 196 0
172 196 0
173 197 0
174 198 0
172 196 0
172 196 0
172 196 0
171 194 0
172 196 0
171 195 0
174 197 0
172 196 0
172 195 0
171 194 0
173 196 0
173 197 0
173 196 0
170 193 0
174 197 0
173 197 0
174 197 0
171 194 0
173 195 0
173 195 0
173 197 0
173 196 0
172 196 0
172 196 0
170 195 0
172 195 0
175 198 0
173 196 0
172 196 0
173 196 0
173 196 0
172 196 0
174 197 0
173 197 0
174 197 0
174 197 0
173 197 0
173 197 0
173 196 0
174 197 0
173 196 0
170 194 0
174 197 0
173 196 0
171 194 0
174 196 0
173 197 0
175 198 0
172 195 0
172 197 0
173 197 0
173 197 0
172 196 0
173 197 0
173 197 0
170 194 0
174 198 0
174 197 0
171 195 0
171 195 0
176 199 0
173 197 0
171 195 0
173 197 0
173 197 0
173 196 0
173 197 0
172 196 0
170 193 0
171 194 0
174 198 0
174 197 0
172 195 0
173 196 0
172 196 0
174 196 0
174 198 0
173 196 0
174 197 0
172 196 0
173 197 0
172 195 0
173 197 0
172 196 0
173 196 0
173 196 0
173 196 0
173 196 0
173 196 0
174 197 0
174 197 0
175 198 0
174 198 0
175 198 0
172 196 0
171 195 0
175 198 0
174 197 0
173 197 0
175 198 0
172 196 0
174 197 0
173 196 0
174 197 0
174 197 0
174 197 0
173 196 0
174 197 0
173 197 0
173 196 0
174 197 0
173 197 0
174 197 0
173 197 0
172 196 0
175 198 0
174 197 0
176 198 0
174 196 0
174 197 0
175 198 0
175 198 0
174 198 0
174 197 0
173 196 0
172 196 0
175 198 0
174 197 0
174 197 0
174 198 0
175 198 0
174 198 0
174 198 0
174 198 0
175 198 0
171 196 0
175 198 0
174 197 0
174 197 0
173 197 0
172 196 0
175 198 0
171 196 0
174 198 0
174 197 0
174 198 0
173 197 0
174 198 0
176 199 0
174 197 0
174 198 0
175 198 0
174 197 0
174 197 0
173 196 0
172 195 0
175 198 0
174 197 0
174 197 0
175 198 0
172 196 0
171 196 0
175 198 0
176 199 0
175 198 0
172 196 0
175 198 0
175 198 0
174 197 0
173 197 0
173 197 0
174 197 0
174 198 0
173 197 0
175 198 0
175 198 0
175 198 0
173 197 0
175 198 0
174 197 0
173 197 0
175 198 0
174 198 0
174 197 0
175 198 0
174 198 0
174 197 0
174 198 0
175 198 0
175 198 0
176 198 0
173 197 0
176 198 0
175 198 0
174 198 0
171 195 0
173 197 0
175 198 0
176 199 0
175 198 0
174 197 0
173 197 0
175 198 0
174 198 0
173 197 0
174 198 0
173 197 0
174 198 0
175 198 0
176 199 0
173 196 0
174 198 0
174 197 0
174 198 0
176 199 0
173 196 0
173 197 0
174 198 0
174 197 0
172 196 0
175 198 0
175 198 0
173 197 0
174 197 0
174 198 0
174 197 0
173 197 0
174 198 0
172 196 0
174 198 0
175 198 0
174 198 0
176 198 0
175 198 0
175 198 0
173 197 0
176 198 0
175 198 0
172 196 0
174 198 0
172 197 0
175 198 0
174 198 0
174 198 0
175 198 0
174 198 0
173 197 0
173 196 0
172 196 0
174 197 0
175 198 0
173 197 0
175 198 0
174 197 0
174 198 0
174 198 0
175 198 0
174 197 0
175 198 0
174 198 0
175 198 0
174 197 0
176 199 0
175 198 0
173 197 0
175 198 0
175 198 0
175 197 0
174 197 0
174 197 0
173 197 0
173 197 0
174 197 0
174 198 0
174 198 0
174 198 0
173 197 0
175 198 0
174 198 0
174 198 0
174 198 0
175 198 0
176 199 0
173 197 0
175 198 0
174 198 0
175 198 0
175 198 0
172 196 0
174 197 0
174 198 0
173 197 0
174 197 0
177 199 0
174 198 0
174 198 0
175 198 0
174 198 0
174 198 0
174 197 0
174 197 0
173 197 0
176 199 0
172 196 0
174 197 0
176 198 0
174 198 0
176 198 0
175 198 0
175 198 0
175 198 0
175 198 0
173 197 0
172 196 0
174 197 0
174 198 0
173 197 0
171 195 0
174 198 0
175 198 0
175 198 0
174 197 0
174 198 0
175 198 0
175 198 0
173 197 0
174 197 0
174 197 0
171 195 0
176 199 0
172 196 0
172 196 0
174 196 0
173 197 0
173 197 0
176 198 0
174 198 0
174 198 0
173 197 0
173 197 0
173 197 0
173 196 0
175 198 0
173 197 0
173 196 0
175 197 0
173 197 0
174 197 0
174 197 0
174 198 0
174 197 0
174 198 0
174 198 0
173 197 0
173 197 0
174 197 0
174 198 0
173 196 0
173 197 0
174 197 0
174 198 0
173 196 0
174 198 0
172 196 0
173 197 0
173 196 0
175 198 0
173 196 0
174 198 0
175 198 0
170 194 0
173 197 0
174 196 0
172 196 0
175 198 0
174 198 0
173 196 0
173 197 0
171 195 0
174 198 0
174 197 0
173 197 0
174 197 0
171 196 0
172 196 0
173 196 0
173 196 0
174 196 0
173 196 0
172 195 0
173 196 0
172 196 0
172 195 0
173 197 0
175 198 0
175 198 0
173 196 0
173 197 0
174 198 0
173 196 0
174 197 0
174 197 0
172 196 0
173 197 0
172 196 0
171 195 0
173 197 0
174 196 0
173 197 0
171 195 0
174 197 0
173 197 0
172 195 0
174 197 0
174 197 0
172 194 0
170 193 0
171 195 0
171 195 0
172 196 0
173 196 0
174 197 0
172 195 0
169 193 0
173 197 0
173 197 0
173 196 0
172 196 0
173 197 0
172 196 0
175 197 0
172 195 0
172 195 0
175 198 0
173 197 0
172 196 0
175 198 0
174 196 0
175 198 0
172 196 0
173 197 0
173 196 0
170 194 0
171 195 0
173 196 0
172 196 0
173 196 0
171 195 0
172 195 0
173 197 0
172 195 0
172 195 0
174 197 0
173 197 0
174 197 0
175 198 0
173 196 0
172 196 0
172 196 0
173 197 0
175 198 0
175 198 0
175 198 0
172 196 0
171 195 0
175 198 0
172 196 0
174 197 0
173 197 0
174 198 0
173 197 0
172 196 0
174 197 0
173 197 0
174 197 0
174 198 0
174 198 0
175 198 0
174 197 0
173 197 0
174 198 0
171 194 0
172 196 0
173 196 0
170 195 0
174 198 0
171 195 0
174 198 0
173 197 0
172 196 0
172 196 0
174 198 0
175 198 0
173 197 0
173 196 0
171 195 0
174 197 0
174 198 0
172 195 0
174 197 0
173 197 0
173 197 0
173 197 0
172 195 0
173 197 0
176 198 0
174 197 0
173 197 0
174 198 0
174 197 0
173 196 0
174 197 0
173 197 0
172 196 0
174 198 0
173 197 0
175 198 0
175 198 0
175 198 0
173 197 0
174 198 0
174 197 0
173 197 0
173 196 0
173 196 0
172 196 0
171 194 0
174 197 0
175 198 0
173 197 0
175 198 0
173 197 0
174 198 0
174 198 0
172 196 0
174 197 0
174 197 0
175 198 0
175 198 0
176 199 0
172 197 0
175 198 0
173 197 0
174 197 0
175 198 0
174 197 0
175 198 0
173 197 0
173 197 0
172 195 0
175 198 0
175 197 0
175 198 0
174 197 0
173 196 0
173 197 0
172 196 0
176 199 0
175 198 0
173 197 0
176 199 0
173 197 0
175 198 0
174 197 0
175 198 0
174 198 0
174 198 0
174 197 0
175 198 0
173 197 0
174 198 0
174 198 0
174 197 0
173 197 0
174 198 0
174 197 0
174 197 0
174 197 0
175 198 0
175 198 0
173 197 0
176 198 0
175 198 0
173 197 0
175 198 0
174 197 0
176 198 0
174 197 0
177 199 0
174 197 0
176 199 0
175 198 0
174 198 0
175 198 0
174 197 0
175 198 0
174 198 0
174 198 0
173 197 0
173 196 0
174 198 0
174 198 0
174 198 0
174 198 0
174 197 0
175 198 0
173 196 0
175 198 0
174 198 0
174 198 0
173 197 0
174 198 0
174 197 0
175 198 0
174 197 0
174 198 0
176 198 0
175 198 0
174 198 0
173 197 0
174 198 0
172 196 0
175 198 0
174 198 0
173 197 0
173 197 0
174 198 0
173 197 0
174 198 0
174 198 0
175 198 0
174 198 0
175 198 0
176 198 0
174 197 0
176 198 0
174 198 0
174 197 0
175 198 0
176 198 0
173 197 0
174 197 0
175 198 0
174 198 0
174 197 0
173 197 0
175 198 0
173 197 0
176 199 0
174 197 0
174 198 0
174 197 0
174 198 0
174 197 0
174 197 0
173 197 0
173 197 0
174 198 0
174 198 0
175 198 0
174 197 0
174 198 0
175 198 0
174 197 0
173 197 0
174 197 0
173 197 0
173 197 0
173 197 0
175 198 0
175 198 0
174 198 0
174 198 0
173 197 0
173 197 0
175 198 0
173 197 0
174 197 0
174 197 0
176 198 0
175 198 0
175 198 0
174 197 0
173 196 0
175 198 0
174 198 0
173 196 0
175 198 0
174 197 0
175 198 0
174 198 0
174 198 0
174 198 0
175 198 0
177 199 0
172 197 0
173 197 0
175 198 0
175 198 0
174 197 0
172 196 0
174 197 0
174 197 0
174 198 0
173 197 0
174 196 0
174 197 0
174 198 0
174 198 0
173 197 0
175 198 0
174 198 0
173 197 0
175 198 0
175 198 0
174 198 0
175 198 0
175 198 0
175 198 0
174 197 0
174 198 0
175 198 0
175 198 0
173 197 0
173 197 0
174 198 0
175 198 0
176 199 0
174 198 0
173 197 0
174 198 0
172 196 0
175 198 0
175 198 0
175 198 0
174 197 0
174 198 0
174 197 0
173 197 0
174 197 0
174 197 0
176 199 0
173 197 0
173 196 0
175 198 0
174 198 0
174 197 0
172 196 0
175 198 0
175 198 0
173 196 0
173 197 0
173 197 0
172 196 0
175 198 0
173 196 0
172 196 0
174 198 0
174 197 0
175 198 0
174 197 0
173 197 0
173 196 0
174 198 0
172 196 0
171 195 0
173 196 0
173 197 0
174 197 0
175 198 0
174 198 0
174 197 0
175 198 0
174 197 0
173 197 0
173 197 0
173 196 0
173 197 0
172 196 0
174 197 0
172 196 0
174 196 0
173 197 0
173 197 0
173 197 0
172 196 0
172 195 0
172 197 0
174 196 0
174 197 0
172 196 0
172 196 0
173 197 0
173 197 0
174 198 0
175 198 0
172 195 0
175 197 0
174 197 0
172 195 0
172 196 0
173 196 0
173 196 0
173 197 0
171 195 0
174 197 0
171 195 0
172 195 0
172 196 0
172 196 0
174 197 0
173 197 0
171 195 0
172 195 0
174 197 0
174 198 0
169 193 0
173 196 0
170 194 0
172 196 0
173 196 0
170 194 0
174 198 0
174 198 0
173 196 0
174 197 0
173 196 0
172 196 0
172 195 0
169 194 0
172 195 0
174 197 0
170 194 0
174 197 0
174 197 0
173 196 0
172 196 0
175 198 0
175 198 0
174 197 0
172 196 0
172 196 0
172 196 0
173 196 0
171 195 0
171 194 0
170 194 0
171 194 0
173 197 0
175 198 0
174 197 0
173 196 0
173 197 0
171 196 0
174 197 0
172 196 0
174 198 0
170 195 0
171 195 0
175 198 0
172 195 0
173 197 0
174 197 0
174 197 0
174 197 0
170 194 0
174 198 0
174 197 0
172 196 0
171 195 0
172 195 0
174 197 0
173 197 0
174 198 0
173 197 0
173 197 0
174 197 0
172 196 0
174 197 0
173 196 0
173 196 0
174 197 0
174 198 0
174 197 0
171 195 0
175 198 0
175 197 0
173 196 0
174 197 0
173 197 0
174 197 0
172 196 0
174 197 0
172 196 0
174 197 0
175 197 0
174 197 0
174 197 0
170 194 0
174 197 0
172 196 0
173 197 0
173 196 0
174 198 0
172 196 0
173 197 0
172 196 0
174 197 0
174 197 0
174 197 0
172 196 0
174 198 0
171 196 0
174 197 0
174 198 0
174 198 0
173 196 0
174 197 0
175 198 0
173 197 0
175 198 0
173 197 0
174 197 0
174 198 0
175 198 0
174 197 0
174 197 0
173 197 0
175 198 0
173 197 0
174 197 0
175 198 0
175 198 0
174 197 0
176 198 0
173 197 0
173 196 0
174 197 0
175 198 0
175 198 0
173 197 0
175 197 0
174 197 0
174 197 0
175 198 0
173 196 0
174 197 0
173 196 0
174 197 0
172 196 0
173 197 0
174 198 0
173 196 0
174 197 0
171 195 0
174 197 0
173 197 0
174 198 0
174 198 0
175 198 0
172 196 0
175 198 0
175 198 0
174 198 0
173 197 0
174 198 0
174 197 0
174 197 0
173 197 0
174 197 0
174 197 0
174 198 0
174 197 0
174 198 0
174 197 0
174 197 0
175 198 0
175 198 0
174 197 0
173 197 0
173 197 0
176 199 0
174 198 0
174 197 0
175 198 0
174 198 0
174 198 0
173 197 0
172 196 0
174 198 0
174 198 0
173 197 0
175 198 0
175 198 0
174 198 0
172 197 0
175 198 0
175 198 0
173 196 0
174 197 0
174 198 0
174 198 0
174 198 0
175 198 0
176 198 0
173 197 0
174 197 0
174 197 0
174 198 0
175 198 0
174 198 0
175 198 0
173 197 0
174 197 0
175 198 0
175 198 0
174 198 0
174 198 0
175 198 0
175 198 0
174 198 0
174 198 0
176 199 0
173 197 0
176 198 0
175 198 0
173 197 0
173 197 0
176 198 0
172 196 0
174 198 0
174 198 0
175 198 0
175 198 0
175 198 0
173 197 0
173 197 0
172 197 0
175 198 0
174 198 0
175 198 0
174 198 0
174 198 0
174 197 0
174 198 0
175 198 0
173 197 0
174 198 0
174 197 0
173 197 0
174 197 0
172 196 0
174 197 0
173 197 0
173 197 0
173 197 0
173 197 0
174 198 0
175 198 0
174 197 0
175 198 0
174 197 0
175 198 0
174 198 0
175 198 0
174 197 0
174 198 0
174 198 0
176 198 0
174 197 0
175 198 0
174 197 0
175 198 0
174 198 0
175 198 0
175 198 0
174 197 0
174 198 0
176 199 0
173 197 0
175 198 0
174 197 0
174 198 0
176 198 0
174 197 0
174 197 0
172 197 0
174 197 0
176 198 0
175 198 0
175 198 0
175 198 0
174 197 0
175 198 0
174 198 0
174 197 0
176 198 0
175 198 0
173 197 0
175 198 0
175 197 0
174 197 0
174 198 0
175 198 0
173 196 0
172 196 0
174 198 0
174 198 0
173 197 0
172 196 0
176 199 0
173 197 0
176 199 0
176 199 0
175 198 0
174 198 0
173 197 0
171 195 0
175 198 0
175 198 0
174 198 0
175 198 0
173 197 0
173 197 0
174 198 0
173 197 0
174 197 0
173 197 0
174 197 0
174 197 0
175 198 0
175 198 0
173 197 0
174 197 0
174 197 0
174 197 0
173 197 0
173 197 0
174 198 0
174 197 0
174 197 0
173 196 0
174 198 0
174 198 0
174 197 0
173 197 0
174 197 0
172 196 0
174 197 0
173 197 0
172 196 0
173 197 0
173 197 0
174 197 0
174 197 0
174 197 0
173 197 0
173 197 0
173 197 0
174 198 0
172 195 0
174 196 0
174 197 0
173 197 0
172 196 0
174 197 0
175 198 0
172 197 0
174 197 0
172 196 0
172 196 0
174 197 0
173 196 0
173 197 0
174 197 0
173 197 0
174 198 0
171 195 0
173 197 0
174 198 0
173 196 0
176 198 0
173 197 0
173 196 0
171 195 0
172 196 0
173 197 0
174 197 0
171 195 0
172 197 0
174 198 0
175 197 0
174 197 0
175 198 0
171 195 0
172 196 0
171 195 0
171 195 0
172 196 0
175 198 0
174 197 0
174 197 0
173 196 0
175 197 0
171 195 0
173 196 0
173 196 0
173 196 0
173 196 0
174 197 0
173 197 0
172 195 0
172 196 0
168 192 0
170 194 0
174 197 0
174 197 0
171 195 0
172 196 0
173 195 0
173 196 0
170 194 0
173 197 0
172 195 0
172 196 0
172 195 0
174 197 0
173 196 0
174 198 0
174 197 0
173 197 0
174 198 0
173 197 0
170 194 0
172 196 0
173 197 0
175 198 0
171 195 0
173 196 0
172 196 0
173 196 0
172 196 0
171 195 0
173 197 0
172 196 0
173 196 0
172 195 0
173 196 0
173 196 0
172 196 0
171 194 0
173 197 0
172 195 0
172 195 0
173 197 0
174 197 0
172 196 0
173 197 0
173 196 0
172 196 0
173 196 0
172 196 0
171 194 0
175 198 0
175 198 0
172 195 0
173 196 0
173 197 0
172 196 0
173 196 0
172 196 0
174 197 0
174 198 0
173 197 0
171 195 0
175 198 0
173 196 0
173 196 0
173 197 0
175 197 0
172 196 0
173 197 0
175 198 0
173 197 0
172 195 0
173 196 0
172 196 0
174 198 0
173 197 0
172 195 0
172 196 0
176 198 0
172 196 0
173 197 0
172 196 0
173 197 0
173 197 0
172 195 0
175 198 0
174 197 0
174 198 0
173 196 0
175 198 0
172 196 0
175 198 0
175 198 0
174 198 0
172 196 0
173 196 0
174 197 0
175 198 0
172 195 0
174 197 0
174 198 0
173 197 0
175 198 0
173 197 0
174 197 0
174 198 0
173 197 0
173 197 0
174 197 0
174 197 0
174 198 0
174 197 0
171 195 0
175 198 0
175 197 0
173 196 0
173 197 0
172 195 0
175 198 0
174 198 0
174 198 0
174 197 0
174 198 0
172 196 0
174 198 0
175 197 0
174 197 0
174 198 0
174 197 0
172 196 0
173 197 0
174 198 0
173 197 0
173 197 0
175 198 0
174 197 0
176 198 0
175 198 0
172 197 0
173 197 0
173 197 0
173 197 0
175 198 0
174 197 0
174 198 0
174 197 0
173 197 0
176 199 0
174 197 0
174 197 0
176 199 0
173 197 0
174 197 0
175 197 0
174 197 0
175 198 0
174 198 0
174 197 0
175 198 0
175 198 0
173 197 0
176 198 0
175 198 0
175 198 0
175 198 0
174 197 0
174 197 0
175 198 0
174 198 0
175 197 0
174 198 0
174 197 0
172 197 0
174 198 0
174 198 0
175 198 0
173 197 0
177 199 0
174 198 0
174 197 0
172 196 0
175 198 0
174 197 0
175 198 0
175 198 0
176 198 0
173 197 0
173 197 0
173 197 0
175 198 0
173 197 0
175 198 0
175 198 0
175 198 0
175 198 0
174 197 0
175 198 0
173 197 0
173 197 0
173 197 0
173 197 0
175 198 0
175 198 0
176 199 0
173 197 0
174 197 0
173 197 0
174 198 0
175 198 0
174 198 0
175 198 0
175 198 0
175 198 0
174 198 0
173 197 0
173 197 0
173 197 0
172 197 0
174 198 0
173 197 0
174 198 0
172 197 0
174 197 0
174 197 0
174 198 0
175 198 0
173 197 0
174 198 0
175 198 0
173 197 0
174 198 0
173 197 0
173 197 0
173 196 0
175 198 0
174 197 0
173 197 0
175 198 0
173 197 0
174 198 0
175 198 0
174 197 0
175 198 0
174 197 0
173 197 0
174 198 0
174 198 0
174 197 0
173 197 0
174 197 0
173 196 0
174 198 0
173 197 0
174 198 0
173 197 0
172 197 0
174 197 0
174 197 0
173 197 0
174 198 0
175 198 0
171 195 0
173 197 0
174 198 0
173 197 0
173 197 0
175 198 0
173 197 0
175 198 0
176 198 0
175 198 0
173 197 0
176 198 0
175 198 0
173 197 0
173 196 0
175 198 0
174 197 0
174 198 0
175 198 0
173 197 0
172 197 0
172 196 0
175 198 0
175 198 0
173 197 0
172 196 0
173 197 0
176 198 0
175 198 0
175 197 0
175 198 0
173 197 0
174 197 0
173 197 0
174 198 0
174 197 0
175 198 0
175 198 0
173 197 0
174 198 0
174 198 0
174 197 0
174 198 0
174 197 0
174 197 0
174 197 0
174 198 0
174 198 0
174 197 0
175 198 0
174 198 0
174 197 0
175 198 0
172 196 0
173 196 0
173 197 0
172 196 0
173 197 0
174 197 0
172 196 0
174 198 0
173 197 0
172 195 0
174 198 0
175 198 0
173 196 0
173 196 0
174 197 0
172 196 0
172 196 0
174 197 0
172 196 0
172 197 0
172 196 0
173 197 0
174 198 0
174 198 0
173 196 0
173 197 0
172 196 0
173 196 0
173 197 0
175 198 0
174 198 0
174 197 0
172 196 0
174 197 0
175 198 0
174 197 0
174 197 0
174 196 0
173 197 0
174 198 0
173 197 0
176 198 0
174 197 0
173 196 0
173 196 0
172 196 0
175 198 0
173 196 0
174 198 0
173 197 0
172 196 0
174 197 0
173 196 0
172 197 0
174 197 0
173 196 0
175 198 0
173 197 0
175 198 0
172 196 0
174 197 0
173 196 0
172 195 0
172 195 0
174 197 0
172 196 0
174 197 0
173 197 0
174 197 0
174 198 0
172 196 0
172 196 0
171 195 0
173 197 0
173 197 0
174 197 0
173 197 0
172 196 0
169 193 0
172 195 0
175 198 0
171 194 0
174 197 0
175 198 0
173 196 0
172 195 0
172 196 0
170 194 0
171 195 0
174 197 0
175 198 0
170 194 0
173 197 0
172 196 0
173 197 0
172 196 0
174 197 0
173 196 0
174 197 0
173 196 0
172 195 0
170 193 0
171 195 0
172 196 0
171 195 0
172 195 0
175 198 0
172 195 0
173 196 0
172 196 0
173 196 0
171 194 0
172 195 0
173 196 0
172 196 0
175 198 0
171 195 0
173 196 0
172 195 0
173 196 0
173 197 0
172 196 0
171 195 0
171 194 0
173 196 0
173 197 0
174 198 0
175 198 0
174 198 0
174 197 0
172 196 0
174 197 0
173 196 0
173 196 0
173 196 0
171 195 0
173 197 0
172 196 0
173 196 0
172 196 0
174 197 0
174 198 0
169 192 0
173 196 0
173 197 0
173 197 0
172 195 0
173 196 0
171 194 0
174 197 0
172 197 0
174 197 0
172 196 0
174 197 0
174 197 0
173 196 0
175 197 0
174 197 0
173 197 0
174 198 0
174 197 0
173 197 0
173 196 0
172 196 0
173 196 0
173 196 0
174 198 0
173 197 0
174 197 0
174 197 0
175 197 0
172 196 0
174 198 0
172 196 0
174 197 0
172 196 0
171 195 0
174 197 0
174 197 0
173 196 0
174 198 0
174 197 0
174 197 0
174 197 0
174 198 0
173 197 0
174 197 0
174 198 0
173 197 0
175 198 0
172 197 0
174 197 0
174 198 0
172 196 0
175 198 0
172 196 0
174 198 0
174 198 0
174 197 0
175 198 0
173 197 0
175 197 0
174 197 0
174 197 0
175 198 0
171 196 0
175 198 0
174 197 0
174 198 0
176 198 0
173 197 0
173 197 0
176 198 0
175 198 0
175 198 0
173 197 0
173 196 0
174 198 0
174 198 0
173 196 0
174 198 0
173 196 0
174 197 0
174 197 0
174 198 0
174 197 0
173 197 0
174 198 0
175 197 0
174 197 0
175 198 0
173 196 0
174 198 0
175 198 0
173 197 0
175 198 0
175 198 0
173 197 0
174 197 0
174 197 0
175 198 0
174 198 0
175 198 0
173 196 0
174 197 0
174 198 0
175 198 0
174 198 0
173 197 0
174 198 0
175 198 0
174 197 0
174 197 0
175 198 0
174 198 0
174 197 0
174 197 0
174 197 0
174 198 0
175 198 0
175 198 0
172 197 0
173 197 0
174 197 0
172 196 0
175 198 0
175 198 0
175 198 0
175 198 0
174 198 0
172 196 0
175 198 0
176 199 0
174 198 0
174 197 0
173 197 0
174 198 0
175 198 0
174 198 0
176 199 0
174 198 0
174 198 0
174 197 0
174 198 0
175 198 0
175 198 0
177 199 0
176 198 0
174 198 0
173 197 0
174 198 0
175 198 0
174 198 0
176 199 0
175 198 0
174 198 0
174 198 0
173 197 0
175 198 0
174 198 0
176 199 0
174 198 0
173 197 0
174 198 0
174 197 0
175 198 0
174 197 0
175 198 0
173 197 0
173 197 0
175 198 0
175 198 0
174 198 0
174 198 0
174 198 0
173 197 0
174 197 0
175 198 0
174 198 0
174 197 0
177 199 0
176 199 0
173 197 0
174 197 0
172 197 0
174 198 0
175 198 0
174 198 0
175 198 0
174 198 0
174 198 0
173 197 0
175 198 0
174 198 0
175 198 0
174 198 0
174 198 0
174 198 0
175 198 0
174 198 0
176 199 0
175 198 0
174 197 0
176 199 0
174 198 0
174 197 0
174 198 0
173 197 0
174 198 0
175 198 0
174 197 0
174 197 0
175 198 0
173 197 0
177 199 0
175 198 0
175 198 0
174 198 0
174 197 0
173 197 0
174 197 0
172 196 0
174 198 0
174 197 0
174 198 0
174 198 0
173 197 0
174 198 0
173 196 0
175 198 0
174 198 0
174 198 0
175 198 0
173 197 0
174 198 0
175 198 0
174 198 0
173 197 0
175 198 0
175 198 0
175 198 0
172 197 0
175 198 0
174 198 0
174 197 0
173 196 0
174 198 0
173 197 0
175 198 0
175 198 0
174 198 0
174 198 0
174 198 0
172 197 0
173 197 0
175 198 0
175 198 0
176 199 0
175 198 0
175 198 0
173 197 0
173 197 0
173 197 0
173 196 0
176 199 0
173 197 0
173 196 0
173 197 0
173 197 0
172 196 0
174 197 0
174 198 0
173 197 0
174 198 0
174 197 0
174 197 0
174 197 0
174 197 0
175 198 0
174 197 0
173 197 0
173 197 0
174 197 0
175 198 0
173 197 0
171 195 0
174 197 0
172 196 0
174 197 0
176 198 0
174 197 0
174 197 0
172 196 0
172 195 0
172 196 0
173 197 0
173 197 0
174 198 0
175 198 0
174 198 0
174 197 0
174 198 0
173 197 0
174 197 0
176 199 0
173 197 0
175 198 0
173 197 0
172 196 0
172 197 0
173 197 0
173 197 0
175 198 0
174 198 0
173 197 0
172 195 0
171 195 0
174 197 0
175 198 0
174 197 0
173 197 0
175 198 0
172 195 0
173 197 0
173 197 0
173 197 0
174 197 0
175 198 0
173 196 0
174 197 0
172 196 0
172 195 0
171 194 0
172 196 0
172 196 0
173 196 0
173 197 0
173 196 0
172 196 0
173 196 0
173 197 0
174 197 0
171 195 0
173 197 0
172 196 0
173 196 0
173 196 0
172 196 0
173 197 0
174 197 0
173 197 0
174 197 0
174 197 0
172 196 0
174 196 0
174 197 0
173 196 0
172 195 0
170 194 0
171 194 0
172 195 0
173 197 0
173 196 0
174 197 0
172 196 0
174 197 0
172 196 0
173 197 0
172 195 0
173 197 0
172 196 0
172 195 0
173 196 0
172 196 0
174 197 0
173 197 0
172 196 0
172 195 0
173 196 0
173 197 0
173 197 0
173 196 0
174 197 0
173 197 0
174 197 0
172 196 0
174 198 0
172 196 0
174 198 0
173 196 0
173 197 0
173 197 0
175 198 0
174 198 0
174 198 0
174 197 0
174 197 0
172 194 0
174 198 0
175 197 0
171 194 0
173 197 0
174 196 0
172 196 0
175 198 0
173 197 0
174 196 0
173 196 0
173 196 0
174 197 0
173 197 0
171 196 0
174 198 0
175 198 0
173 197 0
175 198 0
174 197 0
173 196 0
175 198 0
174 197 0
173 197 0
173 197 0
175 198 0
173 197 0
172 196 0
174 197 0
175 198 0
175 198 0
174 198 0
174 198 0
173 197 0
174 197 0
173 197 0
173 197 0
175 198 0
174 197 0
174 197 0
173 197 0
173 197 0
174 197 0
174 197 0
173 196 0
173 197 0
173 197 0
173 196 0
173 197 0
175 198 0
173 197 0
173 196 0
174 198 0
174 197 0
174 197 0
173 197 0
174 198 0
175 198 0
174 197 0
175 198 0
175 198 0
176 198 0
175 197 0
175 198 0
174 197 0
175 198 0
174 198 0
174 197 0
171 195 0
173 197 0
174 198 0
173 197 0
173 197 0
175 198 0
174 198 0
174 198 0
174 197 0
171 194 0
174 197 0
173 196 0
174 197 0
173 197 0
174 198 0
174 197 0
174 196 0
174 198 0
174 198 0
174 198 0
175 198 0
172 196 0
173 197 0
174 197 0
175 198 0
174 197 0
173 197 0
174 198 0
173 197 0
174 198 0
174 198 0
175 198 0
172 196 0
176 199 0
175 198 0
173 197 0
175 198 0
174 197 0
175 198 0
173 196 0
175 198 0
174 197 0
175 198 0
174 197 0
173 197 0
175 198 0
174 198 0
173 197 0
175 198 0
175 198 0
173 197 0
173 197 0
174 198 0
174 197 0
175 198 0
173 197 0
174 198 0
174 197 0
174 198 0
173 197 0
173 197 0
173 197 0
174 197 0
173 197 0
172 197 0
173 197 0
174 197 0
174 198 0
174 198 0
174 197 0
175 198 0
174 198 0
174 197 0
174 198 0
176 198 0
176 198 0
175 198 0
175 198 0
175 198 0
175 198 0
175 198 0
173 196 0
173 197 0
174 198 0
175 198 0
175 198 0
173 197 0
174 198 0
174 198 0
175 198 0
175 198 0
177 199 0
177 199 0
175 198 0
175 198 0
175 198 0
175 198 0
175 198 0
173 197 0
174 197 0
175 198 0
174 197 0
175 198 0
175 198 0
173 197 0
173 197 0
174 198 0
175 198 0
176 199 0
175 198 0
174 198 0
174 197 0
174 197 0
175 198 0
176 198 0
174 197 0
175 198 0
174 197 0
176 199 0
174 198 0
174 197 0
175 198 0
173 197 0
175 198 0
173 197 0
174 197 0
174 197 0
173 197 0
174 198 0
176 198 0
176 199 0
175 198 0
174 198 0
175 198 0
172 197 0
173 197 0
174 198 0
173 197 0
174 197 0
172 196 0
175 198 0
173 196 0
174 198 0
172 197 0
176 198 0
173 197 0
173 197 0
175 198 0
174 198 0
175 198 0
175 198 0
174 198 0
174 198 0
175 198 0
173 196 0
175 198 0
175 198 0
176 199 0
175 198 0
173 197 0
174 197 0
174 198 0
173 197 0
174 198 0
173 197 0
173 197 0
171 195 0
174 198 0
173 197 0
173 197 0
173 197 0
173 196 0
174 197 0
173 197 0
174 197 0
175 198 0
174 197 0
173 197 0
176 199 0
174 198 0
174 198 0
175 198 0
173 197 0
172 196 0
174 198 0
174 197 0
175 198 0
176 198 0
173 197 0
174 197 0
174 198 0
174 198 0
173 197 0
173 197 0
173 197 0
175 198 0
173 196 0
174 197 0
174 197 0
174 197 0
173 197 0
173 197 0
174 197 0
174 197 0
173 197 0
173 197 0
173 196 0
172 197 0
174 198 0
174 198 0
174 198 0
173 196 0
174 198 0
172 196 0
172 196 0
174 197 0
174 197 0
173 197 0
174 197 0
174 198 0
173 197 0
172 195 0
174 197 0
174 198 0
173 197 0
175 197 0
173 197 0
172 196 0
173 197 0
174 197 0
172 196 0
174 197 0
171 196 0
172 196 0
174 197 0
175 198 0
173 197 0
168 192 0
173 196 0
173 197 0
174 197 0
174 197 0
174 197 0
173 196 0
173 197 0
173 197 0
169 193 0
174 198 0
172 197 0
173 196 0
174 197 0
174 197 0
171 195 0
173 197 0
173 197 0
174 197 0
174 197 0
174 198 0
172 195 0
174 197 0
175 198 0
174 197 0
175 198 0
174 197 0
171 195 0
173 196 0
173 196 0
174 197 0
173 197 0
172 195 0
172 195 0
174 197 0
173 196 0
173 197 0
171 195 0
173 197 0
175 198 0
172 196 0
172 196 0
173 197 0
171 196 0
172 195 0
173 196 0
172 196 0
172 195 0
174 197 0
175 198 0
172 196 0
171 195 0
172 196 0
172 196 0
176 199 0
173 197 0
173 197 0
175 198 0
173 197 0
172 196 0
175 198 0
172 196 0
174 198 0
174 197 0
173 197 0
171 195 0
174 198 0
172 195 0
173 196 0
171 194 0
174 197 0
171 195 0
172 196 0
172 195 0
173 196 0
173 196 0
175 198 0
174 197 0
170 194 0
175 198 0
174 197 0
175 198 0
172 196 0
173 195 0
174 197 0
174 196 0
173 196 0
173 197 0
173 196 0
172 195 0
173 197 0
174 197 0
173 197 0
172 196 0
172 196 0
172 196 0
172 196 0
173 196 0
175 198 0
172 196 0
173 196 0
175 198 0
175 198 0
171 195 0
173 197 0
174 197 0
174 197 0
171 194 0
174 198 0
173 196 0
175 198 0
173 197 0
173 196 0
173 197 0
173 197 0
174 197 0
173 196 0
172 196 0
172 196 0
175 198 0
175 198 0
172 196 0
174 196 0
173 197 0
173 197 0
172 196 0
173 197 0
174 198 0
173 196 0
173 197 0
171 195 0
173 197 0
173 197 0
174 196 0
173 196 0
174 198 0
172 195 0
173 197 0
173 197 0
174 197 0
172 196 0
174 198 0
173 197 0
174 197 0
172 196 0
175 198 0
175 198 0
171 195 0
175 198 0
174 197 0
175 198 0
175 197 0
174 197 0
172 195 0
176 198 0
175 198 0
174 197 0
174 197 0
175 198 0
173 197 0
174 198 0
175 198 0
173 197 0
174 197 0
174 197 0
173 197 0
175 198 0
174 197 0
175 198 0
174 198 0
174 198 0
175 198 0
175 198 0
175 198 0
175 198 0
174 198 0
174 198 0
173 197 0
173 197 0
174 198 0
173 197 0
172 197 0
174 198 0
173 197 0
174 198 0
175 198 0
173 197 0
174 198 0
174 197 0
174 198 0
174 198 0
174 197 0
174 198 0
173 197 0
175 198 0
175 198 0
174 197 0
173 197 0
173 197 0
174 198 0
173 196 0
175 198 0
174 197 0
174 197 0
173 197 0
174 197 0
173 197 0
175 198 0
173 197 0
174 198 0
175 198 0
174 198 0
175 198 0
174 197 0
173 197 0
175 198 0
176 198 0
174 197 0
175 198 0
175 198 0
174 197 0
173 197 0
174 197 0
173 197 0
175 198 0
174 197 0
174 197 0
174 197 0
173 197 0
175 198 0
174 198 0
174 198 0
175 198 0
175 198 0
175 198 0
175 198 0
173 197 0
174 197 0
175 198 0
175 198 0
174 197 0
173 197 0
174 197 0
175 198 0
172 196 0
176 199 0
175 198 0
174 197 0
173 197 0
173 197 0
176 199 0
174 198 0
176 199 0
174 198 0
173 197 0
175 198 0
174 198 0
175 198 0
174 198 0
175 198 0
173 197 0
174 198 0
174 197 0
173 197 0
174 198 0
175 198 0
174 198 0
175 198 0
174 198 0
175 198 0
175 198 0
175 198 0
175 198 0
175 198 0
175 198 0
173 197 0
174 198 0
174 198 0
175 198 0
175 198 0
173 197 0
176 199 0
175 198 0
177 199 0
174 197 0
175 198 0
174 197 0
174 198 0
174 198 0
175 198 0
174 198 0
176 199 0
174 197 0
176 198 0
176 198 0
174 197 0
175 198 0
175 198 0
175 198 0
175 198 0
173 197 0
176 198 0
175 198 0
174 198 0
174 198 0
174 197 0
175 198 0
176 199 0
173 197 0
174 198 0
173 197 0
174 197 0
175 198 0
175 198 0
174 197 0
174 197 0
175 198 0
174 197 0
174 197 0
174 198 0
173 197 0
173 197 0
174 197 0
173 197 0
175 198 0
176 198 0
175 198 0
175 198 0
173 197 0
174 198 0
173 196 0
175 198 0
173 197 0
175 198 0
174 197 0
173 197 0
174 197 0
174 198 0
175 198 0
174 198 0
175 198 0
172 196 0
174 198 0
174 198 0
175 198 0
174 197 0
174 197 0
173 197 0
175 198 0
173 197 0
175 198 0
172 196 0
173 197 0
174 197 0
172 197 0
171 195 0
173 197 0
174 197 0
174 198 0
173 197 0
173 197 0
174 197 0
174 197 0
174 197 0
174 197 0
173 197 0
175 198 0
174 197 0
173 197 0
175 198 0
175 198 0
173 197 0
172 196 0
174 198 0
174 198 0
173 196 0
174 198 0
174 197 0
173 197 0
174 198 0
174 197 0
174 197 0
174 197 0
175 198 0
174 197 0
173 196 0
173 196 0
175 198 0
173 197 0
173 197 0
173 197 0
176 198 0
174 197 0
173 197 0
173 197 0
174 198 0
173 197 0
175 198 0
172 197 0
174 197 0
174 197 0
172 196 0
174 197 0
174 197 0
174 198 0
173 196 0
173 197 0
173 196 0
172 196 0
172 196 0
171 195 0
174 197 0
172 196 0
174 198 0
172 196 0
173 196 0
174 197 0
171 195 0
172 195 0
172 196 0
174 197 0
173 196 0
174 198 0
176 198 0
174 197 0
173 196 0
172 195 0
175 198 0
171 195 0
176 198 0
172 195 0
173 196 0
172 196 0
172 195 0
169 194 0
173 197 0
172 196 0
174 197 0
174 197 0
175 198 0
175 198 0
173 197 0
171 195 0
172 196 0
171 194 0
175 198 0
172 196 0
175 198 0
173 197 0
174 197 0
173 196 0
172 195 0
175 198 0
173 196 0
173 197 0
174 197 0
173 197 0
175 198 0
173 197 0
174 197 0
172 196 0
176 198 0
169 194 0
173 195 0
174 197 0
173 196 0
173 196 0
173 196 0
173 196 0
173 196 0
172 196 0
173 197 0
171 195 0
173 197 0
172 196 0
173 196 0
176 198 0
174 197 0
174 197 0
172 196 0
174 197 0
174 197 0
170 194 0
171 195 0
175 197 0
169 192 0
174 197 0
174 198 0
173 197 0
173 196 0
175 198 0
174 197 0
173 197 0
174 197 0
171 195 0
173 196 0
175 198 0
174 197 0
172 196 0
174 197 0
171 195 0
173 197 0
172 196 0
176 199 0
172 196 0
174 198 0
173 196 0
175 198 0
169 193 0
174 198 0
173 197 0
173 196 0
173 196 0
173 196 0
173 197 0
173 197 0
172 195 0
173 196 0
172 196 0
172 196 0
174 197 0
172 196 0
173 196 0
174 197 0
173 197 0
174 197 0
174 197 0
173 196 0
173 197 0
174 198 0
175 198 0
174 197 0
175 198 0
174 198 0
176 199 0
175 198 0
174 198 0
173 197 0
174 197 0
172 196 0
173 197 0
177 199 0
173 197 0
175 198 0
174 198 0
173 196 0
172 196 0
173 197 0
175 198 0
174 197 0
174 197 0
174 197 0
173 197 0
175 198 0
173 196 0
174 197 0
172 196 0
175 198 0
174 198 0
174 197 0
172 196 0
175 198 0
175 198 0
174 197 0
174 198 0
176 198 0
174 197 0
174 198 0
173 197 0
175 198 0
172 196 0
173 196 0
175 198 0
174 198 0
176 198 0
175 198 0
172 196 0
172 196 0
173 196 0
173 197 0
172 196 0
174 198 0
174 197 0
175 198 0
175 198 0
173 197 0
174 198 0
174 198 0
174 198 0
175 198 0
174 197 0
172 196 0
174 197 0
173 197 0
174 197 0
173 197 0
175 198 0
174 198 0
170 194 0
175 198 0
174 197 0
174 198 0
173 197 0
172 196 0
174 198 0
173 197 0
175 198 0
174 197 0
174 197 0
174 197 0
174 197 0
175 198 0
173 196 0
176 199 0
174 198 0
173 196 0
176 198 0
173 197 0
173 197 0
174 198 0
173 197 0
175 198 0
173 197 0
174 198 0
173 197 0
174 197 0
174 197 0
173 197 0
176 199 0
174 197 0
175 198 0
174 197 0
174 197 0
173 196 0
175 198 0
175 198 0
175 198 0
175 198 0
174 197 0
174 198 0
174 197 0
175 197 0
174 198 0
175 198 0
174 198 0
175 198 0
174 197 0
174 198 0
175 198 0
173 197 0
174 198 0
174 197 0
175 198 0
175 198 0
174 198 0
174 198 0
175 198 0
176 199 0
174 198 0
173 197 0
173 197 0
175 198 0
175 198 0
174 197 0
175 198 0
174 198 0
174 197 0
175 198 0
174 197 0
174 197 0
174 198 0
174 198 0
175 198 0
174 198 0
175 198 0
174 198 0
174 198 0
175 198 0
172 196 0
174 197 0
175 198 0
176 198 0
174 197 0
175 198 0
174 197 0
175 198 0
174 198 0
173 197 0
175 198 0
172 196 0
173 197 0
174 198 0
174 198 0
174 197 0
175 198 0
174 198 0
175 198 0
175 198 0
173 197 0
175 198 0
173 197 0
176 198 0
176 199 0
174 198 0
174 197 0
173 197 0
175 198 0
175 198 0
175 198 0
174 198 0
175 198 0
175 198 0
173 197 0
175 198 0
175 198 0
171 195 0
175 198 0
175 198 0
175 198 0
175 198 0
176 198 0
175 198 0
174 198 0
174 197 0
174 197 0
173 196 0
175 198 0
175 198 0
173 197 0
174 198 0
172 196 0
175 198 0
175 198 0
175 198 0
174 198 0
174 197 0
174 197 0
174 197 0
174 198 0
173 197 0
173 197 0
176 199 0
175 198 0
173 196 0
174 197 0
173 196 0
174 197 0
173 197 0
175 198 0
173 196 0
175 198 0
174 198 0
174 197 0
173 197 0
174 197 0
175 198 0
174 198 0
168 192 0
173 196 0
174 198 0
174 197 0
174 198 0
173 196 0
174 197 0
172 196 0
173 197 0
173 196 0
174 197 0
173 196 0
175 198 0
174 198 0
174 198 0
173 197 0
174 197 0
173 196 0
172 196 0
173 197 0
174 197 0
172 196 0
172 196 0
174 198 0
173 197 0
174 198 0
174 198 0
174 197 0
172 196 0
173 196 0
174 197 0
176 198 0
173 197 0
171 195 0
174 197 0
174 198 0
175 198 0
175 198 0
173 197 0
175 198 0
174 198 0
174 197 0
172 196 0
172 196 0
173 197 0
172 195 0
172 196 0
174 198 0
172 195 0
174 196 0
173 197 0
174 198 0
175 198 0
174 197 0
172 196 0
174 197 0
173 197 0
172 195 0
172 196 0
173 197 0
174 197 0
171 195 0
174 198 0
173 197 0
174 197 0
172 196 0
174 197 0
173 197 0
171 195 0
172 196 0
172 195 0
173 197 0
172 196 0
173 196 0
173 196 0
174 197 0
174 197 0
173 196 0
174 197 0
173 196 0
174 198 0
174 197 0
174 197 0
172 195 0
171 194 0
173 196 0
172 196 0
171 195 0
172 196 0
172 196 0
174 198 0
171 195 0
173 195 0
173 196 0
172 196 0
173 196 0
173 196 0
174 197 0
173 197 0
172 196 0
172 196 0
173 197 0
174 197 0
174 197 0
173 197 0
172 196 0
173 196 0
174 197 0
173 197 0
173 196 0
172 196 0
170 194 0
174 198 0
171 195 0
173 196 0
171 195 0
175 198 0
172 195 0
173 196 0
174 197 0
174 197 0
172 196 0
171 195 0
176 199 0
172 196 0
172 195 0
174 197 0
175 198 0
175 198 0
173 196 0
174 197 0
176 198 0
175 198 0
174 197 0
174 197 0
170 194 0
174 197 0
174 197 0
173 197 0
173 197 0
175 198 0
173 197 0
174 198 0
175 198 0
173 197 0
171 194 0
175 198 0
173 197 0
173 197 0
172 195 0
174 198 0
173 197 0
173 196 0
170 194 0
173 197 0
174 198 0
175 198 0
174 197 0
173 197 0
174 197 0
175 198 0
171 194 0
175 198 0
174 198 0
172 196 0
174 198 0
175 198 0
174 198 0
172 195 0
175 198 0
174 197 0
175 198 0
174 197 0
174 197 0
174 197 0
172 195 0
173 196 0
175 198 0
175 198 0
174 197 0
174 198 0
175 198 0
173 196 0
172 196 0
173 196 0
174 198 0
173 196 0
176 199 0
174 198 0
175 198 0
175 198 0
173 197 0
174 197 0
173 196 0
173 197 0
173 197 0
174 197 0
174 197 0
174 197 0
175 198 0
174 198 0
173 197 0
174 197 0
172 195 0
174 197 0
175 198 0
174 198 0
175 198 0
174 198 0
175 198 0
174 198 0
175 198 0
173 197 0
175 198 0
176 198 0
176 198 0
175 198 0
174 197 0
174 197 0
172 196 0
174 198 0
175 198 0
174 197 0
173 196 0
175 198 0
172 196 0
173 197 0
175 198 0
174 197 0
173 197 0
173 197 0
175 198 0
174 197 0
175 198 0
173 197 0
174 197 0
174 197 0
175 198 0
174 197 0
176 199 0
177 199 0
174 198 0
175 198 0
175 198 0
175 198 0
174 198 0
174 198 0
174 197 0
174 198 0
174 198 0
174 198 0
176 199 0
173 197 0
175 198 0
175 198 0
174 198 0
173 196 0
173 197 0
174 197 0
173 197 0
175 198 0
173 197 0
174 197 0
174 197 0
175 198 0
175 198 0
175 198 0
176 198 0
174 197 0
175 198 0
175 198 0
173 197 0
174 197 0
176 199 0
175 198 0
175 198 0
175 198 0
173 197 0
175 198 0
172 197 0
175 198 0
176 199 0
174 197 0
174 198 0
173 197 0
176 199 0
176 199 0
173 197 0
174 198 0
175 198 0
174 198 0
173 197 0
174 198 0
174 198 0
173 197 0
175 198 0
174 197 0
173 197 0
173 197 0
173 197 0
173 197 0
174 197 0
174 198 0
174 198 0
176 198 0
173 197 0
176 198 0
175 198 0
173 196 0
174 198 0
174 198 0
174 198 0
176 199 0
174 198 0
174 197 0
174 198 0
173 197 0
173 197 0
175 198 0
176 199 0
173 197 0
173 197 0
174 198 0
174 198 0
174 197 0
174 198 0
175 198 0
175 198 0
175 198 0
176 198 0
175 198 0
174 198 0
173 197 0
176 198 0
174 197 0
174 197 0
174 197 0
174 198 0
174 198 0
174 198 0
174 198 0
174 197 0
175 198 0
175 198 0
175 198 0
174 198 0
173 197 0
174 198 0
175 198 0
175 198 0
176 199 0
174 198 0
173 197 0
175 198 0
175 198 0
172 196 0
174 198 0
174 197 0
173 197 0
173 197 0
173 197 0
175 198 0
173 197 0
173 197 0
172 196 0
173 197 0
174 197 0
175 198 0
174 198 0
173 197 0
175 198 0
174 198 0
175 198 0
175 198 0
173 197 0
174 198 0
173 197 0
175 198 0
172 195 0
173 197 0
174 198 0
175 198 0
176 198 0
176 199 0
173 197 0
174 198 0
171 195 0
175 198 0
174 197 0
173 197 0
175 198 0
173 197 0
174 198 0
174 197 0
172 197 0
173 196 0
176 198 0
175 198 0
175 198 0
174 198 0
175 198 0
174 198 0
174 198 0
174 197 0
175 198 0
174 198 0
171 196 0
173 197 0
176 198 0
174 197 0
173 196 0
174 197 0
174 198 0
174 197 0
175 198 0
173 197 0
174 198 0
175 198 0
174 198 0
173 197 0
172 196 0
174 198 0
172 196 0
175 198 0
174 198 0
172 197 0
172 196 0
174 197 0
175 198 0
174 197 0
174 198 0
174 198 0
174 197 0
173 196 0
174 197 0
175 198 0
172 196 0
173 196 0
173 197 0
172 196 0
176 199 0
173 197 0
173 196 0
175 197 0
174 197 0
174 198 0
173 196 0
174 197 0
174 197 0
174 197 0
173 197 0
174 197 0
173 197 0
174 198 0
173 197 0
172 197 0
175 198 0
175 198 0
173 197 0
172 196 0
172 196 0
174 197 0
172 196 0
172 195 0
172 195 0
173 196 0
174 197 0
173 196 0
172 196 0
172 195 0
174 197 0
175 198 0
176 199 0
173 197 0
174 197 0
174 198 0
171 194 0
175 197 0
172 195 0
173 197 0
173 197 0
174 197 0
171 194 0
174 196 0
174 197 0
172 196 0
174 197 0
171 196 0
171 194 0
174 198 0
171 195 0
175 198 0
173 197 0
173 197 0
172 195 0
172 195 0
172 196 0
173 197 0
174 196 0
174 197 0
172 196 0
175 197 0
171 195 0
175 198 0
170 193 0
174 197 0
172 196 0
174 198 0
170 194 0
171 195 0
171 195 0
173 196 0
173 197 0
173 196 0
174 197 0
174 197 0
173 197 0
169 193 0
170 194 0
173 197 0
173 196 0
173 196 0
173 197 0
172 196 0
171 195 0
172 195 0
174 197 0
172 195 0
174 197 0
171 194 0
173 196 0
174 197 0
174 197 0
173 197 0
174 197 0
173 197 0
174 197 0
169 194 0
174 197 0
172 196 0
175 198 0
174 197 0
175 198 0
172 196 0
173 196 0
171 194 0
171 195 0
173 196 0
173 197 0
174 197 0
173 197 0
173 197 0
172 196 0
173 196 0
173 196 0
173 196 0
173 196 0
174 197 0
175 198 0
173 197 0
174 197 0
174 196 0
175 198 0
174 197 0
174 196 0
173 196 0
173 196 0
172 196 0
173 196 0
174 198 0
175 198 0
174 197 0
174 197 0
176 199 0
174 197 0
173 197 0
174 198 0
175 198 0
173 196 0
174 197 0
174 198 0
171 195 0
174 198 0
174 197 0
175 198 0
175 197 0
176 199 0
173 197 0
175 198 0
173 196 0
175 198 0
174 198 0
174 197 0
175 198 0
174 197 0
174 198 0
174 198 0
175 197 0
174 197 0
172 197 0
174 198 0
174 197 0
173 197 0
174 197 0
173 197 0
175 198 0
174 198 0
176 198 0
175 197 0
173 197 0
175 198 0
175 198 0
175 198 0
174 198 0
175 198 0
173 197 0
174 198 0
172 196 0
176 199 0
173 196 0
174 198 0
174 198 0
173 197 0
175 198 0
174 197 0
174 198 0
174 197 0
174 198 0
174 198 0
174 197 0
174 198 0
172 196 0
173 196 0
173 197 0
174 197 0
174 198 0
175 198 0
174 198 0
174 197 0
175 198 0
175 198 0
175 198 0
175 198 0
174 197 0
174 197 0
173 197 0
176 199 0
175 198 0
176 199 0
174 198 0
174 197 0
173 197 0
175 198 0
175 198 0
175 198 0
174 198 0
175 198 0
174 198 0
172 196 0
175 198 0
174 198 0
173 197 0
174 198 0
174 198 0
174 197 0
175 198 0
175 198 0
175 198 0
173 197 0
173 197 0
174 198 0
173 197 0
175 198 0
174 197 0
173 197 0
173 197 0
174 198 0
173 197 0
174 198 0
174 197 0
175 198 0
176 198 0
174 198 0
174 197 0
173 197 0
176 198 0
175 198 0
173 197 0
174 197 0
173 197 0
175 198 0
175 198 0
175 198 0
175 198 0
173 197 0
174 198 0
175 198 0
174 198 0
174 198 0
174 197 0
174 198 0
173 197 0
174 197 0
174 197 0
174 197 0
173 197 0
174 198 0
175 198 0
176 198 0
174 198 0
177 199 0
175 198 0
175 198 0
175 198 0
174 198 0
173 197 0
173 197 0
173 197 0
173 197 0
174 198 0
176 198 0
173 197 0
174 197 0
174 197 0
173 197 0
176 199 0
174 198 0
173 197 0
175 198 0
174 197 0
173 197 0
174 198 0
175 198 0
173 197 0
173 197 0
175 198 0
173 197 0
174 198 0
173 197 0
172 196 0
174 197 0
173 197 0
175 198 0
174 197 0
175 198 0
175 198 0
174 197 0
176 199 0
174 198 0
174 198 0
175 198 0
173 197 0
174 198 0
173 197 0
174 198 0
172 196 0
174 197 0
175 198 0
172 196 0
173 197 0
172 196 0
173 197 0
175 197 0
174 197 0
173 197 0
173 196 0
172 196 0
175 198 0
173 197 0
174 198 0
174 198 0
173 197 0
172 196 0
174 197 0
173 197 0
175 198 0
174 197 0
174 198 0
176 199 0
173 197 0
174 197 0
174 197 0
173 197 0
175 198 0
173 197 0
177 199 0
175 198 0
175 198 0
174 198 0
175 198 0
174 197 0
174 197 0
173 197 0
174 198 0
173 197 0
174 198 0
173 196 0
174 197 0
173 197 0
174 197 0
175 198 0
173 196 0
174 197 0
174 197 0
174 198 0
174 198 0
172 195 0
174 197 0
174 197 0
173 197 0
174 197 0
173 196 0
173 197 0
173 197 0
174 197 0
174 198 0
173 197 0
175 198 0
176 199 0
174 197 0
173 196 0
173 197 0
175 198 0
173 197 0
172 196 0
175 198 0
173 197 0
174 198 0
174 198 0
174 197 0
173 197 0
174 197 0
174 197 0
174 198 0
173 197 0
170 194 0
174 197 0
171 195 0
173 197 0
173 197 0
173 197 0
174 197 0
173 196 0
173 197 0
173 196 0
174 197 0
173 196 0
172 197 0
174 197 0
173 197 0
175 198 0
173 197 0
173 197 0
172 196 0
173 197 0
172 195 0
173 197 0
170 194 0
175 198 0
174 196 0
174 197 0
174 197 0
173 197 0
173 196 0
172 196 0
174 197 0
174 197 0
174 197 0
173 196 0
173 196 0
174 197 0
173 196 0
172 196 0
174 198 0
169 193 0
173 196 0
174 197 0
174 197 0
172 196 0
172 196 0
173 196 0
174 198 0
172 196 0
174 197 0
173 196 0
172 195 0
173 196 0
172 197 0
172 195 0
175 198 0
173 196 0
171 195 0
172 196 0
174 198 0
171 195 0
172 196 0
173 197 0
172 196 0
173 197 0
173 196 0
172 196 0
175 198 0
172 196 0
173 196 0
172 196 0
174 197 0
170 195 0
174 197 0
172 195 0
172 196 0
172 196 0
174 197 0
173 196 0
171 195 0
173 196 0
173 196 0
173 196 0
175 198 0
173 196 0
174 198 0
174 198 0
174 198 0
175 198 0
175 198 0
172 196 0
174 197 0
172 195 0
174 197 0
173 196 0
175 198 0
173 196 0
173 196 0
172 196 0
173 197 0
171 196 0
171 195 0
174 197 0
171 195 0
174 198 0
173 197 0
173 196 0
172 195 0
173 197 0
174 198 0
174 197 0
175 198 0
175 198 0
175 198 0
173 196 0
175 198 0
172 196 0
175 198 0
174 198 0
174 197 0
173 197 0
173 197 0
173 196 0
171 195 0
175 198 0
172 196 0
173 196 0
173 196 0
174 197 0
175 198 0
174 197 0
174 198 0
173 196 0
173 197 0
174 198 0
173 196 0
173 197 0
172 195 0
173 196 0
174 197 0
172 196 0
173 197 0
174 198 0
176 198 0
177 199 0
173 196 0
175 198 0
174 198 0
172 196 0
173 197 0
174 197 0
174 197 0
173 197 0
174 198 0
173 196 0
173 196 0
173 196 0
173 197 0
175 198 0
174 197 0
175 198 0
174 198 0
174 198 0
173 197 0
174 198 0
173 197 0
175 198 0
175 197 0
175 198 0
174 197 0
174 197 0
175 198 0
175 198 0
175 198 0
174 197 0
174 197 0
174 197 0
175 197 0
174 196 0
174 198 0
174 197 0
174 198 0
175 198 0
173 197 0
174 198 0
174 197 0
174 197 0
173 197 0
174 198 0
174 197 0
174 197 0
174 197 0
174 197 0
175 198 0
174 197 0
176 198 0
174 198 0
174 197 0
174 197 0
176 198 0
174 197 0
174 197 0
173 197 0
175 198 0
173 197 0
174 197 0
174 198 0
174 197 0
175 198 0
175 198 0
173 197 0
175 198 0
176 199 0
174 198 0
176 198 0
173 197 0
176 198 0
175 198 0
174 198 0
173 197 0
174 198 0
173 196 0
173 197 0
175 198 0
173 197 0
173 197 0
174 198 0
174 198 0
174 197 0
172 196 0
175 197 0
175 198 0
175 198 0
173 196 0
173 197 0
174 197 0
173 197 0
174 198 0
174 198 0
175 198 0
173 197 0
173 197 0
174 198 0
175 198 0
173 197 0
173 197 0
175 198 0
175 198 0
174 197 0
174 197 0
176 199 0
175 198 0
175 198 0
177 199 0
175 198 0
174 198 0
173 197 0
174 198 0
174 198 0
175 198 0
174 197 0
176 199 0
173 197 0
176 199 0
175 198 0
174 198 0
174 198 0
176 199 0
174 197 0
174 198 0
174 198 0
176 198 0
171 195 0
177 199 0
174 197 0
173 197 0
175 198 0
174 197 0
174 197 0
174 197 0
173 197 0
173 197 0
174 198 0
174 197 0
175 198 0
174 197 0
175 198 0
172 197 0
174 197 0
173 197 0
175 198 0
175 198 0
175 198 0
175 198 0
175 198 0
173 197 0
174 197 0
174 197 0
174 198 0
175 198 0
174 198 0
176 198 0
175 198 0
176 198 0
174 198 0
174 198 0
174 198 0
174 198 0
174 197 0
174 198 0
173 197 0
173 197 0
174 198 0
175 198 0
174 198 0
174 198 0
175 198 0
174 198 0
173 197 0
175 198 0
175 198 0
172 196 0
173 197 0
176 198 0
175 198 0
176 198 0
174 198 0
174 198 0
173 197 0
174 198 0
173 197 0
174 197 0
174 197 0
174 198 0
173 197 0
173 197 0
174 198 0
174 197 0
175 198 0
174 198 0
174 197 0
174 197 0
174 197 0
175 198 0
176 199 0
174 198 0
175 198 0
175 198 0
174 198 0
174 197 0
174 198 0
173 197 0
173 196 0
174 198 0
174 197 0
172 197 0
175 198 0
175 198 0
172 196 0
173 197 0
174 197 0
174 197 0
174 198 0
175 198 0
175 198 0
175 198 0
175 198 0
173 197 0
175 198 0
174 198 0
172 196 0
172 196 0
174 198 0
173 197 0
172 196 0
175 198 0
173 197 0
173 197 0
175 198 0
175 198 0
174 197 0
172 196 0
174 198 0
174 197 0
173 197 0
173 197 0
174 198 0
175 198 0
174 197 0
174 198 0
175 198 0
172 195 0
172 196 0
175 198 0
175 198 0
173 197 0
175 198 0
174 197 0
173 197 0
175 198 0
174 198 0
174 197 0
174 197 0
174 198 0
172 195 0
171 195 0
174 197 0
173 197 0
172 196 0
171 195 0
174 197 0
174 196 0
175 198 0
173 197 0
174 198 0
174 197 0
173 196 0
172 197 0
173 197 0
173 197 0
173 197 0
172 195 0
175 198 0
173 196 0
171 196 0
173 195 0
175 197 0
174 197 0
173 197 0
172 196 0
175 198 0
170 195 0
175 198 0
175 198 0
173 196 0
173 197 0
174 197 0
172 196 0
173 196 0
172 196 0
174 197 0
173 196 0
173 197 0
171 194 0
173 196 0
173 197 0
175 198 0
173 196 0
175 198 0
171 195 0
174 198 0
173 196 0
173 197 0
174 198 0
173 197 0
173 197 0
173 196 0
171 195 0
172 196 0
172 196 0
173 196 0
175 198 0
172 196 0
171 194 0
173 196 0
173 196 0
174 197 0
170 194 0
173 197 0
174 197 0
174 197 0
173 197 0
173 197 0
174 197 0
174 198 0
172 196 0
174 196 0
173 197 0
174 197 0
174 197 0
172 195 0
170 194 0
173 197 0
173 197 0
173 197 0
172 195 0
169 192 0
173 197 0
172 196 0
172 195 0
174 197 0
173 196 0
174 198 0
173 197 0
176 198 0
172 196 0
174 197 0
173 195 0
172 196 0
174 197 0
175 198 0
174 197 0
172 196 0
170 194 0
174 197 0
173 197 0
176 199 0
172 196 0
174 197 0
174 198 0
173 197 0
173 196 0
174 197 0
172 196 0
174 198 0
174 197 0
175 198 0
173 196 0
173 197 0
173 196 0
172 195 0
171 194 0
174 197 0
171 195 0
174 197 0
175 198 0
173 197 0
174 197 0
173 196 0
174 197 0
172 196 0
173 196 0
171 195 0
173 197 0
173 196 0
174 197 0
173 197 0
174 197 0
175 198 0
174 197 0
172 195 0
174 198 0
174 198 0
174 197 0
173 197 0
173 197 0
174 197 0
172 196 0
176 199 0
174 197 0
173 196 0
176 198 0
174 197 0
172 196 0
175 198 0
174 197 0
174 198 0
175 198 0
172 196 0
174 197 0
175 198 0
174 196 0
175 198 0
173 196 0
173 196 0
174 197 0
174 197 0
173 197 0
175 198 0
172 195 0
175 198 0
173 196 0
174 198 0
174 197 0
173 197 0
174 198 0
170 195 0
174 197 0
175 198 0
176 198 0
175 198 0
173 197 0
173 197 0
174 198 0
174 197 0
173 197 0
176 198 0
173 197 0
174 197 0
173 196 0
175 198 0
174 197 0
173 196 0
173 197 0
174 198 0
172 197 0
175 198 0
174 198 0
174 197 0
176 199 0
173 197 0
174 197 0
174 198 0
174 198 0
174 197 0
175 198 0
174 198 0
174 197 0
173 197 0
174 197 0
175 198 0
172 197 0
175 198 0
173 197 0
175 198 0
174 197 0
175 198 0
172 196 0
174 198 0
174 197 0
174 198 0
174 198 0
175 198 0
174 197 0
174 198 0
174 197 0
174 197 0
176 198 0
175 198 0
175 198 0
174 198 0
174 198 0
175 198 0
175 198 0
175 198 0
174 198 0
174 197 0
173 197 0
173 197 0
173 197 0
174 198 0
173 197 0
176 198 0
174 198 0
174 197 0
174 198 0
173 197 0
172 196 0
174 198 0
174 197 0
174 197 0
174 198 0
174 197 0
174 198 0
173 197 0
174 198 0
174 198 0
174 198 0
174 198 0
173 197 0
175 198 0
173 197 0
174 198 0
174 198 0
175 198 0
175 198 0
174 198 0
176 199 0
175 198 0
173 197 0
173 197 0
174 197 0
174 198 0
172 196 0
173 197 0
176 198 0
174 198 0
175 198 0
174 198 0
174 198 0
176 198 0
173 197 0
176 198 0
173 197 0
174 198 0
175 198 0
174 197 0
173 197 0
175 198 0
175 198 0
174 198 0
175 198 0
175 198 0
176 199 0
174 197 0
174 197 0
176 199 0
175 198 0
176 198 0
176 198 0
174 197 0
173 197 0
173 196 0
175 198 0
175 198 0
174 197 0
173 197 0
174 198 0
175 198 0
175 198 0
174 198 0
175 198 0
173 197 0
175 198 0
173 197 0
174 198 0
174 197 0
174 198 0
173 197 0
176 198 0
172 196 0
175 198 0
174 198 0
173 196 0
174 197 0
175 198 0
174 198 0
173 196 0
175 198 0
174 198 0
174 198 0
174 197 0
175 198 0
174 198 0
175 198 0
174 197 0
175 198 0
175 198 0
175 198 0
173 197 0
174 198 0
175 198 0
174 198 0
176 199 0
174 198 0
173 197 0
173 197 0
174 198 0
175 198 0
174 198 0
173 197 0
173 196 0
174 197 0
174 197 0
172 196 0
173 197 0
173 197 0
175 198 0
173 196 0
174 198 0
175 198 0
174 197 0
174 197 0
175 198 0
175 198 0
175 198 0
173 197 0
174 197 0
174 198 0
172 196 0
173 197 0
175 198 0
172 197 0
173 197 0
175 198 0
175 198 0
175 198 0
171 196 0
176 198 0
175 198 0
173 197 0
173 197 0
174 198 0
173 197 0
172 196 0
175 198 0
172 197 0
174 197 0
174 197 0
174 198 0
173 197 0
174 198 0
175 198 0
171 196 0
174 197 0
173 197 0
174 197 0
172 196 0
174 198 0
175 198 0
173 197 0
175 197 0
174 198 0
174 198 0
174 197 0
173 197 0
173 197 0
173 197 0
172 196 0
173 196 0
174 197 0
173 197 0
175 198 0
174 196 0
174 197 0
174 197 0
173 197 0
174 197 0
174 198 0
174 197 0
172 195 0
173 196 0
172 195 0
174 197 0
174 198 0
174 197 0
175 198 0
174 197 0
175 198 0
173 197 0
176 198 0
175 197 0
172 196 0
172 196 0
172 196 0
172 195 0
175 198 0
173 196 0
172 196 0
173 196 0
174 198 0
173 197 0
173 197 0
173 196 0
171 195 0
172 196 0
171 195 0
172 196 0
171 195 0
174 197 0
172 195 0
171 194 0
174 198 0
173 197 0
176 198 0
172 194 0
171 195 0
171 195 0
174 197 0
173 196 0
175 198 0
173 196 0
171 195 0
172 196 0
175 198 0
173 197 0
173 197 0
174 197 0
174 197 0
172 196 0
169 194 0
173 196 0
174 197 0
172 196 0
174 197 0
173 196 0
171 195 0
174 197 0
175 197 0
173 196 0
174 198 0
174 197 0
174 197 0
172 196 0
173 196 0
172 196 0
173 197 0
173 196 0
174 197 0
174 198 0
172 196 0
172 196 0
174 197 0
173 196 0
172 196 0
172 196 0
174 197 0
173 197 0
172 196 0
171 195 0
171 193 0
173 196 0
174 197 0
171 195 0
172 196 0
176 199 0
174 198 0
173 197 0
175 198 0
175 198 0
174 196 0
172 195 0
175 198 0
175 198 0
173 197 0
174 198 0
174 197 0
173 197 0
174 198 0
172 196 0
173 197 0
175 198 0
171 195 0
175 198 0
173 195 0
175 198 0
173 196 0
174 197 0
174 198 0
174 198 0
172 195 0
174 198 0
172 196 0
174 198 0
174 197 0
174 197 0
173 196 0
174 197 0
175 198 0
173 197 0
175 197 0
174 197 0
172 196 0
173 196 0
173 197 0
172 195 0
174 197 0
174 197 0
171 195 0
173 196 0
174 197 0
175 198 0
174 197 0
176 198 0
173 197 0
175 198 0
175 198 0
174 198 0
176 199 0
174 198 0
175 198 0
175 198 0
175 198 0
175 198 0
174 197 0
175 198 0
174 196 0
174 198 0
171 195 0
175 198 0
173 196 0
173 197 0
174 198 0
173 196 0
173 197 0
173 197 0
175 198 0
172 196 0
175 198 0
173 197 0
173 197 0
175 198 0
172 197 0
175 198 0
175 198 0
174 198 0
171 194 0
173 197 0
175 198 0
174 198 0
175 198 0
174 197 0
174 197 0
174 197 0
174 197 0
175 198 0
173 197 0
175 198 0
176 198 0
175 198 0
174 197 0
175 198 0
174 198 0
173 197 0
174 198 0
175 198 0
174 198 0
176 199 0
174 197 0
175 198 0
174 198 0
174 197 0
175 198 0
175 198 0
175 198 0
175 198 0
173 197 0
175 198 0
174 197 0
172 196 0
175 198 0
174 197 0
174 197 0
175 198 0
172 197 0
174 198 0
175 198 0
174 198 0
176 199 0
175 198 0
174 197 0
175 198 0
174 198 0
173 197 0
173 197 0
174 197 0
173 197 0
175 198 0
175 198 0
175 198 0
175 198 0
175 198 0
174 198 0
175 198 0
175 198 0
178 199 0
176 198 0
175 198 0
176 199 0
173 197 0
173 197 0
174 198 0
176 198 0
174 196 0
173 197 0
175 198 0
174 198 0
173 197 0
175 198 0
173 197 0
174 198 0
176 199 0
174 198 0
175 198 0
176 199 0
175 198 0
174 197 0
174 197 0
175 198 0
174 198 0
174 198 0
175 198 0
175 198 0
173 197 0
175 198 0
173 197 0
173 197 0
173 197 0
175 198 0
175 198 0
176 199 0
173 197 0
173 196 0
175 198 0
173 197 0
174 198 0
176 199 0
173 196 0
175 198 0
174 198 0
172 197 0
174 198 0
175 198 0
175 198 0
175 198 0
175 198 0
174 198 0
174 198 0
175 198 0
174 198 0
174 198 0
173 197 0
172 196 0
176 198 0
175 198 0
172 196 0
172 196 0
175 198 0
173 196 0
175 198 0
173 197 0
173 197 0
174 198 0
173 197 0
175 198 0
174 198 0
174 198 0
173 197 0
174 198 0
173 197 0
174 198 0
173 196 0
173 197 0
173 197 0
175 198 0
175 198 0
174 198 0
175 198 0
174 198 0
173 197 0
175 198 0
174 198 0
176 199 0
173 196 0
175 198 0
175 198 0
174 197 0
174 198 0
174 198 0
174 197 0
175 198 0
173 197 0
174 198 0
173 197 0
174 198 0
173 197 0
173 197 0
174 197 0
173 196 0
174 198 0
175 198 0
174 198 0
173 197 0
173 197 0
173 197 0
174 198 0
174 198 0
174 198 0
173 197 0
173 197 0
175 198 0
175 198 0
175 198 0
174 197 0
175 198 0
175 198 0
174 197 0
175 198 0
173 197 0
173 196 0
174 197 0
174 198 0
175 197 0
174 197 0
175 198 0
176 199 0
173 197 0
175 198 0
175 198 0
173 197 0
174 197 0
174 197 0
172 196 0
173 197 0
175 198 0
174 198 0
174 198 0
173 197 0
173 196 0
173 197 0
173 197 0
173 197 0
174 198 0
176 199 0
173 197 0
174 197 0
175 198 0
173 197 0
172 196 0
173 197 0
175 197 0
174 197 0
174 198 0
175 198 0
174 197 0
173 197 0
173 197 0
174 196 0
173 196 0
171 195 0
173 196 0
176 198 0
175 198 0
173 197 0
172 197 0
175 198 0
173 196 0
173 196 0
174 197 0
173 197 0
172 195 0
174 198 0
172 195 0
173 197 0
172 195 0
174 197 0
173 197 0
175 198 0
174 197 0
174 198 0
175 197 0
175 198 0
173 197 0
174 197 0
173 197 0
174 198 0
173 197 0
170 194 0
174 197 0
171 195 0
174 198 0
173 196 0
172 195 0
174 197 0
175 198 0
172 196 0
174 197 0
175 198 0
174 197 0
173 196 0
174 198 0
171 195 0
173 197 0
173 196 0
173 196 0
172 195 0
175 198 0
173 197 0
171 193 0
172 195 0
172 195 0
172 196 0
173 197 0
176 199 0
176 198 0
173 197 0
173 196 0
171 195 0
172 196 0
172 196 0
173 197 0
174 197 0
174 197 0
175 198 0
171 195 0
173 197 0
172 195 0
173 196 0
173 195 0
173 196 0
172 196 0
174 196 0
173 196 0
173 196 0
174 197 0
173 197 0
174 198 0
174 197 0
174 197 0
174 197 0
171 195 0
174 197 0
174 197 0
174 197 0
173 197 0
174 197 0
174 197 0
172 196 0
175 198 0
173 197 0
173 197 0
173 196 0
173 197 0
174 198 0
171 195 0
174 197 0
173 197 0
174 197 0
173 197 0
174 198 0
174 197 0
174 197 0
172 195 0
174 197 0
172 195 0
173 196 0
174 197 0
173 196 0
175 197 0
175 198 0
175 198 0
173 197 0
174 197 0
176 199 0
174 198 0
175 198 0
172 196 0
175 198 0
174 197 0
175 198 0
173 197 0
174 197 0
173 196 0
172 195 0
173 197 0
173 196 0
175 198 0
173 197 0
175 198 0
173 197 0
173 196 0
174 197 0
173 196 0
174 197 0
173 197 0
173 197 0
172 196 0
174 197 0
173 196 0
174 197 0
173 197 0
172 196 0
175 198 0
175 198 0
175 198 0
173 197 0
174 198 0
173 196 0
175 197 0
173 197 0
173 196 0
172 196 0
174 198 0
173 197 0
174 198 0
174 197 0
176 198 0
174 197 0
173 197 0
174 197 0
173 197 0
173 197 0
175 198 0
173 196 0
173 197 0
176 199 0
175 198 0
174 198 0
172 196 0
176 199 0
174 197 0
172 197 0
173 197 0
174 197 0
174 197 0
175 198 0
174 198 0
172 196 0
172 196 0
175 198 0
175 198 0
172 196 0
175 198 0
173 197 0
173 197 0
174 198 0
175 198 0
175 198 0
175 198 0
173 197 0
173 197 0
174 197 0
175 198 0
173 197 0
175 198 0
173 197 0
173 197 0
173 196 0
175 198 0
173 197 0
174 197 0
173 197 0
174 198 0
174 198 0
174 198 0
174 197 0
173 197 0
174 198 0
173 197 0
176 198 0
174 197 0
177 199 0
172 196 0
174 198 0
176 199 0
174 197 0
174 197 0
174 197 0
175 198 0
174 197 0
175 198 0
174 197 0
174 197 0
174 197 0
175 198 0
174 198 0
174 198 0
173 197 0
176 199 0
175 198 0
172 196 0
175 198 0
173 197 0
174 197 0
173 197 0
175 198 0
174 197 0
174 198 0
173 197 0
175 198 0
173 197 0
173 197 0
174 198 0
174 198 0
173 197 0
175 198 0
176 198 0
173 197 0
176 199 0
173 197 0
173 197 0
172 196 0
175 198 0
174 198 0
174 197 0
174 197 0
175 198 0
174 198 0
175 198 0
174 197 0
175 198 0
174 197 0
175 198 0
173 197 0
175 198 0
175 198 0
173 197 0
173 197 0
175 198 0
175 198 0
173 197 0
174 198 0
174 198 0
175 198 0
174 198 0
175 198 0
174 198 0
175 198 0
175 198 0
174 198 0
175 198 0
173 197 0
176 198 0
175 198 0
173 197 0
173 196 0
175 198 0
174 198 0
175 198 0
176 199 0
174 197 0
173 197 0
173 197 0
174 197 0
175 198 0
175 198 0
175 198 0
172 196 0
175 198 0
174 197 0
174 197 0
174 198 0
173 197 0
176 199 0
174 198 0
173 197 0
173 197 0
175 198 0
174 197 0
175 198 0
174 198 0
175 198 0
174 198 0
173 197 0
174 198 0
175 198 0
174 198 0
174 198 0
174 197 0
175 198 0
174 198 0
174 198 0
173 197 0
173 197 0
173 197 0
172 196 0
174 198 0
176 198 0
174 197 0
175 198 0
174 198 0
173 197 0
174 197 0
174 197 0
176 199 0
175 198 0
176 198 0
174 197 0
174 197 0
173 197 0
175 198 0
174 197 0
175 198 0
174 197 0
175 198 0
174 198 0
173 197 0
173 197 0
175 198 0
174 198 0
174 198 0
177 199 0
173 197 0
173 197 0
176 198 0
173 197 0
174 198 0
174 198 0
175 198 0
174 197 0
173 197 0
172 196 0
174 198 0
175 198 0
175 198 0
173 197 0
174 198 0
174 198 0
173 196 0
173 196 0
173 197 0
174 198 0
175 198 0
174 197 0
173 196 0
174 197 0
174 197 0
174 197 0
175 198 0
174 198 0
173 197 0
175 198 0
173 197 0
174 197 0
175 198 0
174 197 0
172 196 0
174 197 0
173 197 0
173 197 0
174 197 0
173 197 0
174 197 0
174 197 0
173 196 0
175 198 0
172 196 0
173 197 0
173 197 0
175 198 0
174 197 0
173 197 0
176 198 0
173 196 0
174 198 0
176 198 0
174 197 0
173 197 0
173 197 0
173 197 0
172 195 0
174 198 0
175 198 0
174 198 0
174 197 0
174 198 0
174 197 0
172 195 0
174 197 0
172 196 0
174 197 0
173 196 0
175 198 0
174 198 0
172 196 0
174 197 0
171 195 0
173 197 0
173 197 0
175 198 0
174 197 0
174 197 0
174 197 0
174 197 0
175 198 0
175 198 0
174 197 0
169 194 0
171 195 0
174 198 0
172 197 0
175 198 0
173 196 0
173 197 0
174 197 0
174 198 0
172 196 0
173 197 0
170 194 0
173 196 0
172 195 0
172 196 0
173 197 0
174 197 0
175 198 0
170 194 0
173 196 0
172 196 0
174 197 0
171 194 0
172 195 0
171 194 0
174 198 0
170 193 0
174 197 0
174 197 0
172 194 0
173 197 0
171 196 0
172 195 0
173 197 0
172 195 0
174 197 0
173 197 0
174 197 0
172 195 0
175 198 0
174 197 0
174 197 0
173 196 0
173 196 0
173 197 0
174 197 0
171 195 0
174 198 0
174 197 0
173 196 0
170 195 0
172 195 0
174 198 0
173 196 0
173 196 0
173 196 0
172 196 0
172 196 0
171 195 0
175 197 0
174 197 0
172 196 0
174 197 0
173 196 0
173 196 0
176 199 0
174 196 0
175 198 0
175 198 0
172 195 0
175 198 0
174 198 0
174 197 0
172 196 0
172 196 0
174 197 0
171 195 0
173 197 0
173 196 0
172 196 0
173 196 0
174 197 0
173 197 0
172 196 0
174 198 0
174 198 0
172 196 0
173 197 0
173 196 0
174 198 0
173 196 0
174 198 0
173 197 0
173 197 0
174 197 0
174 198 0
175 198 0
172 196 0
174 198 0
173 197 0
176 198 0
174 197 0
174 197 0
172 196 0
173 197 0
172 196 0
174 198 0
175 198 0
174 197 0
174 197 0
175 198 0
176 198 0
174 197 0
173 197 0
172 196 0
174 198 0
174 198 0
175 198 0
172 196 0
175 198 0
173 197 0
174 197 0
173 197 0
173 197 0
174 197 0
175 198 0
175 198 0
173 197 0
173 197 0
172 196 0
174 197 0
175 198 0
172 196 0
173 197 0
174 198 0
174 197 0
173 197 0
174 197 0
175 198 0
175 198 0
174 197 0
172 196 0
173 197 0
172 196 0
175 198 0
176 199 0
175 198 0
172 197 0
174 197 0
175 198 0
174 197 0
173 197 0
174 197 0
175 197 0
174 198 0
175 198 0
174 198 0
174 198 0
174 197 0
174 197 0
174 197 0
174 198 0
172 196 0
175 198 0
175 198 0
174 197 0
173 197 0
174 198 0
174 198 0
173 197 0
174 198 0
173 197 0
175 198 0
173 197 0
174 197 0
175 198 0
174 198 0
173 197 0
173 196 0
175 198 0
175 198 0
175 198 0
173 197 0
174 198 0
175 198 0
173 197 0
176 199 0
174 197 0
173 197 0
175 198 0
173 197 0
175 198 0
176 199 0
174 197 0
173 197 0
174 198 0
175 198 0
176 198 0
173 197 0
174 197 0
173 197 0
174 197 0
176 198 0
176 199 0
174 198 0
173 197 0
174 197 0
175 198 0
175 198 0
174 198 0
173 197 0
174 198 0
175 198 0
173 197 0
174 198 0
172 197 0
176 199 0
173 197 0
175 198 0
174 198 0
174 198 0
174 197 0
176 198 0
175 198 0
175 198 0
174 197 0
174 197 0
175 198 0
175 198 0
175 198 0
174 198 0
174 198 0
175 198 0
177 199 0
175 198 0
172 196 0
174 197 0
176 198 0
175 198 0
175 198 0
176 199 0
174 197 0
175 198 0
174 197 0
173 197 0
173 197 0
175 198 0
175 198 0
175 198 0
172 196 0
173 197 0
174 197 0
175 198 0
174 198 0
174 198 0
174 197 0
174 197 0
174 198 0
175 198 0
175 198 0
174 197 0
174 198 0
173 197 0
174 197 0
174 198 0
175 198 0
175 198 0
175 198 0
174 198 0
174 197 0
175 198 0
176 198 0
174 197 0
174 198 0
176 199 0
175 198 0
174 198 0
175 198 0
175 198 0
174 198 0
173 197 0
174 197 0
173 197 0
174 198 0
173 197 0
173 197 0
176 198 0
175 198 0
172 196 0
172 196 0
173 197 0
174 198 0
173 197 0
176 198 0
174 198 0
171 196 0
173 197 0
173 197 0
173 197 0
173 197 0
173 196 0
175 198 0
175 198 0
175 198 0
173 196 0
174 197 0
175 198 0
175 198 0
174 198 0
174 197 0
173 197 0
174 198 0
176 199 0
173 197 0
175 198 0
173 196 0
174 197 0
173 197 0
173 197 0
175 198 0
172 196 0
173 197 0
174 198 0
174 197 0
176 199 0
174 197 0
174 197 0
173 197 0
175 198 0
173 196 0
173 197 0
175 198 0
175 198 0
176 198 0
174 197 0
175 198 0
174 198 0
176 198 0
174 198 0
175 198 0
174 198 0
175 198 0
173 197 0
173 197 0
175 197 0
174 198 0
175 198 0
175 198 0
173 197 0
173 196 0
174 197 0
174 197 0
175 198 0
174 198 0
175 198 0
173 196 0
174 197 0
172 196 0
172 196 0
174 197 0
173 197 0
175 197 0
171 195 0
175 198 0
172 197 0
173 197 0
170 193 0
174 198 0
174 197 0
169 194 0
172 196 0
173 196 0
174 197 0
174 197 0
173 197 0
172 197 0
173 197 0
173 197 0
174 198 0
172 196 0
172 196 0
175 198 0
173 197 0
172 195 0
174 197 0
174 197 0
172 195 0
172 196 0
174 197 0
173 196 0
174 197 0
173 197 0
176 199 0
172 196 0
174 197 0
173 197 0
174 197 0
175 197 0
171 195 0
172 195 0
172 195 0
174 197 0
172 196 0
171 195 0
174 197 0
174 197 0
173 197 0
172 196 0
172 196 0
173 197 0
173 197 0
172 195 0
172 196 0
174 198 0
172 196 0
172 196 0
172 196 0
171 194 0
172 195 0
173 196 0
173 197 0
173 197 0
174 197 0
171 195 0
173 197 0
170 195 0
172 195 0
175 198 0
174 198 0
174 197 0
172 196 0
175 198 0
173 196 0
173 197 0
174 198 0
172 196 0
174 198 0
172 196 0
173 196 0
174 197 0
174 197 0
175 198 0
175 198 0
174 197 0
173 197 0
172 196 0
173 196 0
173 197 0
173 197 0
174 197 0
174 197 0
174 197 0
174 197 0
173 196 0
174 198 0
172 196 0
173 196 0
174 198 0
173 196 0
174 198 0
172 196 0
172 196 0
173 197 0
174 198 0
171 195 0
172 196 0
173 197 0
172 195 0
173 197 0
174 197 0
173 196 0
172 195 0
175 197 0
173 196 0
173 197 0
174 197 0
174 197 0
173 197 0
173 196 0
173 197 0
173 196 0
174 197 0
175 197 0
173 196 0
173 196 0
174 197 0
175 198 0
174 198 0
176 198 0
174 198 0
171 195 0
172 196 0
174 198 0
174 198 0
173 197 0
174 197 0
170 194 0
174 198 0
173 196 0
175 197 0
174 198 0
173 196 0
174 198 0
172 196 0
174 197 0
173 197 0
175 198 0
173 197 0
173 197 0
173 196 0
174 197 0
175 198 0
173 196 0
173 197 0
174 198 0
174 197 0
172 196 0
173 197 0
174 198 0
174 197 0
173 196 0
174 198 0
174 197 0
173 197 0
174 197 0
173 197 0
174 197 0
172 196 0
175 198 0
173 197 0
174 197 0
173 197 0
173 196 0
174 198 0
173 197 0
173 197 0
175 198 0
173 197 0
172 196 0
174 198 0
174 197 0
175 198 0
174 197 0
172 195 0
173 196 0
174 197 0
173 197 0
177 199 0
174 197 0
174 197 0
174 198 0
172 196 0
175 198 0
175 198 0
175 198 0
175 198 0
173 196 0
175 198 0
174 198 0
174 197 0
174 197 0
173 197 0
175 198 0
175 198 0
174 198 0
175 198 0
174 198 0
174 197 0
174 198 0
175 198 0
173 196 0
176 199 0
174 198 0
173 197 0
173 197 0
175 198 0
175 198 0
175 198 0
173 197 0
174 198 0
173 197 0
175 198 0
175 198 0
173 197 0
174 197 0
174 197 0
173 197 0
173 197 0
174 198 0
173 197 0
173 197 0
175 198 0
174 198 0
175 198 0
173 197 0
174 197 0
175 198 0
175 198 0
175 198 0
175 198 0
175 198 0
175 198 0
173 197 0
174 197 0
176 199 0
173 197 0
174 198 0
175 198 0
173 197 0
173 197 0
172 196 0
173 197 0
172 196 0
175 197 0
175 198 0
175 198 0
174 198 0
175 198 0
175 198 0
176 199 0
174 197 0
174 197 0
172 196 0
176 199 0
174 197 0
174 197 0
174 198 0
174 197 0
174 198 0
174 198 0
174 197 0
175 198 0
175 198 0
174 197 0
172 197 0
176 198 0
173 197 0
173 197 0
173 197 0
174 198 0
174 198 0
175 198 0
173 197 0
174 198 0
175 198 0
175 198 0
174 197 0
173 197 0
174 197 0
173 197 0
174 198 0
175 198 0
174 198 0
176 198 0
175 198 0
175 198 0
174 198 0
174 198 0
176 198 0
174 197 0
173 197 0
175 198 0
176 199 0
174 198 0
175 198 0
173 197 0
173 197 0
174 198 0
174 196 0
175 198 0
175 198 0
174 197 0
173 197 0
174 197 0
173 197 0
174 197 0
174 197 0
175 198 0
175 198 0
174 197 0
177 199 0
174 198 0
174 197 0
174 198 0
174 198 0
174 197 0
174 198 0
172 196 0
173 197 0
175 198 0
173 197 0
173 197 0
173 196 0
174 198 0
175 198 0
173 197 0
174 197 0
173 197 0
175 198 0
174 198 0
172 196 0
172 196 0
175 198 0
174 198 0
173 197 0
174 198 0
174 198 0
175 198 0
174 197 0
174 197 0
173 197 0
174 197 0
174 197 0
176 199 0
173 196 0
174 197 0
175 198 0
173 197 0
174 198 0
173 197 0
173 196 0
173 197 0
174 198 0
173 197 0
175 198 0
174 198 0
175 198 0
173 197 0
174 198 0
174 197 0
175 198 0
174 198 0
174 197 0
175 198 0
174 198 0
172 196 0
174 197 0
175 198 0
174 197 0
175 198 0
173 197 0
173 197 0
175 198 0
174 197 0
172 196 0
175 198 0
175 198 0
174 198 0
175 198 0
173 197 0
172 196 0
175 198 0
174 198 0
174 197 0
173 197 0
174 197 0
170 194 0
173 196 0
175 198 0
173 197 0
173 197 0
173 197 0
170 194 0
174 197 0
174 196 0
173 197 0
174 198 0
174 197 0
174 197 0
173 197 0
175 197 0
174 198 0
175 198 0
174 198 0
174 197 0
172 196 0
173 197 0
174 198 0
174 198 0
174 197 0
172 196 0
175 198 0
173 197 0
174 197 0
173 197 0
172 196 0
172 197 0
173 196 0
171 196 0
173 196 0
171 194 0
174 197 0
175 198 0
171 195 0
175 198 0
173 197 0
172 196 0
173 196 0
173 196 0
172 196 0
172 195 0
172 196 0
172 195 0
171 195 0
174 197 0
174 197 0
174 197 0
173 197 0
174 198 0
174 197 0
174 197 0
174 197 0
173 196 0
174 197 0
175 198 0
171 195 0
173 197 0
171 195 0
175 198 0
172 196 0
174 197 0
174 197 0
174 197 0
172 196 0
175 198 0
173 197 0
174 197 0
173 196 0
174 197 0
173 197 0
172 195 0
173 196 0
173 197 0
171 195 0
173 196 0
173 197 0
172 196 0
173 197 0
173 197 0
172 196 0
174 197 0
172 196 0
174 197 0
173 197 0
172 195 0
174 197 0
172 196 0
173 197 0
174 197 0
175 198 0
173 197 0
174 198 0
174 197 0
173 196 0
175 198 0
173 196 0
172 196 0
174 197 0
175 198 0
172 196 0
173 197 0
172 196 0
172 196 0
171 195 0
174 198 0
173 197 0
174 196 0
175 197 0
173 197 0
174 197 0
174 197 0
173 197 0
173 197 0
173 196 0
173 197 0
174 197 0
173 196 0
172 196 0
172 196 0
172 196 0
173 197 0
173 197 0
173 196 0
174 198 0
176 199 0
174 197 0
173 197 0
174 197 0
174 198 0
173 197 0
172 196 0
174 198 0
174 197 0
174 198 0
174 197 0
174 197 0
175 198 0
173 197 0
175 198 0
175 198 0
173 197 0
175 198 0
172 196 0
173 197 0
174 197 0
175 198 0
172 196 0
172 196 0
175 198 0
174 197 0
173 197 0
174 197 0
173 196 0
173 197 0
172 196 0
174 197 0
174 197 0
172 197 0
173 196 0
174 198 0
172 196 0
173 197 0
172 196 0
174 197 0
173 197 0
175 198 0
174 197 0
174 197 0
175 198 0
174 197 0
175 198 0
174 198 0
174 197 0
174 198 0
175 198 0
173 196 0
174 198 0
173 197 0
177 199 0
172 196 0
174 198 0
175 198 0
173 197 0
175 198 0
174 198 0
173 197 0
174 198 0
174 197 0
174 197 0
173 197 0
173 197 0
174 198 0
172 196 0
174 197 0
173 197 0
174 197 0
174 197 0
174 197 0
174 197 0
175 197 0
174 198 0
172 197 0
174 197 0
174 197 0
172 197 0
175 198 0
175 198 0
174 198 0
174 198 0
174 198 0
174 198 0
176 198 0
175 197 0
175 198 0
174 198 0
173 197 0
173 197 0
174 198 0
174 198 0
175 198 0
175 198 0
175 198 0
174 198 0
176 198 0
175 198 0
173 196 0
174 198 0
174 197 0
175 198 0
174 197 0
176 198 0
173 196 0
175 198 0
175 198 0
174 198 0
174 198 0
174 198 0
172 197 0
173 197 0
173 197 0
174 197 0
174 197 0
174 198 0
173 196 0
175 198 0
173 197 0
176 198 0
174 198 0
174 198 0
174 198 0
174 197 0
176 199 0
174 198 0
177 199 0
175 198 0
174 198 0
174 198 0
175 198 0
174 198 0
176 199 0
177 199 0
175 198 0
173 197 0
173 197 0
171 195 0
175 198 0
175 198 0
173 197 0
173 197 0
176 199 0
174 198 0
176 198 0
175 198 0
174 198 0
173 197 0
174 198 0
174 198 0
174 198 0
174 197 0
174 198 0
172 196 0
174 197 0
174 198 0
175 198 0
174 198 0
175 198 0
174 198 0
173 197 0
174 197 0
174 198 0
172 196 0
173 197 0
173 197 0
174 197 0
174 197 0
174 198 0
175 198 0
174 198 0
175 198 0
175 198 0
173 197 0
173 197 0
174 197 0
172 196 0
173 197 0
174 197 0
173 197 0
175 198 0
175 198 0
173 197 0
173 197 0
175 198 0
175 198 0
173 197 0
174 198 0
176 198 0
172 196 0
174 198 0
173 197 0
176 199 0
173 197 0
173 197 0
174 197 0
174 198 0
175 198 0
175 198 0
174 198 0
174 197 0
174 197 0
174 198 0
171 196 0
175 198 0
174 198 0
174 197 0
175 198 0
174 197 0
174 198 0
175 198 0
175 198 0
174 197 0
175 198 0
176 198 0
174 198 0
175 198 0
174 198 0
173 196 0
173 197 0
175 198 0
173 197 0
173 197 0
173 197 0
174 198 0
173 197 0
172 196 0
174 197 0
173 197 0
175 198 0
172 196 0
173 197 0
173 196 0
172 196 0
175 198 0
175 198 0
175 198 0
174 197 0
174 198 0
172 197 0
172 195 0
175 198 0
175 198 0
174 197 0
173 197 0
174 198 0
176 199 0
173 196 0
175 198 0
173 197 0
174 197 0
172 196 0
173 197 0
175 198 0
174 197 0
174 197 0
172 197 0
173 197 0
174 198 0
176 199 0
172 196 0
175 198 0
172 196 0
174 197 0
173 197 0
174 197 0
172 196 0
174 198 0
173 196 0
174 197 0
174 197 0
174 197 0
174 197 0
175 198 0
173 196 0
172 196 0
173 197 0
172 197 0
173 197 0
172 196 0
174 197 0
172 196 0
174 198 0
172 196 0
175 198 0
173 197 0
172 196 0
174 198 0
174 198 0
174 197 0
171 195 0
173 197 0
174 198 0
175 198 0
175 197 0
174 197 0
174 198 0
173 197 0
172 196 0
174 198 0
172 196 0
174 197 0
174 198 0
175 198 0
172 195 0
172 196 0
173 197 0
171 195 0
174 198 0
174 197 0
173 196 0
174 197 0
172 196 0
175 198 0
173 197 0
175 198 0
172 195 0
171 194 0
173 197 0
173 196 0
173 196 0
174 198 0
174 198 0
172 195 0
171 195 0
173 196 0
173 196 0
173 197 0
174 197 0
172 196 0
173 196 0
173 197 0
173 196 0
174 197 0
173 197 0
175 198 0
172 196 0
173 196 0
174 197 0
173 196 0
174 198 0
172 195 0
173 197 0
172 195 0
174 197 0
176 198 0
173 197 0
174 197 0
171 195 0
174 197 0
172 195 0
174 196 0
174 198 0
172 196 0
174 198 0
172 195 0
173 197 0
172 196 0
173 196 0
174 197 0
173 196 0
172 196 0
173 197 0
174 198 0
172 195 0
174 197 0
174 197 0
174 197 0
174 197 0
174 198 0
173 196 0
172 195 0
172 196 0
173 197 0
173 197 0
173 197 0
174 197 0
176 198 0
171 195 0
173 197 0
172 196 0
175 198 0
174 197 0
173 197 0
173 196 0
174 197 0
172 195 0
173 196 0
173 197 0
173 196 0
174 197 0
172 196 0
172 195 0
174 197 0
175 198 0
173 196 0
174 197 0
174 197 0
172 196 0
173 196 0
174 198 0
172 196 0
172 195 0
173 197 0
174 197 0
174 198 0
174 197 0
173 197 0
174 197 0
174 198 0
173 197 0
172 196 0
173 195 0
174 197 0
174 197 0
176 199 0
172 196 0
174 197 0
174 197 0
173 197 0
174 198 0
174 198 0
173 196 0
175 198 0
174 198 0
172 196 0
175 198 0
174 197 0
173 197 0
173 197 0
173 197 0
173 196 0
174 197 0
175 198 0
176 199 0
173 197 0
174 197 0
172 196 0
174 197 0
174 198 0
173 197 0
173 196 0
171 196 0
174 198 0
175 198 0
173 197 0
174 197 0
175 198 0
174 197 0
174 197 0
173 196 0
175 198 0
174 198 0
175 198 0
174 198 0
174 197 0
173 197 0
175 198 0
176 198 0
176 199 0
176 198 0
175 198 0
174 197 0
174 198 0
174 197 0
173 197 0
173 197 0
173 197 0
173 197 0
174 197 0
175 198 0
174 198 0
173 197 0
173 197 0
175 198 0
173 197 0
174 198 0
174 197 0
175 198 0
174 197 0
175 198 0
177 199 0
174 198 0
175 198 0
175 198 0
172 196 0
173 196 0
174 197 0
173 197 0
174 197 0
175 198 0
175 197 0
175 198 0
173 197 0
172 196 0
173 197 0
176 199 0
176 199 0
175 198 0
175 198 0
173 197 0
175 198 0
174 198 0
174 198 0
176 198 0
173 197 0
175 198 0
174 198 0
174 198 0
176 198 0
173 197 0
173 197 0
175 198 0
174 198 0
174 197 0
175 198 0
173 197 0
174 198 0
174 198 0
174 198 0
175 198 0
175 198 0
176 199 0
174 197 0
174 197 0
173 197 0
173 197 0
174 197 0
174 197 0
175 198 0
174 198 0
175 198 0
174 198 0
174 198 0
174 198 0
175 198 0
175 198 0
175 198 0
174 198 0
175 198 0
174 198 0
173 197 0
176 199 0
175 198 0
174 198 0
174 198 0
173 197 0
174 197 0
176 199 0
174 198 0
175 198 0
175 198 0
175 198 0
175 198 0
177 199 0
176 199 0
174 198 0
174 197 0
173 196 0
174 198 0
173 197 0
175 198 0
174 197 0
175 198 0
174 197 0
173 197 0
174 197 0
175 198 0
175 198 0
175 198 0
174 197 0
173 197 0
175 198 0
174 198 0
175 198 0
174 198 0
176 199 0
175 198 0
174 198 0
175 198 0
173 197 0
176 198 0
175 198 0
173 197 0
174 198 0
173 197 0
174 198 0
173 197 0
175 198 0
175 198 0
172 197 0
174 198 0
176 198 0
174 198 0
173 197 0
175 198 0
174 197 0
174 198 0
173 197 0
174 197 0
174 197 0
174 198 0
173 196 0
173 197 0
175 198 0
175 198 0
175 198 0
174 198 0
174 198 0
174 197 0
176 198 0
174 198 0
175 198 0
173 196 0
172 196 0
174 198 0
174 198 0
173 197 0
173 197 0
176 198 0
174 197 0
172 196 0
174 198 0
175 198 0
172 196 0
174 197 0
176 198 0
174 198 0
176 198 0
174 198 0
173 197 0
174 198 0
172 196 0
173 197 0
175 198 0
172 197 0
176 198 0
174 198 0
175 198 0
175 198 0
173 197 0
174 197 0
175 198 0
172 196 0
175 198 0
175 198 0
174 197 0
174 197 0
173 197 0
173 197 0
174 198 0
175 198 0
173 197 0
174 197 0
175 198 0
174 198 0
173 197 0
172 196 0
174 198 0
174 197 0
174 198 0
173 196 0
174 197 0
174 197 0
171 196 0
174 197 0
172 196 0
175 198 0
174 198 0
174 197 0
173 197 0
172 196 0
173 197 0
173 196 0
174 197 0
172 196 0
174 197 0
172 196 0
173 197 0
172 196 0
176 198 0
174 197 0
171 195 0
174 198 0
175 198 0
173 197 0
171 195 0
175 198 0
174 197 0
175 198 0
173 197 0
175 198 0
173 196 0
174 197 0
176 198 0
172 195 0
172 196 0
172 196 0
174 198 0
172 195 0
174 197 0
174 197 0
174 197 0
171 196 0
173 197 0
175 198 0
172 196 0
172 196 0
175 198 0
172 196 0
173 196 0
175 198 0
174 197 0
173 196 0
175 198 0
175 198 0
174 197 0
174 198 0
172 195 0
172 195 0
174 198 0
173 197 0
173 195 0
173 196 0
173 196 0
172 195 0
174 198 0
173 197 0
173 197 0
171 195 0
174 198 0
174 198 0
173 197 0
174 197 0
172 196 0
174 197 0
172 196 0
174 197 0
173 197 0
174 198 0
173 196 0
172 197 0
176 199 0
174 197 0
174 198 0
172 196 0
173 196 0
174 197 0
172 196 0
172 195 0
172 196 0
170 195 0
173 197 0
173 197 0
174 198 0
174 197 0
174 198 0
172 196 0
174 197 0
174 197 0
172 195 0
173 196 0
174 197 0
174 198 0
173 196 0
173 197 0
174 198 0
174 197 0
174 197 0
173 197 0
173 197 0
173 197 0
173 196 0
174 197 0
174 198 0
175 198 0
172 196 0
174 197 0
173 197 0
174 197 0
173 196 0
175 198 0
175 198 0
175 198 0
173 196 0
172 196 0
171 196 0
175 198 0
173 196 0
173 197 0
171 195 0
174 197 0
173 197 0
177 199 0
174 197 0
173 197 0
173 197 0
173 196 0
174 198 0
174 198 0
175 198 0
175 198 0
173 197 0
176 199 0
174 197 0
172 196 0
171 196 0
173 197 0
175 198 0
175 198 0
174 197 0
173 197 0
174 198 0
175 198 0
172 196 0
174 197 0
173 196 0
175 198 0
174 197 0
174 198 0
176 198 0
172 196 0
174 197 0
174 198 0
175 198 0
174 197 0
173 197 0
174 197 0
173 197 0
173 196 0
173 197 0
174 198 0
174 197 0
175 198 0
173 197 0
175 198 0
174 197 0
175 198 0
173 197 0
173 197 0
174 198 0
174 197 0
173 196 0
173 196 0
172 197 0
175 198 0
174 198 0
174 198 0
173 196 0
177 199 0
174 197 0
171 195 0
174 198 0
175 198 0
173 196 0
175 198 0
174 197 0
173 197 0
174 198 0
175 198 0
174 198 0
174 198 0
177 199 0
174 197 0
173 197 0
173 197 0
175 198 0
174 197 0
173 197 0
174 197 0
175 198 0
176 198 0
175 198 0
173 197 0
174 197 0
174 197 0
176 198 0
174 198 0
174 197 0
177 199 0
174 197 0
173 197 0
176 198 0
174 197 0
175 198 0
174 197 0
173 197 0
174 198 0
174 197 0
174 197 0
174 198 0
175 198 0
176 198 0
173 197 0
174 198 0
175 198 0
173 197 0
173 197 0
176 198 0
174 198 0
175 198 0
173 196 0
175 198 0
175 198 0
175 198 0
175 198 0
175 198 0
174 198 0
174 198 0
173 197 0
173 197 0
174 198 0
174 197 0
175 198 0
175 198 0
176 198 0
174 198 0
173 197 0
174 197 0
174 198 0
173 197 0
174 198 0
175 198 0
174 198 0
174 198 0
173 197 0
174 198 0
175 198 0
174 198 0
175 198 0
173 197 0
175 198 0
173 197 0
175 198 0
175 198 0
174 198 0
175 198 0
174 198 0
174 198 0
174 197 0
175 198 0
174 197 0
174 197 0
174 198 0
174 198 0
174 198 0
174 198 0
174 197 0
174 197 0
175 198 0
174 198 0
175 198 0
175 198 0
175 198 0
175 198 0
173 197 0
174 198 0
175 198 0
175 198 0
174 197 0
174 198 0
174 198 0
173 197 0
175 198 0
174 198 0
173 197 0
173 197 0
173 197 0
175 198 0
175 198 0
174 197 0
175 198 0
175 198 0
172 196 0
172 196 0
175 198 0
177 199 0
175 198 0
175 198 0
175 198 0
174 198 0
174 198 0
175 198 0
174 198 0
175 198 0
174 198 0
175 198 0
176 198 0
173 197 0
172 196 0
174 198 0
175 198 0
174 198 0
174 198 0
173 196 0
173 197 0
174 198 0
173 196 0
175 198 0
174 198 0
175 198 0
173 197 0
173 197 0
175 198 0
175 198 0
174 198 0
174 197 0
173 196 0
175 198 0
175 198 0
174 198 0
174 198 0
174 198 0
174 198 0
172 196 0
175 198 0
174 197 0
174 197 0
173 197 0
173 197 0
173 197 0
173 197 0
174 197 0
175 198 0
174 197 0
173 196 0
174 197 0
173 197 0
174 198 0
174 197 0
174 197 0
174 197 0
173 197 0
174 198 0
172 196 0
173 197 0
174 197 0
174 198 0
174 198 0
175 198 0
173 197 0
175 198 0
175 198 0
175 198 0
174 198 0
173 197 0
174 197 0
172 196 0
173 197 0
174 198 0
174 197 0
172 195 0
173 197 0
174 197 0
173 197 0
173 197 0
174 198 0
172 197 0
176 199 0
175 198 0
174 198 0
173 197 0
175 198 0
174 197 0
174 197 0
173 197 0
175 198 0
174 197 0
173 197 0
175 198 0
175 198 0
174 197 0
173 197 0
173 197 0
174 198 0
174 197 0
174 197 0
174 197 0
173 197 0
174 198 0
172 196 0
173 197 0
173 197 0
173 197 0
174 198 0
175 198 0
175 198 0
174 197 0
173 196 0
174 197 0
170 194 0
173 196 0
176 198 0
174 197 0
175 198 0
173 197 0
174 198 0
174 198 0
174 197 0
174 197 0
172 195 0
173 197 0
172 195 0
173 197 0
171 194 0
173 197 0
175 198 0
173 197 0
171 195 0
172 196 0
175 198 0
174 198 0
172 196 0
173 197 0
172 195 0
174 197 0
173 196 0
173 196 0
173 196 0
173 196 0
171 195 0
173 196 0
174 197 0
174 197 0
174 197 0
175 198 0
174 197 0
173 197 0
172 196 0
173 196 0
174 197 0
173 197 0
172 195 0
172 196 0
173 197 0
175 198 0
171 194 0
174 198 0
173 197 0
174 197 0
171 196 0
173 197 0
173 196 0
174 197 0
174 197 0
174 197 0
172 195 0
173 197 0
171 195 0
174 197 0
174 197 0
172 196 0
173 197 0
174 197 0
173 196 0
175 198 0
172 195 0
174 197 0
172 195 0
174 198 0
172 197 0
174 197 0
174 198 0
174 198 0
173 196 0
172 196 0
172 196 0
173 197 0
175 198 0
176 198 0
176 198 0
175 198 0
175 198 0
173 197 0
173 196 0
171 195 0
175 198 0
174 197 0
173 197 0
173 197 0
172 196 0
172 196 0
175 197 0
172 196 0
173 196 0
174 197 0
174 198 0
175 198 0
175 198 0
173 196 0
173 196 0
175 198 0
173 196 0
172 196 0
171 194 0
175 198 0
172 196 0
173 197 0
173 196 0
173 197 0
175 198 0
172 196 0
176 198 0
175 198 0
175 198 0
173 197 0
175 197 0
175 198 0
173 196 0
174 198 0
175 198 0
171 195 0
174 198 0
174 197 0
174 197 0
175 198 0
175 198 0
174 197 0
172 196 0
173 197 0
174 197 0
175 198 0
174 198 0
173 197 0
173 197 0
174 197 0
175 198 0
175 198 0
174 197 0
174 197 0
174 197 0
172 196 0
173 197 0
173 196 0
174 198 0
173 197 0
174 197 0
173 196 0
175 198 0
174 197 0
173 197 0
174 197 0
174 196 0
173 197 0
175 198 0
174 198 0
174 197 0
175 198 0
173 197 0
174 198 0
173 197 0
174 198 0
173 197 0
175 198 0
173 197 0
174 197 0
175 198 0
174 197 0
175 198 0
174 198 0
174 197 0
173 196 0
174 197 0
175 198 0
175 198 0
174 197 0
173 197 0
174 197 0
175 198 0
176 198 0
173 197 0
174 197 0
173 197 0
174 197 0
174 197 0
173 197 0
173 197 0
174 197 0
174 197 0
174 198 0
175 198 0
173 197 0
175 197 0
175 198 0
174 197 0
174 197 0
175 198 0
174 198 0
174 198 0
175 198 0
174 198 0
173 197 0
173 197 0
175 198 0
175 197 0
176 198 0
174 198 0
174 198 0
174 197 0
175 198 0
174 198 0
175 198 0
175 198 0
175 198 0
173 197 0
172 196 0
174 197 0
175 198 0
173 197 0
175 198 0
174 197 0
174 198 0
175 198 0
173 197 0
174 198 0
174 198 0
175 198 0
173 196 0
174 198 0
176 199 0
174 197 0
174 197 0
174 198 0
175 198 0
174 198 0
172 197 0
176 199 0
173 197 0
175 198 0
174 197 0
174 197 0
175 198 0
173 197 0
174 198 0
174 198 0
172 196 0
172 196 0
173 197 0
173 197 0
173 197 0
175 198 0
176 198 0
176 199 0
174 198 0
174 198 0
173 197 0
174 198 0
174 198 0
175 198 0
176 198 0
175 198 0
173 197 0
174 197 0
173 197 0
173 197 0
173 197 0
174 198 0
174 197 0
174 198 0
174 198 0
174 197 0
173 197 0
174 198 0
175 198 0
174 198 0
174 198 0
175 198 0
173 197 0
174 198 0
174 197 0
174 197 0
175 198 0
174 197 0
172 196 0
175 198 0
175 198 0
174 197 0
176 199 0
172 196 0
174 198 0
174 197 0
174 198 0
173 196 0
175 198 0
173 197 0
175 198 0
173 197 0
175 198 0
172 196 0
175 198 0
173 197 0
174 197 0
175 198 0
175 198 0
174 197 0
173 197 0
172 196 0
175 198 0
174 197 0
174 197 0
175 198 0
175 198 0
172 196 0
174 197 0
173 197 0
174 197 0
173 196 0
175 198 0
175 198 0
173 197 0
177 199 0
175 198 0
174 198 0
173 197 0
174 198 0
175 198 0
173 197 0
173 197 0
174 197 0
175 197 0
175 198 0
174 198 0
174 198 0
175 198 0
176 198 0
173 197 0
171 195 0
175 198 0
174 197 0
174 198 0
174 198 0
174 197 0
174 197 0
175 198 0
174 198 0
175 198 0
172 196 0
175 198 0
173 197 0
176 198 0
174 198 0
174 198 0
175 198 0
175 198 0
173 197 0
176 199 0
175 198 0
172 196 0
175 198 0
173 197 0
172 196 0
173 197 0
174 197 0
174 197 0
175 198 0
173 197 0
173 197 0
175 198 0
173 197 0
174 198 0
173 197 0
175 198 0
172 196 0
173 197 0
174 197 0
173 197 0
173 197 0
173 197 0
173 196 0
174 198 0
174 197 0
173 197 0
174 198 0
174 198 0
173 196 0
175 198 0
174 198 0
174 197 0
173 196 0
174 198 0
173 197 0
172 196 0
174 197 0
174 198 0
173 196 0
173 196 0
174 197 0
173 197 0
173 196 0
175 198 0
175 198 0
173 197 0
172 197 0
174 197 0
174 197 0
174 197 0
174 197 0
174 196 0
173 196 0
173 197 0
174 198 0
173 196 0
175 198 0
174 197 0
173 197 0
174 197 0
173 196 0
174 198 0
174 197 0
172 196 0
173 197 0
174 197 0
173 196 0
171 195 0
174 197 0
173 196 0
173 197 0
174 198 0
171 195 0
174 197 0
173 197 0
173 197 0
173 196 0
175 198 0
174 197 0
174 197 0
173 197 0
173 197 0
173 196 0
172 196 0
172 196 0
172 197 0
174 197 0
174 198 0
172 196 0
173 196 0
173 196 0
172 196 0
173 197 0
173 197 0
173 197 0
175 198 0
173 196 0
172 195 0
174 197 0
173 197 0
172 195 0
172 195 0
173 196 0
173 197 0
173 197 0
174 197 0
172 195 0
175 198 0
175 198 0
174 196 0
173 197 0
173 197 0
173 196 0
172 196 0
170 194 0
172 195 0
172 196 0
172 196 0
173 197 0
172 197 0
173 196 0
175 198 0
172 196 0
173 196 0
172 195 0
173 197 0
173 197 0
173 197 0
174 198 0
174 197 0
174 198 0
174 197 0
174 197 0
172 196 0
174 197 0
172 196 0
174 197 0
172 196 0
175 198 0
174 198 0
172 196 0
173 197 0
173 196 0
174 197 0
171 195 0
172 195 0
174 198 0
175 198 0
172 196 0
173 196 0
174 198 0
174 197 0
174 196 0
173 197 0
173 197 0
175 198 0
173 196 0
175 198 0
174 197 0
172 196 0
171 195 0
172 197 0
174 197 0
174 198 0
173 197 0
174 197 0
173 197 0
171 195 0
173 197 0
173 197 0
173 196 0
174 197 0
175 198 0
175 198 0
173 197 0
173 197 0
174 197 0
175 198 0
175 198 0
173 196 0
174 198 0
175 198 0
174 198 0
173 197 0
175 198 0
173 197 0
174 198 0
175 198 0
175 198 0
172 197 0
175 198 0
175 198 0
174 197 0
172 196 0
174 197 0
174 197 0
175 198 0
173 197 0
172 196 0
175 198 0
173 196 0
175 198 0
174 198 0
174 198 0
174 197 0
173 197 0
174 197 0
176 199 0
174 198 0
174 198 0
173 197 0
173 197 0
172 196 0
173 197 0
175 198 0
175 198 0
174 197 0
174 197 0
173 197 0
176 199 0
174 198 0
174 197 0
173 197 0
174 198 0
173 196 0
173 197 0
174 197 0
172 196 0
173 196 0
175 198 0
172 196 0
173 197 0
175 198 0
173 197 0
174 198 0
175 198 0
174 197 0
173 197 0
176 198 0
173 197 0
174 197 0
174 197 0
174 197 0
173 197 0
174 198 0
175 198 0
174 198 0
173 197 0
175 198 0
174 198 0
175 198 0
174 197 0
175 198 0
175 198 0
176 199 0
174 197 0
176 199 0
173 197 0
174 197 0
174 198 0
173 197 0
174 198 0
174 197 0
175 198 0
173 197 0
175 198 0
176 199 0
174 197 0
172 196 0
174 198 0
175 198 0
174 198 0
174 198 0
174 197 0
174 198 0
175 198 0
176 198 0
174 198 0
175 198 0
174 197 0
174 197 0
173 197 0
176 199 0
173 197 0
174 197 0
175 198 0
174 197 0
173 197 0
174 198 0
175 198 0
174 197 0
175 198 0
174 198 0
175 198 0
175 198 0
174 197 0
175 198 0
175 198 0
174 197 0
175 198 0
176 198 0
174 198 0
175 198 0
174 198 0
174 198 0
174 197 0
175 198 0
174 198 0
176 199 0
175 198 0
174 198 0
174 198 0
175 198 0
176 199 0
173 197 0
175 198 0
174 198 0
175 198 0
174 198 0
174 198 0
174 197 0
174 198 0
175 198 0
175 198 0
177 199 0
174 198 0
175 198 0
175 198 0
173 197 0
173 197 0
175 197 0
174 197 0
176 199 0
175 198 0
174 198 0
175 198 0
173 197 0
174 198 0
174 197 0
173 197 0
176 198 0
174 197 0
174 198 0
174 197 0
173 197 0
175 198 0
174 198 0
173 197 0
176 198 0
174 198 0
174 198 0
174 197 0
173 197 0
176 199 0
173 197 0
174 197 0
174 197 0
174 197 0
174 198 0
175 198 0
175 198 0
175 198 0
174 197 0
175 198 0
175 198 0
175 198 0
173 197 0
175 198 0
174 198 0
173 197 0
173 197 0
174 198 0
174 198 0
175 198 0
174 198 0
172 196 0
174 198 0
174 198 0
175 198 0
173 197 0
174 198 0
174 197 0
173 197 0
175 198 0
174 197 0
174 198 0
171 195 0
173 197 0
173 197 0
173 197 0
173 197 0
175 197 0
173 197 0
176 198 0
174 197 0
175 198 0
175 198 0
174 197 0
175 198 0
174 198 0
174 198 0
173 197 0
173 197 0
172 197 0
173 197 0
173 196 0
174 198 0
174 197 0
174 197 0
173 197 0
172 196 0
172 196 0
175 198 0
172 196 0
172 195 0
174 197 0
176 198 0
174 197 0
175 198 0
173 196 0
173 197 0
172 196 0
172 196 0
175 198 0
174 198 0
174 197 0
173 196 0
173 197 0
173 197 0
174 198 0
174 197 0
174 197 0
174 197 0
173 196 0
172 196 0
172 196 0
175 198 0
174 197 0
173 195 0
174 197 0
173 196 0
172 196 0
172 196 0
172 197 0
173 196 0
173 197 0
173 196 0
173 197 0
174 197 0
173 197 0
171 195 0
175 198 0
170 194 0
173 197 0
171 194 0
173 197 0
172 196 0
174 197 0
172 196 0
172 195 0
173 196 0
173 196 0
174 198 0
173 197 0
172 196 0
173 197 0
175 198 0
174 198 0
173 196 0
172 195 0
174 197 0
175 198 0
170 194 0
176 199 0
172 196 0
172 195 0
174 198 0
171 195 0
173 196 0
171 195 0
174 197 0
172 196 0
174 197 0
171 195 0
172 196 0
173 197 0
173 197 0
174 197 0
174 197 0
171 194 0
173 197 0
172 196 0
174 197 0
173 196 0
171 194 0
170 193 0
173 196 0
171 194 0
172 196 0
175 198 0
174 197 0
173 196 0
174 197 0
172 196 0
170 194 0
173 197 0
175 198 0
174 197 0
174 197 0
175 197 0
171 195 0
173 197 0
173 196 0
173 197 0
172 195 0
174 197 0
172 196 0
173 196 0
174 198 0
173 197 0
174 197 0
172 196 0
174 197 0
173 197 0
173 197 0
173 196 0
172 195 0
174 198 0
174 198 0
174 197 0
173 197 0
173 197 0
172 196 0
174 198 0
175 198 0
175 198 0
174 197 0
173 197 0
174 197 0
173 197 0
173 197 0
174 197 0
173 197 0
174 197 0
172 196 0
172 196 0
173 197 0
174 198 0
176 199 0
173 197 0
173 197 0
175 198 0
174 198 0
173 196 0
173 196 0
172 196 0
174 198 0
174 197 0
175 198 0
174 198 0
174 197 0
173 196 0
176 198 0
172 195 0
173 195 0
173 197 0
172 196 0
174 198 0
172 196 0
171 195 0
175 198 0
174 197 0
174 197 0
175 197 0
172 196 0
172 196 0
174 198 0
175 197 0
175 198 0
174 198 0
175 198 0
174 197 0
174 197 0
175 198 0
174 197 0
174 198 0
175 198 0
173 197 0
176 198 0
174 197 0
174 197 0
173 197 0
175 198 0
175 198 0
172 196 0
175 197 0
173 197 0
173 197 0
176 199 0
174 197 0
173 197 0
173 197 0
173 197 0
175 197 0
174 198 0
171 195 0
172 196 0
173 197 0
174 198 0
171 196 0
175 198 0
175 197 0
174 197 0
174 197 0
174 197 0
173 196 0
174 197 0
175 198 0
174 198 0
173 196 0
176 199 0
175 198 0
171 195 0
173 197 0
175 198 0
175 198 0
175 198 0
175 198 0
171 195 0
174 197 0
174 197 0
174 197 0
176 199 0
174 197 0
174 197 0
174 198 0
173 197 0
174 198 0
175 198 0
174 198 0
173 197 0
173 197 0
175 198 0
174 197 0
174 198 0
173 197 0
174 198 0
173 197 0
173 196 0
175 198 0
174 198 0
174 198 0
175 198 0
173 197 0
174 197 0
173 197 0
175 198 0
174 197 0
174 198 0
173 197 0
174 198 0
174 198 0
175 198 0
174 197 0
174 198 0
175 198 0
175 198 0
175 198 0
174 197 0
174 198 0
175 198 0
175 198 0
174 198 0
174 198 0
174 197 0
174 197 0
174 198 0
175 198 0
175 198 0
174 198 0
175 198 0
175 198 0
172 197 0
174 198 0
173 197 0
174 198 0
174 198 0
175 198 0
174 198 0
175 198 0
174 197 0
173 197 0
174 197 0
175 198 0
174 198 0
174 197 0
175 198 0
175 198 0
174 198 0
174 198 0
175 198 0
175 198 0
176 198 0
174 198 0
173 197 0
176 199 0
175 198 0
175 198 0
176 199 0
174 198 0
177 199 0
173 197 0
174 198 0
175 198 0
175 198 0
173 197 0
174 197 0
175 198 0
175 198 0
176 198 0
175 198 0
173 197 0
173 197 0
175 198 0
175 198 0
175 198 0
175 198 0
174 198 0
173 197 0
173 197 0
175 198 0
174 197 0
172 196 0
175 198 0
173 197 0
174 197 0
172 196 0
172 197 0
175 198 0
174 198 0
173 197 0
174 198 0
171 196 0
174 198 0
174 198 0
172 196 0
175 198 0
173 196 0
175 198 0
175 198 0
174 198 0
175 198 0
174 198 0
175 198 0
173 197 0
174 198 0
175 198 0
175 198 0
176 199 0
173 197 0
173 196 0
176 199 0
173 197 0
172 196 0
173 197 0
173 197 0
175 198 0
173 197 0
174 198 0
174 197 0
176 199 0
175 198 0
172 197 0
173 197 0
174 198 0
176 199 0
175 198 0
171 195 0
174 198 0
173 197 0
175 198 0
174 197 0
172 196 0
174 197 0
176 199 0
173 197 0
174 198 0
174 197 0
174 197 0
176 199 0
175 198 0
173 197 0
172 196 0
173 197 0
173 197 0
173 196 0
172 196 0
173 197 0
172 196 0
175 198 0
171 195 0
174 198 0
175 197 0
174 197 0
175 198 0
173 196 0
172 195 0
175 198 0
173 197 0
173 197 0
173 197 0
172 196 0
174 197 0
172 196 0
174 198 0
174 198 0
175 198 0
173 196 0
174 197 0
173 197 0
173 197 0
174 197 0
173 197 0
176 199 0
176 199 0
174 197 0
173 196 0
175 198 0
173 197 0
175 198 0
173 197 0
174 197 0
174 197 0
173 197 0
173 197 0
176 198 0
173 197 0
172 196 0
174 198 0
175 198 0
174 197 0
174 198 0
172 196 0
174 197 0
173 196 0
173 196 0
173 197 0
174 197 0
173 196 0
172 196 0
172 196 0
174 198 0
174 197 0
175 198 0
174 197 0
173 196 0
174 197 0
174 197 0
174 197 0
173 197 0
173 197 0
175 198 0
173 196 0
173 197 0
173 196 0
171 195 0
172 196 0
176 198 0
170 193 0
173 197 0
173 197 0
174 197 0
174 197 0
174 198 0
174 197 0
175 198 0
174 198 0
171 195 0
174 197 0
174 198 0
171 195 0
173 197 0
175 198 0
173 197 0
172 196 0
175 197 0
172 195 0
170 194 0
174 198 0
175 198 0
173 197 0
173 197 0
175 197 0
173 197 0
174 197 0
173 197 0
174 197 0
172 196 0
173 196 0
173 197 0
173 196 0
173 196 0
174 197 0
176 199 0
173 197 0
174 198 0
174 197 0
173 196 0
173 196 0
171 196 0
173 197 0
174 197 0
172 196 0
173 197 0
174 197 0
169 193 0
172 196 0
173 197 0
174 197 0
172 195 0
174 197 0
173 197 0
172 196 0
173 197 0
174 197 0
174 197 0
173 197 0
175 198 0
173 197 0
173 197 0
173 196 0
174 197 0
174 197 0
173 197 0
173 196 0
175 197 0
172 196 0
175 198 0
173 197 0
173 196 0
173 197 0
174 197 0
173 197 0
175 198 0
174 198 0
173 196 0
173 197 0
174 197 0
173 197 0
173 197 0
171 195 0
173 196 0
172 196 0
175 198 0
174 197 0
172 196 0
175 198 0
174 198 0
174 198 0
173 197 0
175 198 0
175 198 0
174 197 0
173 197 0
172 196 0
175 198 0
173 197 0
174 197 0
175 198 0
170 194 0
171 195 0
174 197 0
174 197 0
174 197 0
174 198 0
175 198 0
172 196 0
174 198 0
173 197 0
172 196 0
174 198 0
173 197 0
174 198 0
175 197 0
172 196 0
173 197 0
175 198 0
173 197 0
173 197 0
173 197 0
175 198 0
173 197 0
173 197 0
175 198 0
176 198 0
175 198 0
174 197 0
173 196 0
175 198 0
175 198 0
176 199 0
174 198 0
176 199 0
175 198 0
174 197 0
174 197 0
174 197 0
175 198 0
175 197 0
172 196 0
174 197 0
174 197 0
172 196 0
174 198 0
174 198 0
175 198 0
173 196 0
173 197 0
172 196 0
174 198 0
172 196 0
176 198 0
174 197 0
173 196 0
174 197 0
174 198 0
173 197 0
173 197 0
174 198 0
176 199 0
174 197 0
176 199 0
173 197 0
174 198 0
172 196 0
174 196 0
173 197 0
173 197 0
173 197 0
176 199 0
174 198 0
175 198 0
174 198 0
174 198 0
174 197 0
175 198 0
174 197 0
173 197 0
175 198 0
175 198 0
174 197 0
173 197 0
175 198 0
174 198 0
173 197 0
176 199 0
174 197 0
173 197 0
174 198 0
175 198 0
174 198 0
173 197 0
174 197 0
176 199 0
173 197 0
175 198 0
174 197 0
175 198 0
175 198 0
174 197 0
175 198 0
173 197 0
175 198 0
175 198 0
174 198 0
175 198 0
174 197 0
175 198 0
173 197 0
174 198 0
174 198 0
173 197 0
175 198 0
174 198 0
175 198 0
175 198 0
175 198 0
175 198 0
174 197 0
176 198 0
173 197 0
175 198 0
175 198 0
175 198 0
175 198 0
174 198 0
174 198 0
175 198 0
172 197 0
174 198 0
172 196 0
175 198 0
175 198 0
174 198 0
175 198 0
174 197 0
173 197 0
174 198 0
173 197 0
174 197 0
174 197 0
175 198 0
175 198 0
173 197 0
173 197 0
174 198 0
174 198 0
175 198 0
175 198 0
175 198 0
175 198 0
174 198 0
175 198 0
175 198 0
175 198 0
175 198 0
173 197 0
176 198 0
173 197 0
175 198 0
174 198 0
175 198 0
176 198 0
174 197 0
174 198 0
175 198 0
175 198 0
176 198 0
175 198 0
175 198 0
176 199 0
172 196 0
175 198 0
175 198 0
175 198 0
174 198 0
175 198 0
174 197 0
174 198 0
174 198 0
175 198 0
174 198 0
174 197 0
175 198 0
174 198 0
174 197 0
174 197 0
174 197 0
174 197 0
174 198 0
172 196 0
174 197 0
175 198 0
172 196 0
173 197 0
173 197 0
173 197 0
174 197 0
172 196 0
174 197 0
174 198 0
174 197 0
174 198 0
173 197 0
174 198 0
174 197 0
174 197 0
173 197 0
173 196 0
174 198 0
174 197 0
174 198 0
174 198 0
173 197 0
173 197 0
174 197 0
175 198 0
174 197 0
174 198 0
174 197 0
173 197 0
174 197 0
173 197 0
173 197 0
174 198 0
174 198 0
175 198 0
174 197 0
176 199 0
172 196 0
174 198 0
174 198 0
174 197 0
173 196 0
174 198 0
175 198 0
175 198 0
174 197 0
175 198 0
173 197 0
172 196 0
174 197 0
174 198 0
174 197 0
172 196 0
174 197 0
173 197 0
173 196 0
172 196 0
175 198 0
172 196 0
173 197 0
174 197 0
174 197 0
175 198 0
175 198 0
175 198 0
174 198 0
173 197 0
175 198 0
173 197 0
175 198 0
174 198 0
173 196 0
173 196 0
174 197 0
172 196 0
172 196 0
174 197 0
175 197 0
172 196 0
173 197 0
175 198 0
175 198 0
173 197 0
174 197 0
172 196 0
174 197 0
175 197 0
173 196 0
174 197 0
173 197 0
172 196 0
173 197 0
173 197 0
174 198 0
173 196 0
174 198 0
175 198 0
174 197 0
174 197 0
172 196 0
172 196 0
173 197 0
174 197 0
172 196 0
173 197 0
172 195 0
174 198 0
172 196 0
174 198 0
174 197 0
171 195 0
173 196 0
174 198 0
172 196 0
176 198 0
173 197 0
174 197 0
174 197 0
172 195 0
173 197 0
172 196 0
173 197 0
174 197 0
174 198 0
173 197 0
174 198 0
173 196 0
173 197 0
173 196 0
172 196 0
173 197 0
173 196 0
172 196 0
172 196 0
174 197 0
174 197 0
173 197 0
173 196 0
172 196 0
174 196 0
172 196 0
173 197 0
173 197 0
171 195 0
174 197 0
172 197 0
173 196 0
174 197 0
173 196 0
172 197 0
173 197 0
172 196 0
173 196 0
172 196 0
173 197 0
175 198 0
173 197 0
174 198 0
173 197 0
173 196 0
174 197 0
172 196 0
174 197 0
174 197 0
172 196 0
176 199 0
173 196 0
174 197 0
173 197 0
175 198 0
172 195 0
172 196 0
173 197 0
174 197 0
174 197 0
176 199 0
173 196 0
172 195 0
172 196 0
172 196 0
172 196 0
173 197 0
174 197 0
175 198 0
173 197 0
174 198 0
174 197 0
173 197 0
174 197 0
172 196 0
174 197 0
174 198 0
174 197 0
175 198 0
174 197 0
173 196 0
173 197 0
174 197 0
173 197 0
176 199 0
173 197 0
174 197 0
172 197 0
173 196 0
172 196 0
173 197 0
174 198 0
171 194 0
171 196 0
174 197 0
172 196 0
174 197 0
175 198 0
175 197 0
171 196 0
173 197 0
174 197 0
175 198 0
172 196 0
174 197 0
174 197 0
172 195 0
174 196 0
175 198 0
173 196 0
173 196 0
174 198 0
173 197 0
173 197 0
174 197 0
173 197 0
173 197 0
176 199 0
174 197 0
174 198 0
175 198 0
173 196 0
173 197 0
175 198 0
175 198 0
175 198 0
175 198 0
174 198 0
175 198 0
173 196 0
174 197 0
173 197 0
175 198 0
175 197 0
174 197 0
175 198 0
171 195 0
174 198 0
175 198 0
174 198 0
173 197 0
174 198 0
174 197 0
174 197 0
174 197 0
174 197 0
175 198 0
174 197 0
175 198 0
174 198 0
174 197 0
174 198 0
174 198 0
174 198 0
175 198 0
174 198 0
173 197 0
173 197 0
174 197 0
175 198 0
174 197 0
173 197 0
174 197 0
176 199 0
174 198 0
175 198 0
174 198 0
175 198 0
174 197 0
176 198 0
173 196 0
173 197 0
172 196 0
174 197 0
174 198 0
175 198 0
175 198 0
173 197 0
174 198 0
173 197 0
175 198 0
175 198 0
174 198 0
174 198 0
176 199 0
174 198 0
174 198 0
173 197 0
174 197 0
175 198 0
175 198 0
175 198 0
174 198 0
175 198 0
174 198 0
175 198 0
176 199 0
173 197 0
174 198 0
175 198 0
175 198 0
175 198 0
175 198 0
176 199 0
175 198 0
175 198 0
173 197 0
176 199 0
174 197 0
174 198 0
175 198 0
175 198 0
173 197 0
175 198 0
174 197 0
174 198 0
173 197 0
173 197 0
174 198 0
173 197 0
174 198 0
174 197 0
176 199 0
174 198 0
173 197 0
175 198 0
175 198 0
174 198 0
174 198 0
172 196 0
171 195 0
175 198 0
175 198 0
175 198 0
175 198 0
175 198 0
177 199 0
174 198 0
176 198 0
173 197 0
173 197 0
175 198 0
174 197 0
173 197 0
175 198 0
173 197 0
176 199 0
176 199 0
174 198 0
175 198 0
173 197 0
174 197 0
174 197 0
174 198 0
175 198 0
174 198 0
174 198 0
176 198 0
173 197 0
175 198 0
175 198 0
174 198 0
173 197 0
174 198 0
175 198 0
172 196 0
173 197 0
172 196 0
174 197 0
175 198 0
175 198 0
174 197 0
172 196 0
175 198 0
175 198 0
174 197 0
174 197 0
176 199 0
174 197 0
174 198 0
174 198 0
174 198 0
175 198 0
174 198 0
173 197 0
172 197 0
175 198 0
174 197 0
174 198 0
173 197 0
174 197 0
174 198 0
175 198 0
174 198 0
174 197 0
174 197 0
175 198 0
173 197 0
173 197 0
174 197 0
173 197 0
173 197 0
173 197 0
174 197 0
174 198 0
175 198 0
175 198 0
173 196 0
171 196 0
173 197 0
174 198 0
174 197 0
174 197 0
175 198 0
173 197 0
172 196 0
174 198 0
174 198 0
173 197 0
173 197 0
174 197 0
175 198 0
174 198 0
174 197 0
174 197 0
175 198 0
173 197 0
173 197 0
173 197 0
173 196 0
172 196 0
175 198 0
175 198 0
176 199 0
173 197 0
174 197 0
174 197 0
173 197 0
176 199 0
172 196 0
174 198 0
173 196 0
172 195 0
173 197 0
174 197 0
172 196 0
175 198 0
176 199 0
174 197 0
175 198 0
174 198 0
173 196 0
174 197 0
173 196 0
174 198 0
173 197 0
171 195 0
174 197 0
172 196 0
173 197 0
174 197 0
173 197 0
174 198 0
173 197 0
173 197 0
174 197 0
173 196 0
174 197 0
174 198 0
173 196 0
172 197 0
174 197 0
173 197 0
172 195 0
173 196 0
173 197 0
174 197 0
175 198 0
176 198 0
173 196 0
173 196 0
174 197 0
174 198 0
173 197 0
172 196 0
175 198 0
174 197 0
173 197 0
174 197 0
175 198 0
174 198 0
173 197 0
175 197 0
172 196 0
173 196 0
171 196 0
172 196 0
175 198 0
175 198 0
173 196 0
173 197 0
174 198 0
172 196 0
173 196 0
174 197 0
174 197 0
170 194 0
172 196 0
174 198 0
171 195 0
174 197 0
175 198 0
175 198 0
175 198 0
173 196 0
174 197 0
174 198 0
173 197 0
175 198 0
173 196 0
170 194 0
173 197 0
172 196 0
174 198 0
175 198 0
172 196 0
174 197 0
172 196 0
174 197 0
173 197 0
174 197 0
173 197 0
173 197 0
175 198 0
173 197 0
173 197 0
174 198 0
170 194 0
174 197 0
174 197 0
173 197 0
173 197 0
173 197 0
174 197 0
172 196 0
172 196 0
173 197 0
173 196 0
175 198 0
174 198 0
172 196 0
172 195 0
171 196 0
173 196 0
174 197 0
173 197 0
174 197 0
173 197 0
171 195 0
173 197 0
174 197 0
175 198 0
173 195 0
173 197 0
172 196 0
176 199 0
173 197 0
174 196 0
174 197 0
174 197 0
175 198 0
174 198 0
174 198 0
174 198 0
174 197 0
175 198 0
174 197 0
174 197 0
174 197 0
175 198 0
173 197 0
172 197 0
175 198 0
175 198 0
175 198 0
175 198 0
176 198 0
175 198 0
174 197 0
174 197 0
170 194 0
174 198 0
174 198 0
174 196 0
175 198 0
174 198 0
174 198 0
174 197 0
174 198 0
175 198 0
175 198 0
175 198 0
175 198 0
174 198 0
174 197 0
173 197 0
174 197 0
173 197 0
174 198 0
174 197 0
173 197 0
174 198 0
172 196 0
174 197 0
176 198 0
174 197 0
174 198 0
174 197 0
173 196 0
175 198 0
174 198 0
172 197 0
174 197 0
173 197 0
174 198 0
174 197 0
175 198 0
174 197 0
174 197 0
173 197 0
173 197 0
173 197 0
174 197 0
173 197 0
173 197 0
175 198 0
175 198 0
175 197 0
174 197 0
174 197 0
176 198 0
175 198 0
174 198 0
173 197 0
174 197 0
175 198 0
175 198 0
174 197 0
175 198 0
173 197 0
173 197 0
174 197 0
173 197 0
174 197 0
173 197 0
174 197 0
175 198 0
173 197 0
173 197 0
173 197 0
174 197 0
175 198 0
173 197 0
176 198 0
174 197 0
175 198 0
173 197 0
174 197 0
176 198 0
174 198 0
175 198 0
173 197 0
175 198 0
174 198 0
175 198 0
173 197 0
175 198 0
176 198 0
175 198 0
173 197 0
174 198 0
175 198 0
172 196 0
173 197 0
173 197 0
174 198 0
175 198 0
173 197 0
174 198 0
174 197 0
173 197 0
174 198 0
174 198 0
174 197 0
174 198 0
174 197 0
173 197 0
175 198 0
175 198 0
175 198 0
174 198 0
175 198 0
174 197 0
175 198 0
176 199 0
174 198 0
174 198 0
175 198 0
175 198 0
174 198 0
171 196 0
175 198 0
173 197 0
175 198 0
175 198 0
174 198 0
173 197 0
174 197 0
174 197 0
175 198 0
171 196 0
174 198 0
174 198 0
175 198 0
177 199 0
174 198 0
175 198 0
174 198 0
174 198 0
175 198 0
174 197 0
173 196 0
175 198 0
175 198 0
174 198 0
175 198 0
174 197 0
174 197 0
173 197 0
175 198 0
175 198 0
175 198 0
174 197 0
175 198 0
173 197 0
171 196 0
174 197 0
173 197 0
174 197 0
174 197 0
173 197 0
173 197 0
174 197 0
174 198 0
174 198 0
175 198 0
174 198 0
173 197 0
175 198 0
173 197 0
174 197 0
175 198 0
175 198 0
176 199 0
174 197 0
173 197 0
175 198 0
174 198 0
176 199 0
174 198 0
174 198 0
174 197 0
175 198 0
175 198 0
173 197 0
174 198 0
174 198 0
173 196 0
175 198 0
173 197 0
174 198 0
174 197 0
175 198 0
175 198 0
174 198 0
173 197 0
173 197 0
175 198 0
175 198 0
174 197 0
174 198 0
175 198 0
173 196 0
174 197 0
175 198 0
175 198 0
176 199 0
174 197 0
174 198 0
174 197 0
175 198 0
175 198 0
175 198 0
173 197 0
174 197 0
175 198 0
174 198 0
172 196 0
175 198 0
173 197 0
174 198 0
172 197 0
173 197 0
175 198 0
175 198 0
172 196 0
173 197 0
173 197 0
174 197 0
174 198 0
175 198 0
172 196 0
174 198 0
175 198 0
174 197 0
175 198 0
174 197 0
173 197 0
174 198 0
171 195 0
174 197 0
172 196 0
174 198 0
175 198 0
175 198 0
173 197 0
174 196 0
172 196 0
174 198 0
173 196 0
174 197 0
172 196 0
173 197 0
175 198 0
173 197 0
173 197 0
174 197 0
174 198 0
174 197 0
173 197 0
173 196 0
172 196 0
175 198 0
172 196 0
174 197 0
174 198 0
176 198 0
173 197 0
174 197 0
175 198 0
174 198 0
173 196 0
174 198 0
174 198 0
174 197 0
173 197 0
175 198 0
175 198 0
174 197 0
174 197 0
171 195 0
171 195 0
175 198 0
173 197 0
174 197 0
174 198 0
174 197 0
173 197 0
176 198 0
172 196 0
174 197 0
172 196 0
174 197 0
172 195 0
175 198 0
175 198 0
173 196 0
174 198 0
173 197 0
175 198 0
172 195 0
173 197 0
174 197 0
174 197 0
173 197 0
175 198 0
175 198 0
172 194 0
173 196 0
175 198 0
174 198 0
173 196 0
174 197 0
173 197 0
172 196 0
174 198 0
175 198 0
172 196 0
174 197 0
173 197 0
175 198 0
173 197 0
172 196 0
174 197 0
175 198 0
173 197 0
173 196 0
175 197 0
173 196 0
173 196 0
174 197 0
174 197 0
171 195 0
174 197 0
174 197 0
173 197 0
174 197 0
175 198 0
174 197 0
172 196 0
171 195 0
173 197 0
172 196 0
173 197 0
174 198 0
176 199 0
175 198 0
175 198 0
174 197 0
172 196 0
174 197 0
173 197 0
174 197 0
175 198 0
173 197 0
173 196 0
173 196 0
175 198 0
174 197 0
172 196 0
173 197 0
174 197 0
172 195 0
174 197 0
173 197 0
172 196 0
174 198 0
174 197 0
174 197 0
176 198 0
173 196 0
172 195 0
170 194 0
172 195 0
170 195 0
174 197 0
173 196 0
175 198 0
175 198 0
172 196 0
173 197 0
173 196 0
174 197 0
175 198 0
173 196 0
172 196 0
173 197 0
171 195 0
173 197 0
174 197 0
174 197 0
174 198 0
173 197 0
174 198 0
175 197 0
172 196 0
174 197 0
171 195 0
175 198 0
175 198 0
173 197 0
174 197 0
174 197 0
171 196 0
174 198 0
174 198 0
174 198 0
172 195 0
173 196 0
174 198 0
174 197 0
175 198 0
173 197 0
172 196 0
175 198 0
174 198 0
173 197 0
171 195 0
174 197 0
173 196 0
174 197 0
174 197 0
174 197 0
173 197 0
175 197 0
174 197 0
171 195 0
175 198 0
176 199 0
173 197 0
173 197 0
176 199 0
174 197 0
174 198 0
173 197 0
175 198 0
172 196 0
174 198 0
173 197 0
172 196 0
173 197 0
175 198 0
173 196 0
174 197 0
175 198 0
174 198 0
175 198 0
175 198 0
174 198 0
176 199 0
174 198 0
172 196 0
175 198 0
175 198 0
175 198 0
173 197 0
175 198 0
175 198 0
172 196 0
173 197 0
176 199 0
175 198 0
174 197 0
175 198 0
175 198 0
174 197 0
174 197 0
176 198 0
175 198 0
173 197 0
173 197 0
175 198 0
176 198 0
173 197 0
173 197 0
174 197 0
175 198 0
175 198 0
173 197 0
174 197 0
174 198 0
175 198 0
174 197 0
175 198 0
175 198 0
174 198 0
175 198 0
173 197 0
174 197 0
175 198 0
174 198 0
173 197 0
174 198 0
175 197 0
175 198 0
175 198 0
175 198 0
175 197 0
176 199 0
175 198 0
175 198 0
174 198 0
174 197 0
174 198 0
173 197 0
173 197 0
173 197 0
174 197 0
176 199 0
174 198 0
175 198 0
174 198 0
173 197 0
175 198 0
174 197 0
175 198 0
173 197 0
174 198 0
174 197 0
173 197 0
174 197 0
174 198 0
176 199 0
173 197 0
173 197 0
174 198 0
174 197 0
174 198 0
173 197 0
173 197 0
173 197 0
177 199 0
175 198 0
175 198 0
175 198 0
174 198 0
173 197 0
176 198 0
175 198 0
175 198 0
175 198 0
175 198 0
174 197 0
174 198 0
176 199 0
173 197 0
174 197 0
174 198 0
174 198 0
175 198 0
176 199 0
173 197 0
173 197 0
172 197 0
176 199 0
173 197 0
172 197 0
174 198 0
175 198 0
174 197 0
175 198 0
173 197 0
174 197 0
175 198 0
173 197 0
174 198 0
174 198 0
174 198 0
174 198 0
174 198 0
174 198 0
173 196 0
175 198 0
174 198 0
174 197 0
175 198 0
172 196 0
174 198 0
173 197 0
174 198 0
174 198 0
175 198 0
174 197 0
174 197 0
174 198 0
173 197 0
172 197 0
174 197 0
174 198 0
173 196 0
174 198 0
175 198 0
176 198 0
174 198 0
175 198 0
173 197 0
175 198 0
173 197 0
175 198 0
173 197 0
174 198 0
174 197 0
173 197 0
174 197 0
174 197 0
174 198 0
174 198 0
173 197 0
174 197 0
172 196 0
175 198 0
174 198 0
174 198 0
173 197 0
175 198 0
173 197 0
172 196 0
175 198 0
174 198 0
173 197 0
174 197 0
175 198 0
173 197 0
175 198 0
173 196 0
172 196 0
174 198 0
174 198 0
174 197 0
173 197 0
174 197 0
173 197 0
174 197 0
173 197 0
174 197 0
176 199 0
175 198 0
173 196 0
173 197 0
173 197 0
174 197 0
173 196 0
175 198 0
174 197 0
173 197 0
174 198 0
174 198 0
175 198 0
174 197 0
173 197 0
172 197 0
175 198 0
174 198 0
174 197 0
174 197 0
175 198 0
177 199 0
173 196 0
174 198 0
174 197 0
174 198 0
175 198 0
174 198 0
174 198 0
175 198 0
175 198 0
172 196 0
172 195 0
172 195 0
174 197 0
172 195 0
173 197 0
175 197 0
173 197 0
173 196 0
172 197 0
173 197 0
172 196 0
175 198 0
173 196 0
173 196 0
174 197 0
174 197 0
174 197 0
175 198 0
171 195 0
173 195 0
174 197 0
173 196 0
173 197 0
174 197 0
173 197 0
175 198 0
172 195 0
173 197 0
174 197 0
175 198 0
172 196 0
174 197 0
174 197 0
173 197 0
174 197 0
173 196 0
173 196 0
172 196 0
174 198 0
172 196 0
175 198 0
174 197 0
173 197 0
173 196 0
174 197 0
174 197 0
174 197 0
173 197 0
174 197 0
174 197 0
171 195 0
175 198 0
172 195 0
172 196 0
172 196 0
171 194 0
174 198 0
173 197 0
173 197 0
174 198 0
173 197 0
174 197 0
174 197 0
174 198 0
174 198 0
173 197 0
173 197 0
172 196 0
173 197 0
174 197 0
173 197 0
173 196 0
171 195 0
175 198 0
174 197 0
174 197 0
174 197 0
173 197 0
173 197 0
172 196 0
175 198 0
173 197 0
172 196 0
173 197 0
174 197 0
174 197 0
173 196 0
172 196 0
172 196 0
174 198 0
173 196 0
173 197 0
174 198 0
174 198 0
170 195 0
172 196 0
175 198 0
173 197 0
172 196 0
174 198 0
174 197 0
172 196 0
175 197 0
172 196 0
173 196 0
173 196 0
174 198 0
175 198 0
170 193 0
173 197 0
175 198 0
173 197 0
174 197 0
174 197 0
171 195 0
173 196 0
174 198 0
173 196 0
175 198 0
173 197 0
173 197 0
174 198 0
173 197 0
174 198 0
172 196 0
173 196 0
174 198 0
173 196 0
173 196 0
175 197 0
174 197 0
174 198 0
175 198 0
174 198 0
174 197 0
174 198 0
175 198 0
174 197 0
174 198 0
173 197 0
172 195 0
176 198 0
175 198 0
173 197 0
173 196 0
175 197 0
176 199 0
173 196 0
175 198 0
174 197 0
173 197 0
171 195 0
174 197 0
174 197 0
173 197 0
173 197 0
175 198 0
174 197 0
173 197 0
174 197 0
175 198 0
174 197 0
174 197 0
173 197 0
174 198 0
174 198 0
173 197 0
174 197 0
175 198 0
173 197 0
175 198 0
174 198 0
174 197 0
175 198 0
173 197 0
174 197 0
174 198 0
175 198 0
175 198 0
174 197 0
173 197 0
176 199 0
173 197 0
174 198 0
174 197 0
173 196 0
174 197 0
171 195 0
175 198 0
174 197 0
174 197 0
173 196 0
174 198 0
176 198 0
174 197 0
174 197 0
175 197 0
175 198 0
174 197 0
174 197 0
176 198 0
174 198 0
171 195 0
173 197 0
175 198 0
173 197 0
175 198 0
174 197 0
175 198 0
175 198 0
173 197 0
173 197 0
174 198 0
173 197 0
174 197 0
173 197 0
174 198 0
173 197 0
174 197 0
174 198 0
175 198 0
174 197 0
173 197 0
175 198 0
174 197 0
173 197 0
175 198 0
175 198 0
174 198 0
174 197 0
175 198 0
172 195 0
175 198 0
175 198 0
174 197 0
175 198 0
175 198 0
174 198 0
175 198 0
175 198 0
174 198 0
175 198 0
172 197 0
174 198 0
175 198 0
173 197 0
175 198 0
176 198 0
176 198 0
174 198 0
175 198 0
174 198 0
175 198 0
175 198 0
174 198 0
175 198 0
172 197 0
174 197 0
174 197 0
175 198 0
172 196 0
173 197 0
174 197 0
175 198 0
173 197 0
174 198 0
173 197 0
174 198 0
176 198 0
174 197 0
174 197 0
175 198 0
175 198 0
172 197 0
174 198 0
174 198 0
173 197 0
175 198 0
175 198 0
173 197 0
173 197 0
175 198 0
173 197 0
175 198 0
175 198 0
173 197 0
175 198 0
176 198 0
175 198 0
174 198 0
175 198 0
174 198 0
174 198 0
173 197 0
174 198 0
175 198 0
175 198 0
173 196 0
174 197 0
174 197 0
174 198 0
174 198 0
174 197 0
173 197 0
173 197 0
176 198 0
176 199 0
173 197 0
174 198 0
174 198 0
173 196 0
175 198 0
173 197 0
175 198 0
173 197 0
175 198 0
175 198 0
174 197 0
175 198 0
174 198 0
174 198 0
173 197 0
173 197 0
175 198 0
174 198 0
174 197 0
173 197 0
174 197 0
176 198 0
175 198 0
174 198 0
173 197 0
173 197 0
175 198 0
174 198 0
173 197 0
174 197 0
175 198 0
173 197 0
173 197 0
175 198 0
175 198 0
174 197 0
174 197 0
173 197 0
175 198 0
174 197 0
174 197 0
174 197 0
174 198 0
174 197 0
172 196 0
174 198 0
176 199 0
173 197 0
175 198 0
174 198 0
175 198 0
172 196 0
174 197 0
174 197 0
174 197 0
173 197 0
174 198 0
175 198 0
173 197 0
175 198 0
174 197 0
173 197 0
173 197 0
173 197 0
174 198 0
174 197 0
174 197 0
174 197 0
174 198 0
174 197 0
172 197 0
172 195 0
174 198 0
173 196 0
174 198 0
173 197 0
174 198 0
173 196 0
176 198 0
174 198 0
174 197 0
174 198 0
174 197 0
172 196 0
173 197 0
173 197 0
173 195 0
173 197 0
175 198 0
174 198 0
173 196 0
174 198 0
174 197 0
174 197 0
172 196 0
173 196 0
173 196 0
173 197 0
171 195 0
173 196 0
175 198 0
174 197 0
172 196 0
170 194 0
173 196 0
173 197 0
171 195 0
173 197 0
174 198 0
174 198 0
173 196 0
172 195 0
171 195 0
173 196 0
174 197 0
173 197 0
174 197 0
174 197 0
174 197 0
172 195 0
174 198 0
174 198 0
175 198 0
173 196 0
175 198 0
174 197 0
173 197 0
174 197 0
173 197 0
175 198 0
175 198 0
171 195 0
174 197 0
174 197 0
174 197 0
173 196 0
173 197 0
173 197 0
175 198 0
173 196 0
171 194 0
175 198 0
172 196 0
175 198 0
172 196 0
172 196 0
175 198 0
175 198 0
174 197 0
175 198 0
173 197 0
173 197 0
174 197 0
173 197 0
173 197 0
174 197 0
172 196 0
173 197 0
172 196 0
175 197 0
174 197 0
176 199 0
172 196 0
174 197 0
171 195 0
173 197 0
173 197 0
173 196 0
173 196 0
176 198 0
172 195 0
175 198 0
173 197 0
172 197 0
173 197 0
174 198 0
173 197 0
172 196 0
174 197 0
175 198 0
175 198 0
175 198 0
174 197 0
174 198 0
174 197 0
174 197 0
174 197 0
173 196 0
172 195 0
174 197 0
172 196 0
172 196 0
175 198 0
174 198 0
173 196 0
175 197 0
173 197 0
172 196 0
173 196 0
172 196 0
172 196 0
173 197 0
172 196 0
175 198 0
173 197 0
174 197 0
174 197 0
175 198 0
173 196 0
173 197 0
173 197 0
174 197 0
174 197 0
174 196 0
174 198 0
173 197 0
174 198 0
173 197 0
172 195 0
174 197 0
173 197 0
176 198 0
172 195 0
174 198 0
173 196 0
175 198 0
174 197 0
172 196 0
173 197 0
175 198 0
173 197 0
175 198 0
174 197 0
173 197 0
172 196 0
173 197 0
172 196 0
175 198 0
175 198 0
173 197 0
174 198 0
174 196 0
174 197 0
174 197 0
175 198 0
172 196 0
174 198 0
173 197 0
174 197 0
172 195 0
173 196 0
173 197 0
173 197 0
174 197 0
174 198 0
172 196 0
174 198 0
173 197 0
172 196 0
173 197 0
174 198 0
174 198 0
175 198 0
173 196 0
173 197 0
175 198 0
175 198 0
175 198 0
172 196 0
174 198 0
172 196 0
173 197 0
174 197 0
174 198 0
174 198 0
173 197 0
174 197 0
173 197 0
173 197 0
174 198 0
173 196 0
175 198 0
174 197 0
175 198 0
174 198 0
174 198 0
174 197 0
174 197 0
173 196 0
173 197 0
173 197 0
175 198 0
175 198 0
174 197 0
174 198 0
174 197 0
174 198 0
175 198 0
175 198 0
175 198 0
175 198 0
172 196 0
175 198 0
174 197 0
175 198 0
173 197 0
176 199 0
176 199 0
173 197 0
175 198 0
175 198 0
173 197 0
173 197 0
176 199 0
176 199 0
175 198 0
175 198 0
174 198 0
174 197 0
174 197 0
175 198 0
174 198 0
175 198 0
174 198 0
173 197 0
175 198 0
175 198 0
175 198 0
172 197 0
174 197 0
174 198 0
174 198 0
174 198 0
174 197 0
173 197 0
175 198 0
174 198 0
174 198 0
173 197 0
175 198 0
175 198 0
173 197 0
174 198 0
173 197 0
174 197 0
175 198 0
175 198 0
174 198 0
173 197 0
174 197 0
176 198 0
174 198 0
173 197 0
174 198 0
173 197 0
175 198 0
174 197 0
174 198 0
175 198 0
173 197 0
174 198 0
175 198 0
173 197 0
174 197 0
174 198 0
175 198 0
175 198 0
175 198 0
175 198 0
174 198 0
176 199 0
175 198 0
173 197 0
175 198 0
174 198 0
175 198 0
175 198 0
174 198 0
172 197 0
175 198 0
174 197 0
174 197 0
172 196 0
173 197 0
175 198 0
174 197 0
174 198 0
174 197 0
176 198 0
172 196 0
174 197 0
172 196 0
175 198 0
173 197 0
175 198 0
174 197 0
175 198 0
173 197 0
174 198 0
174 197 0
174 198 0
174 197 0
174 198 0
174 198 0
172 196 0
174 197 0
175 198 0
172 196 0
173 196 0
174 198 0
176 199 0
175 198 0
174 197 0
175 198 0
175 198 0
174 198 0
175 198 0
176 199 0
173 197 0
174 198 0
175 198 0
174 198 0
175 198 0
173 197 0
173 197 0
172 197 0
176 199 0
175 198 0
174 198 0
176 199 0
173 197 0
176 199 0
173 197 0
174 198 0
175 198 0
173 197 0
174 198 0
174 198 0
173 197 0
172 196 0
174 197 0
175 198 0
173 197 0
174 198 0
174 197 0
175 198 0
174 197 0
175 198 0
173 197 0
174 198 0
174 198 0
173 197 0
175 198 0
175 198 0
173 196 0
175 198 0
175 198 0
173 197 0
174 197 0
175 198 0
175 198 0
174 197 0
173 197 0
174 198 0
175 198 0
175 198 0
173 197 0
171 195 0
175 198 0
175 198 0
173 196 0
173 197 0
174 197 0
173 197 0
174 198 0
173 197 0
172 196 0
175 198 0
175 198 0
174 198 0
174 197 0
174 198 0
173 196 0
173 197 0
174 197 0
174 197 0
173 197 0
173 196 0
172 196 0
173 197 0
174 197 0
173 197 0
174 197 0
175 198 0
176 199 0
174 198 0
174 198 0
174 197 0
173 197 0
175 198 0
175 198 0
174 198 0
174 197 0
175 198 0
171 195 0
174 198 0
172 196 0
173 197 0
172 196 0
172 196 0
174 197 0
173 197 0
171 195 0
174 197 0
175 198 0
174 197 0
173 196 0
172 196 0
173 197 0
174 197 0
171 195 0
175 198 0
174 197 0
174 197 0
172 196 0
175 197 0
173 197 0
171 195 0
171 195 0
174 197 0
174 197 0
173 197 0
173 196 0
174 198 0
174 198 0
173 197 0
173 196 0
173 197 0
174 197 0
172 197 0
173 197 0
172 195 0
173 197 0
176 199 0
174 197 0
170 194 0
172 195 0
172 196 0
171 195 0
173 197 0
175 198 0
174 198 0
173 197 0
173 196 0
173 196 0
174 197 0
173 196 0
171 195 0
175 198 0
174 197 0
173 196 0
172 195 0
174 197 0
174 197 0
175 198 0
172 195 0
174 197 0
174 197 0
171 195 0
174 198 0
174 196 0
174 197 0
173 197 0
174 198 0
174 197 0
173 197 0
174 198 0
174 197 0
175 198 0
176 199 0
174 197 0
172 196 0
175 198 0
174 197 0
173 197 0
175 198 0
174 197 0
173 196 0
173 196 0
174 198 0
173 196 0
174 197 0
174 198 0
176 198 0
175 198 0
175 198 0
174 197 0
173 196 0
174 197 0
174 198 0
176 198 0
172 196 0
174 198 0
174 197 0
175 198 0
174 197 0
174 197 0
173 197 0
173 195 0
173 196 0
174 197 0
174 197 0
173 196 0
173 196 0
171 195 0
174 196 0
170 194 0
174 197 0
173 197 0
173 196 0
173 197 0
173 197 0
174 197 0
172 196 0
174 197 0
174 197 0
174 197 0
173 197 0
173 197 0
172 195 0
172 196 0
174 197 0
174 197 0
175 198 0
174 197 0
172 195 0
174 197 0
172 197 0
174 198 0
171 195 0
174 197 0
174 197 0
175 198 0
174 198 0
173 197 0
173 197 0
173 197 0
174 198 0
174 197 0
173 197 0
174 197 0
175 198 0
175 198 0
175 198 0
173 197 0
175 198 0
173 197 0
174 198 0
174 197 0
175 198 0
175 198 0
173 196 0
175 198 0
176 199 0
175 198 0
175 198 0
172 197 0
174 198 0
172 196 0
174 197 0
174 197 0
175 198 0
175 198 0
174 198 0
174 197 0
172 196 0
174 197 0
174 198 0
175 198 0
173 197 0
174 197 0
176 199 0
174 198 0
176 198 0
173 197 0
175 198 0
174 197 0
174 197 0
173 197 0
173 197 0
175 198 0
174 198 0
175 198 0
174 198 0
174 197 0
174 198 0
174 197 0
174 198 0
174 197 0
174 197 0
173 197 0
173 197 0
175 198 0
174 197 0
174 198 0
175 198 0
174 198 0
175 198 0
174 198 0
174 197 0
173 197 0
175 198 0
175 198 0
174 197 0
172 196 0
174 197 0
177 199 0
175 198 0
175 198 0
173 197 0
172 197 0
176 199 0
174 198 0
175 198 0
174 198 0
174 197 0
173 197 0
176 198 0
174 197 0
173 197 0
173 197 0
175 198 0
173 197 0
174 197 0
175 198 0
174 198 0
174 198 0
175 198 0
175 198 0
174 197 0
174 198 0
175 198 0
173 197 0
175 198 0
173 197 0
175 198 0
174 198 0
175 198 0
174 198 0
175 198 0
174 198 0
174 198 0
174 197 0
173 197 0
174 198 0
174 198 0
173 197 0
175 198 0
175 198 0
173 196 0
174 197 0
175 198 0
176 199 0
174 198 0
175 198 0
174 197 0
173 197 0
174 198 0
173 197 0
175 198 0
174 198 0
173 197 0
177 199 0
174 197 0
173 197 0
172 197 0
174 197 0
175 198 0
174 198 0
173 197 0
173 197 0
175 198 0
174 198 0
173 197 0
174 198 0
172 196 0
174 197 0
173 197 0
174 198 0
175 198 0
175 198 0
174 198 0
173 197 0
174 198 0
174 198 0
176 199 0
175 198 0
175 198 0
173 197 0
174 198 0
173 197 0
174 198 0
174 198 0
174 197 0
173 197 0
174 197 0
175 198 0
175 198 0
174 198 0
175 198 0
174 198 0
174 198 0
173 196 0
173 197 0
174 198 0
175 198 0
174 197 0
173 197 0
175 198 0
175 198 0
172 196 0
175 198 0
174 197 0
174 197 0
173 197 0
174 198 0
173 197 0
173 197 0
175 198 0
173 197 0
174 198 0
174 198 0
173 197 0
172 197 0
175 198 0
174 198 0
174 197 0
172 196 0
174 198 0
174 198 0
173 197 0
174 198 0
173 197 0
174 197 0
174 197 0
172 197 0
173 197 0
174 197 0
174 197 0
174 198 0
174 198 0
173 197 0
173 197 0
174 198 0
174 197 0
172 195 0
173 196 0
174 198 0
175 198 0
175 198 0
175 197 0
174 197 0
175 198 0
175 198 0
173 197 0
173 197 0
173 197 0
175 198 0
174 197 0
175 198 0
173 197 0
172 195 0
173 197 0
174 197 0
174 198 0
174 197 0
174 197 0
174 198 0
174 198 0
175 198 0
175 198 0
175 198 0
174 197 0
176 198 0
172 196 0
174 198 0
171 195 0
174 197 0
174 197 0
175 198 0
173 197 0
173 196 0
173 197 0
174 197 0
174 197 0
176 199 0
172 195 0
174 197 0
173 197 0
173 197 0
175 198 0
174 198 0
174 197 0
172 196 0
176 199 0
173 197 0
175 198 0
173 197 0
173 196 0
174 197 0
173 197 0
173 197 0
174 197 0
173 197 0
174 197 0
173 196 0
174 197 0
175 198 0
173 197 0
174 198 0
173 196 0
173 197 0
173 197 0
173 197 0
174 198 0
175 197 0
171 195 0
174 197 0
172 195 0
175 198 0
173 197 0
173 197 0
173 196 0
171 195 0
174 197 0
173 197 0
174 197 0
172 196 0
174 197 0
173 197 0
173 197 0
174 197 0
174 197 0
174 198 0
174 198 0
175 198 0
172 196 0
173 197 0
172 197 0
173 197 0
173 196 0
173 196 0
174 197 0
173 197 0
174 197 0
174 197 0
173 197 0
175 198 0
174 197 0
172 197 0
173 197 0
173 197 0
174 197 0
173 196 0
174 197 0
174 197 0
174 197 0
175 198 0
173 196 0
173 197 0
172 196 0
171 194 0
171 194 0
174 197 0
173 197 0
174 197 0
174 197 0
174 197 0
173 197 0
173 197 0
174 197 0
175 198 0
172 196 0
174 197 0
174 197 0
174 198 0
174 197 0
173 197 0
174 197 0
172 196 0
174 197 0
174 197 0
173 197 0
172 196 0
173 197 0
172 196 0
172 196 0
174 198 0
174 197 0
172 196 0
173 196 0
174 197 0
175 198 0
172 196 0
174 198 0
173 197 0
173 196 0
174 198 0
174 198 0
175 198 0
173 197 0
174 198 0
175 198 0
175 197 0
174 198 0
174 198 0
171 196 0
175 198 0
174 197 0
173 197 0
173 197 0
172 196 0
176 198 0
174 197 0
174 198 0
174 198 0
174 197 0
174 197 0
172 196 0
176 199 0
175 198 0
173 196 0
173 197 0
172 196 0
172 196 0
175 198 0
175 198 0
173 197 0
174 197 0
175 198 0
176 198 0
176 198 0
174 198 0
174 197 0
173 196 0
173 197 0
174 198 0
174 197 0
174 197 0
174 198 0
174 197 0
175 198 0
175 198 0
174 198 0
175 198 0
173 196 0
172 196 0
172 196 0
175 198 0
171 195 0
174 197 0
174 197 0
174 198 0
174 197 0
175 198 0
174 198 0
173 196 0
173 197 0
172 197 0
174 198 0
174 198 0
175 198 0
173 196 0
175 198 0
173 197 0
174 198 0
174 198 0
173 196 0
174 197 0
176 198 0
175 198 0
174 198 0
174 197 0
174 198 0
174 198 0
175 198 0
174 197 0
174 197 0
174 198 0
173 197 0
174 197 0
172 196 0
173 197 0
174 197 0
174 198 0
175 198 0
174 198 0
175 198 0
175 198 0
175 198 0
174 197 0
172 196 0
174 197 0
173 197 0
174 197 0
174 198 0
174 198 0
174 197 0
174 198 0
174 197 0
174 197 0
173 197 0
174 197 0
174 198 0
173 197 0
173 197 0
175 198 0
174 197 0
175 198 0
174 197 0
174 198 0
175 198 0
171 196 0
175 198 0
173 197 0
175 198 0
175 198 0
172 196 0
174 197 0
176 199 0
175 198 0
174 197 0
175 198 0
176 199 0
175 198 0
176 199 0
174 198 0
173 197 0
175 198 0
174 198 0
175 198 0
173 197 0
174 198 0
175 198 0
173 197 0
175 198 0
175 198 0
175 198 0
175 198 0
174 198 0
175 198 0
173 197 0
175 198 0
176 199 0
172 196 0
175 198 0
174 197 0
174 197 0
175 198 0
175 198 0
176 199 0
175 198 0
174 197 0
176 198 0
173 197 0
175 198 0
175 198 0
174 198 0
173 197 0
173 197 0
174 198 0
174 198 0
175 198 0
175 198 0
174 198 0
175 198 0
176 198 0
174 198 0
175 198 0
173 197 0
175 198 0
173 197 0
174 198 0
173 197 0
174 198 0
175 198 0
174 197 0
173 197 0
174 198 0
175 198 0
175 197 0
172 196 0
175 198 0
173 197 0
174 198 0
175 198 0
172 197 0
172 196 0
175 198 0
174 197 0
176 199 0
176 198 0
173 196 0
173 197 0
173 196 0
176 199 0
174 198 0
174 198 0
174 198 0
174 198 0
172 196 0
175 198 0
174 198 0
174 197 0
173 197 0
174 197 0
174 198 0
174 198 0
175 198 0
173 197 0
173 197 0
174 197 0
174 197 0
177 199 0
174 198 0
174 197 0
172 196 0
175 198 0
174 198 0
175 198 0
173 197 0
174 198 0
174 197 0
173 196 0
175 198 0
173 197 0
174 198 0
175 198 0
175 198 0
173 197 0
174 197 0
175 198 0
174 198 0
174 197 0
175 198 0
173 197 0
172 197 0
174 197 0
174 197 0
176 199 0
174 198 0
176 199 0
174 197 0
175 198 0
174 197 0
173 196 0
174 198 0
174 198 0
172 197 0
173 197 0
173 197 0
174 198 0
174 198 0
174 197 0
173 197 0
174 197 0
174 198 0
174 197 0
172 196 0
175 198 0
173 196 0
174 197 0
173 196 0
172 196 0
175 198 0
173 196 0
174 198 0
173 197 0
173 197 0
174 197 0
175 198 0
173 197 0
174 198 0
174 198 0
174 197 0
174 197 0
174 197 0
173 197 0
172 195 0
175 198 0
172 196 0
174 198 0
175 198 0
172 196 0
172 196 0
173 196 0
175 198 0
173 196 0
174 196 0
174 197 0
171 195 0
172 196 0
173 197 0
174 197 0
174 198 0
173 196 0
174 198 0
173 197 0
173 196 0
175 198 0
174 197 0
172 196 0
174 197 0
172 196 0
175 198 0
172 195 0
173 197 0
174 197 0
174 197 0
174 197 0
176 198 0
175 198 0
173 197 0
175 198 0
173 196 0
173 196 0
175 198 0
175 198 0
172 195 0
173 197 0
174 197 0
172 196 0
173 197 0
174 198 0
174 197 0
172 196 0
174 198 0
172 196 0
174 198 0
173 197 0
173 196 0
174 197 0
173 197 0
172 196 0
175 198 0
176 199 0
170 193 0
175 197 0
171 195 0
173 197 0
173 197 0
173 196 0
173 196 0
177 199 0
172 196 0
174 197 0
172 196 0
173 196 0
172 195 0
172 196 0
173 197 0
175 198 0
172 196 0
174 197 0
174 198 0
172 196 0
173 196 0
171 195 0
175 198 0
173 196 0
173 197 0
172 195 0
173 197 0
171 195 0
173 197 0
170 194 0
174 197 0
174 197 0
174 197 0
174 197 0
175 198 0
175 198 0
174 198 0
174 197 0
173 197 0
175 198 0
173 197 0
174 197 0
173 197 0
174 198 0
174 197 0
174 197 0
174 197 0
175 198 0
173 196 0
173 197 0
173 197 0
175 198 0
172 195 0
173 196 0
175 197 0
173 197 0
174 198 0
175 198 0
173 197 0
173 197 0
171 196 0
176 199 0
174 196 0
174 197 0
174 198 0
175 198 0
174 197 0
174 197 0
174 197 0
173 197 0
173 197 0
173 196 0
174 197 0
174 198 0
176 199 0
173 197 0
172 196 0
174 197 0
174 197 0
174 197 0
173 197 0
173 197 0
174 197 0
175 198 0
173 196 0
174 197 0
175 198 0
173 197 0
176 199 0
175 198 0
174 197 0
173 197 0
174 197 0
172 196 0
175 198 0
174 197 0
175 198 0
175 198 0
174 198 0
173 197 0
174 197 0
173 197 0
170 193 0
173 197 0
173 197 0
173 196 0
174 197 0
173 197 0
174 197 0
173 197 0
172 196 0
174 197 0
174 198 0
174 197 0
174 198 0
176 199 0
173 197 0
174 197 0
172 196 0
173 197 0
173 197 0
175 197 0
175 198 0
172 196 0
173 197 0
174 197 0
175 198 0
173 197 0
174 197 0
174 198 0
175 198 0
174 197 0
175 198 0
175 198 0
174 197 0
173 197 0
174 197 0
174 197 0
174 198 0
175 198 0
175 198 0
175 197 0
175 198 0
175 198 0
174 197 0
173 197 0
175 198 0
173 197 0
175 198 0
174 197 0
175 198 0
174 197 0
175 198 0
174 198 0
173 197 0
175 198 0
175 198 0
174 197 0
174 197 0
175 198 0
175 198 0
174 197 0
172 196 0
175 198 0
177 199 0
173 197 0
174 198 0
173 197 0
172 196 0
174 197 0
174 197 0
173 197 0
175 198 0
175 198 0
174 197 0
174 197 0
174 197 0
174 197 0
175 198 0
175 198 0
175 198 0
174 197 0
174 197 0
175 198 0
175 198 0
174 198 0
176 198 0
175 198 0
174 198 0
173 196 0
174 197 0
174 198 0
175 198 0
173 197 0
175 198 0
175 198 0
174 198 0
174 198 0
174 197 0
174 198 0
174 197 0
174 197 0
173 197 0
174 198 0
177 199 0
174 198 0
173 197 0
175 198 0
174 197 0
174 198 0
174 198 0
175 198 0
175 198 0
174 197 0
175 198 0
175 198 0
174 198 0
174 197 0
174 198 0
174 198 0
173 197 0
173 197 0
173 197 0
174 197 0
173 197 0
174 198 0
172 196 0
173 197 0
175 198 0
175 198 0
173 197 0
174 197 0
173 197 0
175 198 0
173 197 0
174 198 0
175 198 0
173 197 0
176 199 0
177 199 0
174 197 0
174 197 0
174 197 0
175 198 0
175 198 0
173 197 0
176 199 0
174 198 0
174 198 0
173 197 0
175 198 0
173 197 0
175 198 0
173 196 0
175 198 0
175 198 0
174 198 0
174 198 0
174 198 0
174 197 0
173 197 0
173 197 0
174 197 0
174 197 0
173 197 0
173 197 0
175 198 0
173 197 0
173 197 0
175 198 0
175 198 0
173 197 0
174 198 0
175 198 0
174 198 0
173 197 0
174 198 0
174 198 0
174 197 0
174 198 0
175 198 0
174 197 0
174 198 0
172 196 0
173 196 0
173 197 0
173 197 0
176 199 0
174 198 0
175 198 0
176 199 0
174 198 0
174 197 0
172 195 0
172 196 0
174 197 0
174 198 0
175 198 0
173 197 0
175 198 0
173 197 0
174 198 0
172 196 0
174 197 0
172 196 0
174 197 0
174 197 0
172 196 0
173 197 0
175 198 0
175 198 0
174 197 0
173 197 0
173 197 0
175 198 0
172 196 0
173 197 0
174 198 0
172 196 0
175 198 0
172 196 0
175 198 0
175 198 0
176 199 0
175 198 0
174 197 0
174 197 0
173 197 0
173 197 0
174 197 0
174 197 0
175 197 0
171 195 0
172 196 0
173 196 0
175 198 0
174 197 0
173 196 0
174 197 0
173 197 0
174 197 0
173 196 0
174 198 0
173 197 0
173 197 0
173 197 0
174 197 0
173 197 0
176 198 0
172 196 0
174 197 0
174 198 0
174 197 0
175 198 0
171 195 0
174 197 0
174 197 0
174 198 0
175 198 0
173 197 0
175 198 0
172 196 0
174 198 0
173 197 0
174 198 0
173 197 0
175 198 0
173 197 0
174 198 0
173 196 0
174 197 0
174 198 0
174 197 0
174 197 0
175 198 0
173 197 0
173 197 0
176 198 0
171 195 0
172 196 0
174 197 0
173 197 0
172 196 0
175 198 0
175 198 0
172 196 0
172 196 0
174 197 0
173 197 0
175 198 0
172 196 0
175 198 0
171 194 0
175 198 0
173 196 0
174 197 0
171 195 0
176 199 0
174 197 0
174 197 0
174 197 0
173 196 0
175 198 0
174 197 0
174 197 0
172 195 0
172 196 0
175 197 0
174 198 0
170 195 0
172 196 0
174 197 0
173 197 0
174 197 0
174 198 0
173 197 0
173 196 0
174 196 0
174 198 0
174 197 0
172 196 0
174 197 0
173 197 0
173 196 0
173 197 0
174 198 0
173 196 0
175 198 0
174 198 0
173 196 0
173 197 0
172 196 0
173 196 0
173 197 0
173 197 0
174 197 0
175 198 0
173 196 0
172 196 0
173 196 0
174 198 0
173 197 0
174 198 0
173 196 0
175 198 0
174 197 0
173 196 0
174 197 0
173 196 0
173 197 0
172 196 0
174 197 0
174 197 0
176 199 0
174 198 0
174 197 0
172 196 0
173 196 0
173 197 0
174 197 0
174 197 0
175 198 0
174 197 0
173 197 0
174 197 0
174 197 0
174 197 0
173 197 0
173 197 0
172 196 0
173 197 0
174 197 0
174 198 0
175 198 0
175 198 0
175 198 0
173 197 0
175 197 0
173 196 0
173 196 0
175 198 0
174 197 0
175 198 0
174 197 0
173 197 0
173 197 0
175 198 0
174 197 0
175 198 0
173 196 0
174 197 0
176 198 0
172 196 0
174 198 0
173 196 0
174 197 0
173 197 0
172 196 0
175 198 0
174 197 0
172 196 0
174 197 0
172 196 0
175 198 0
174 197 0
174 198 0
176 199 0
174 197 0
175 198 0
174 197 0
175 198 0
175 198 0
175 198 0
174 197 0
173 197 0
174 197 0
173 197 0
173 197 0
174 197 0
176 199 0
173 196 0
173 197 0
174 198 0
173 197 0
173 196 0
173 197 0
174 198 0
173 196 0
176 199 0
175 198 0
172 196 0
173 197 0
174 198 0
174 198 0
173 197 0
174 197 0
174 197 0
173 197 0
176 199 0
175 198 0
174 198 0
174 197 0
175 198 0
176 198 0
173 197 0
173 197 0
175 198 0
175 198 0
176 198 0
174 197 0
173 197 0
172 196 0
172 196 0
174 197 0
174 198 0
174 198 0
174 198 0
172 197 0
175 198 0
175 197 0
173 197 0
174 197 0
173 197 0
174 197 0
175 198 0
175 198 0
174 198 0
173 197 0
173 196 0
173 197 0
172 196 0
175 198 0
175 198 0
172 196 0
172 196 0
176 198 0
173 197 0
176 199 0
173 197 0
174 198 0
173 197 0
173 197 0
176 198 0
173 197 0
173 197 0
173 197 0
175 198 0
174 198 0
175 198 0
176 199 0
175 198 0
174 198 0
175 198 0
174 198 0
175 198 0
174 197 0
174 198 0
172 196 0
175 198 0
174 197 0
174 197 0
175 198 0
174 198 0
173 197 0
174 197 0
175 198 0
175 198 0
175 198 0
172 196 0
175 198 0
174 197 0
176 199 0
173 197 0
174 198 0
174 198 0
174 198 0
174 197 0
173 197 0
175 198 0
173 197 0
174 197 0
171 195 0
173 197 0
173 197 0
174 198 0
172 197 0
175 198 0
172 196 0
174 197 0
173 197 0
174 198 0
174 198 0
174 197 0
175 198 0
175 198 0
176 199 0
176 198 0
173 197 0
174 197 0
176 199 0
173 197 0
174 198 0
176 198 0
175 198 0
177 199 0
174 198 0
174 198 0
175 198 0
174 198 0
175 198 0
172 197 0
175 198 0
175 198 0
176 198 0
174 198 0
175 198 0
173 197 0
177 199 0
175 198 0
174 198 0
173 197 0
174 198 0
174 197 0
174 198 0
174 198 0
173 197 0
173 197 0
174 198 0
174 198 0
173 197 0
171 195 0
174 198 0
173 197 0
176 198 0
174 197 0
174 198 0
174 197 0
174 198 0
174 198 0
175 198 0
175 198 0
176 198 0
173 197 0
176 199 0
175 198 0
174 198 0
175 198 0
174 197 0
174 197 0
175 198 0
174 198 0
172 196 0
174 198 0
173 196 0
173 197 0
175 198 0
175 198 0
174 197 0
174 198 0
173 197 0
175 198 0
174 198 0
175 198 0
174 197 0
174 198 0
174 197 0
176 199 0
173 197 0
173 197 0
174 198 0
175 198 0
173 197 0
175 197 0
175 198 0
174 196 0
174 197 0
174 198 0
173 197 0
172 196 0
173 197 0
175 198 0
174 197 0
175 198 0
173 197 0
174 198 0
175 198 0
176 198 0
175 198 0
175 198 0
173 197 0
174 197 0
172 196 0
174 198 0
175 198 0
174 197 0
175 198 0
173 197 0
174 198 0
173 197 0
173 197 0
173 197 0
172 196 0
174 198 0
175 198 0
174 198 0
173 197 0
172 196 0
175 198 0
172 195 0
175 198 0
173 197 0
175 198 0
172 196 0
174 197 0
174 198 0
173 197 0
173 197 0
173 197 0
174 198 0
173 197 0
174 198 0
174 198 0
174 197 0
174 197 0
175 198 0
174 197 0
172 196 0
174 197 0
172 196 0
173 196 0
173 197 0
173 197 0
175 198 0
173 196 0
174 197 0
175 198 0
174 198 0
173 197 0
175 198 0
173 197 0
173 196 0
175 198 0
173 196 0
173 197 0
174 196 0
173 196 0
175 198 0
175 198 0
173 197 0
173 196 0
172 195 0
174 197 0
173 197 0
175 198 0
173 196 0
174 197 0
172 196 0
172 196 0
173 196 0
173 197 0
173 196 0
173 197 0
173 197 0
173 197 0
172 196 0
173 197 0
173 196 0
173 197 0
173 197 0
173 197 0
174 197 0
173 196 0
172 196 0
174 197 0
173 197 0
174 197 0
172 196 0
173 196 0
174 197 0
171 195 0
173 197 0
174 197 0
175 198 0
172 196 0
175 198 0
174 198 0
171 196 0
174 197 0
174 198 0
175 198 0
174 197 0
174 197 0
173 196 0
173 196 0
172 195 0
174 198 0
172 195 0
173 197 0
173 197 0
175 198 0
175 198 0
173 197 0
173 197 0
175 197 0
174 197 0
175 197 0
171 195 0
174 197 0
174 198 0
173 197 0
174 197 0
174 197 0
172 196 0
175 198 0
174 198 0
173 197 0
173 196 0
175 198 0
171 195 0
173 196 0
173 197 0
172 196 0
174 197 0
176 198 0
175 198 0
173 196 0
173 197 0
172 196 0
174 198 0
174 196 0
174 198 0
174 198 0
175 198 0
174 197 0
170 194 0
172 196 0
173 197 0
175 198 0
175 198 0
174 197 0
174 198 0
174 198 0
174 197 0
173 197 0
174 197 0
174 198 0
174 197 0
173 197 0
174 197 0
173 197 0
174 198 0
173 196 0
172 196 0
174 198 0
174 198 0
170 194 0
173 197 0
175 198 0
175 198 0
173 197 0
175 198 0
174 196 0
175 198 0
173 197 0
174 198 0
174 198 0
175 198 0
172 196 0
174 197 0
173 196 0
173 197 0
174 198 0
174 197 0
176 199 0
174 198 0
173 197 0
175 198 0
173 197 0
174 197 0
173 197 0
174 197 0
175 197 0
175 198 0
172 197 0
175 198 0
174 197 0
172 197 0
173 196 0
175 198 0
174 198 0
174 198 0
174 197 0
174 198 0
175 198 0
174 198 0
174 198 0
172 196 0
175 198 0
175 198 0
174 198 0
175 198 0
175 198 0
175 198 0
173 197 0
175 198 0
173 197 0
172 196 0
174 197 0
175 198 0
173 197 0
176 199 0
173 197 0
175 198 0
174 197 0
172 197 0
174 197 0
173 197 0
172 197 0
176 198 0
174 197 0
176 199 0
172 196 0
174 198 0
173 197 0
175 198 0
174 198 0
174 197 0
174 197 0
173 197 0
176 199 0
175 198 0
175 198 0
173 196 0
175 198 0
173 197 0
174 197 0
174 198 0
175 198 0
174 198 0
175 198 0
174 198 0
175 198 0
175 198 0
175 198 0
174 198 0
175 198 0
174 197 0
175 198 0
173 197 0
175 198 0
174 197 0
174 198 0
174 197 0
174 198 0
175 198 0
175 198 0
175 198 0
174 197 0
174 198 0
175 198 0
174 197 0
173 197 0
173 197 0
173 197 0
173 197 0
175 198 0
176 198 0
174 198 0
175 198 0
173 197 0
174 198 0
175 198 0
175 198 0
174 198 0
173 197 0
174 198 0
176 199 0
174 198 0
175 198 0
174 198 0
174 198 0
172 196 0
174 198 0
175 198 0
173 197 0
175 198 0
174 198 0
175 198 0
174 198 0
175 198 0
175 198 0
175 198 0
173 197 0
175 198 0
174 197 0
173 197 0
174 197 0
175 198 0
175 198 0
176 199 0
172 196 0
175 198 0
175 198 0
174 198 0
176 198 0
174 198 0
173 196 0
175 198 0
173 197 0
175 198 0
175 198 0
174 197 0
172 196 0
174 197 0
174 197 0
175 198 0
173 197 0
173 197 0
174 197 0
174 197 0
175 198 0
174 197 0
172 197 0
174 198 0
175 198 0
173 197 0
174 198 0
173 197 0
175 198 0
174 197 0
175 198 0
173 197 0
176 199 0
175 198 0
175 198 0
174 197 0
175 198 0
176 199 0
174 198 0
175 198 0
175 198 0
172 197 0
173 197 0
174 198 0
173 197 0
175 198 0
175 198 0
173 197 0
172 197 0
176 199 0
173 197 0
173 197 0
174 198 0
173 197 0
175 198 0
173 197 0
174 198 0
174 197 0
172 196 0
174 197 0
173 197 0
174 197 0
175 198 0
174 198 0
174 198 0
175 198 0
174 198 0
174 198 0
175 198 0
175 198 0
174 198 0
174 198 0
175 198 0
175 198 0
174 198 0
174 197 0
174 197 0
174 198 0
172 197 0
176 198 0
175 197 0
174 198 0
172 196 0
174 197 0
174 198 0
173 197 0
173 196 0
174 197 0
172 196 0
173 197 0
175 198 0
175 198 0
175 198 0
174 197 0
172 196 0
174 198 0
174 198 0
174 198 0
172 196 0
173 196 0
173 197 0
173 197 0
174 198 0
175 198 0
174 197 0
175 198 0
174 198 0
175 198 0
173 196 0
170 194 0
174 197 0
174 197 0
172 196 0
174 197 0
173 196 0
174 197 0
173 197 0
171 195 0
172 196 0
174 197 0
174 198 0
176 199 0
173 196 0
173 197 0
173 197 0
174 197 0
173 196 0
173 197 0
173 196 0
173 197 0
173 197 0
173 196 0
174 197 0
173 196 0
172 195 0
173 197 0
173 197 0
172 195 0
173 197 0
172 196 0
176 198 0
174 197 0
175 198 0
172 195 0
173 197 0
175 198 0
173 197 0
171 195 0
173 197 0
173 197 0
173 197 0
175 197 0
174 197 0
175 198 0
173 197 0
174 197 0
174 197 0
173 196 0
174 197 0
173 197 0
175 198 0
173 197 0
173 197 0
173 196 0
173 197 0
176 199 0
174 197 0
173 196 0
173 196 0
172 196 0
175 198 0
174 197 0
174 197 0
173 197 0
171 195 0
174 197 0
175 198 0
171 195 0
174 198 0
174 197 0
173 196 0
174 198 0
173 196 0
174 197 0
175 198 0
174 198 0
175 198 0
175 198 0
175 198 0
174 197 0
173 197 0
174 197 0
172 196 0
174 197 0
173 196 0
172 196 0
172 195 0
173 197 0
177 199 0
173 196 0
174 198 0
174 197 0
176 199 0
174 197 0
173 197 0
176 199 0
175 197 0
172 195 0
172 196 0
174 198 0
174 197 0
175 198 0
172 197 0
174 197 0
175 198 0
173 197 0
174 198 0
174 197 0
171 195 0
176 198 0
174 197 0
174 198 0
174 197 0
174 197 0
176 198 0
173 197 0
174 197 0
172 196 0
174 197 0
175 198 0
174 197 0
174 198 0
173 197 0
173 197 0
173 197 0
172 196 0
174 197 0
176 198 0
175 198 0
176 198 0
173 197 0
176 198 0
174 198 0
173 197 0
173 196 0
174 198 0
173 197 0
175 198 0
174 198 0
173 197 0
172 196 0
173 197 0
173 197 0
174 198 0
173 196 0
174 197 0
173 197 0
175 198 0
174 198 0
173 197 0
172 196 0
173 197 0
173 197 0
173 196 0
171 196 0
175 198 0
175 198 0
175 197 0
175 198 0
174 198 0
173 197 0
174 198 0
173 196 0
173 197 0
176 198 0
175 197 0
175 198 0
176 199 0
175 198 0
172 196 0
175 198 0
175 198 0
175 198 0
173 197 0
174 198 0
173 197 0
175 198 0
173 197 0
175 198 0
174 197 0
175 198 0
175 198 0
175 198 0
174 197 0
174 198 0
173 197 0
175 198 0
175 198 0
175 198 0
174 198 0
174 197 0
176 199 0
173 197 0
175 198 0
175 198 0
174 198 0
174 198 0
173 196 0
174 198 0
173 197 0
175 198 0
173 197 0
174 197 0
174 198 0
174 197 0
174 197 0
175 198 0
175 198 0
174 198 0
175 198 0
174 197 0
174 197 0
173 197 0
175 198 0
174 198 0
174 198 0
173 196 0
175 198 0
174 198 0
174 198 0
174 197 0
173 197 0
174 198 0
173 197 0
175 198 0
174 197 0
175 198 0
174 197 0
173 197 0
174 198 0
174 197 0
175 198 0
173 197 0
175 198 0
175 198 0
173 197 0
175 198 0
173 197 0
172 197 0
174 197 0
174 198 0
175 198 0
174 198 0
175 198 0
174 197 0
176 199 0
176 199 0
177 199 0
175 198 0
176 198 0
175 198 0
174 198 0
173 197 0
174 197 0
174 197 0
175 198 0
174 197 0
175 198 0
175 198 0
175 198 0
174 198 0
174 198 0
174 198 0
174 197 0
175 198 0
176 199 0
173 197 0
174 197 0
176 198 0
173 197 0
173 197 0
174 197 0
175 198 0
174 198 0
175 198 0
173 197 0
176 198 0
175 198 0
174 197 0
174 198 0
175 198 0
175 198 0
172 196 0
173 197 0
175 198 0
173 197 0
174 198 0
173 197 0
175 198 0
175 198 0
174 198 0
174 198 0
174 198 0
174 198 0
173 197 0
174 197 0
174 198 0
175 198 0
173 197 0
176 199 0
174 198 0
174 198 0
173 197 0
173 197 0
173 197 0
174 197 0
175 198 0
174 197 0
174 197 0
175 197 0
173 197 0
175 198 0
174 197 0
172 196 0
174 197 0
174 198 0
173 197 0
173 197 0
173 197 0
175 198 0
174 197 0
175 198 0
173 197 0
173 197 0
175 198 0
175 198 0
174 198 0
175 198 0
175 198 0
173 197 0
172 196 0
175 198 0
173 196 0
175 198 0
175 197 0
174 197 0
174 198 0
174 197 0
173 196 0
173 197 0
174 198 0
173 197 0
174 198 0
174 197 0
173 197 0
175 198 0
172 196 0
173 197 0
175 198 0
174 198 0
173 197 0
173 196 0
175 198 0
173 196 0
175 198 0
175 198 0
173 197 0
174 197 0
172 196 0
174 198 0
174 197 0
173 197 0
175 198 0
174 197 0
174 196 0
174 197 0
175 198 0
174 197 0
174 198 0
177 199 0
173 197 0
172 195 0
174 197 0
175 198 0
175 198 0
172 196 0
174 197 0
176 199 0
172 196 0
175 198 0
173 197 0
174 197 0
174 198 0
175 198 0
173 197 0
172 196 0
175 198 0
174 197 0
175 198 0
174 198 0
173 197 0
173 196 0
171 196 0
173 197 0
174 197 0
173 197 0
173 197 0
175 198 0
175 198 0
174 197 0
172 196 0
175 198 0
175 198 0
174 198 0
172 196 0
174 197 0
172 197 0
175 198 0
174 197 0
175 198 0
174 198 0
173 197 0
173 197 0
174 197 0
173 196 0
173 197 0
173 195 0
173 197 0
174 198 0
172 195 0
171 195 0
173 197 0
174 198 0
174 197 0
173 197 0
174 197 0
172 196 0
173 197 0
172 196 0
173 196 0
174 197 0
173 196 0
172 196 0
173 196 0
173 197 0
173 197 0
172 196 0
174 198 0
175 198 0
175 198 0
173 197 0
174 197 0
176 198 0
174 198 0
175 198 0
174 197 0
175 198 0
173 197 0
172 196 0
174 198 0
173 197 0
172 196 0
174 197 0
174 197 0
175 198 0
175 198 0
173 197 0
172 196 0
172 195 0
174 197 0
174 197 0
173 197 0
172 196 0
176 199 0
174 197 0
175 198 0
174 198 0
172 196 0
174 197 0
175 198 0
176 198 0
174 198 0
172 196 0
174 198 0
175 197 0
172 196 0
173 197 0
174 197 0
175 198 0
176 199 0
173 197 0
173 196 0
173 197 0
175 198 0
174 197 0
173 196 0
172 196 0
175 198 0
173 196 0
170 193 0
173 197 0
173 197 0
174 197 0
172 195 0
174 197 0
173 197 0
173 197 0
175 198 0
174 197 0
174 197 0
173 196 0
173 197 0
172 195 0
174 198 0
175 198 0
173 196 0
173 197 0
171 195 0
174 198 0
172 195 0
174 197 0
174 198 0
172 195 0
172 195 0
171 195 0
174 197 0
174 197 0
173 197 0
174 197 0
173 197 0
172 196 0
173 196 0
173 196 0
174 197 0
174 198 0
175 198 0
175 198 0
175 198 0
175 198 0
174 198 0
175 198 0
175 198 0
173 197 0
174 197 0
174 198 0
175 198 0
175 198 0
174 197 0
175 198 0
172 195 0
173 196 0
172 197 0
174 198 0
173 197 0
174 197 0
174 198 0
174 197 0
173 197 0
175 198 0
173 197 0
174 197 0
174 197 0
175 198 0
175 198 0
175 198 0
175 198 0
173 197 0
173 197 0
174 197 0
176 198 0
173 197 0
175 198 0
173 197 0
174 198 0
173 197 0
176 199 0
174 198 0
174 196 0
174 197 0
173 197 0
173 197 0
175 198 0
173 197 0
174 197 0
174 198 0
174 197 0
174 197 0
176 198 0
175 198 0
174 196 0
173 196 0
173 197 0
174 197 0
173 197 0
175 198 0
174 197 0
175 198 0
174 197 0
175 198 0
174 197 0
175 198 0
173 197 0
174 197 0
174 198 0
173 197 0
173 196 0
174 197 0
174 197 0
175 198 0
174 198 0
174 198 0
173 197 0
175 198 0
174 198 0
174 197 0
172 196 0
174 197 0
175 198 0
174 197 0
172 196 0
173 197 0
175 198 0
175 198 0
173 197 0
173 197 0
174 197 0
176 199 0
174 198 0
174 198 0
174 197 0
175 198 0
175 198 0
173 197 0
175 198 0
175 198 0
175 198 0
175 198 0
175 198 0
173 197 0
174 198 0
175 198 0
176 199 0
174 198 0
174 198 0
176 199 0
173 197 0
173 197 0
174 197 0
174 197 0
173 197 0
175 198 0
175 198 0
174 198 0
175 198 0
174 197 0
174 198 0
174 198 0
175 198 0
175 198 0
174 198 0
175 198 0
173 197 0
174 198 0
173 197 0
175 198 0
173 196 0
173 197 0
174 197 0
174 198 0
174 198 0
173 197 0
174 198 0
174 197 0
175 198 0
175 198 0
174 197 0
175 198 0
174 198 0
174 198 0
175 198 0
174 198 0
174 198 0
174 197 0
176 198 0
175 198 0
175 198 0
174 197 0
175 198 0
175 198 0
173 197 0
176 199 0
174 198 0
175 198 0
172 196 0
176 198 0
173 197 0
174 197 0
175 198 0
174 197 0
175 197 0
175 198 0
174 198 0
176 198 0
173 197 0
175 198 0
175 198 0
174 198 0
176 199 0
174 198 0
176 199 0
174 198 0
174 197 0
174 197 0
173 197 0
175 198 0
173 197 0
175 198 0
174 198 0
173 197 0
175 198 0
176 199 0
173 197 0
172 196 0
173 197 0
175 198 0
174 197 0
174 198 0
174 198 0
173 197 0
175 198 0
174 197 0
174 197 0
174 197 0
175 198 0
174 197 0
175 198 0
173 197 0
173 197 0
175 198 0
175 198 0
174 197 0
174 197 0
174 197 0
173 197 0
173 197 0
174 197 0
175 198 0
174 198 0
174 197 0
175 198 0
175 198 0
174 198 0
174 197 0
172 196 0
176 198 0
174 197 0
175 198 0
174 197 0
173 197 0
175 198 0
176 198 0
175 198 0
174 198 0
174 198 0
175 198 0
173 197 0
174 198 0
174 197 0
174 197 0
174 198 0
173 197 0
174 198 0
172 196 0
174 198 0
173 197 0
174 198 0
174 197 0
174 197 0
174 197 0
173 197 0
174 198 0
175 198 0
175 198 0
175 198 0
175 198 0
174 198 0
172 196 0
173 197 0
174 197 0
175 198 0
172 196 0
174 198 0
173 197 0
174 197 0
175 198 0
173 197 0
175 198 0
174 196 0
173 197 0
175 198 0
173 197 0
173 196 0
175 198 0
171 196 0
172 196 0
174 197 0
171 195 0
175 197 0
175 198 0
174 197 0
171 195 0
174 197 0
173 197 0
172 196 0
173 197 0
174 198 0
174 197 0
175 198 0
174 198 0
175 197 0
175 198 0
172 196 0
174 198 0
175 198 0
173 196 0
174 198 0
172 196 0
174 198 0
173 196 0
176 198 0
175 198 0
176 199 0
176 198 0
172 195 0
174 198 0
173 197 0
173 197 0
173 197 0
173 197 0
171 195 0
174 198 0
172 196 0
173 197 0
173 197 0
173 196 0
173 197 0
173 197 0
175 198 0
174 197 0
173 197 0
171 195 0
173 197 0
175 198 0
173 197 0
173 197 0
173 197 0
173 197 0
175 198 0
174 198 0
174 197 0
174 197 0
174 197 0
174 197 0
175 198 0
174 198 0
172 196 0
174 197 0
174 197 0
173 196 0
172 196 0
172 196 0
174 197 0
173 197 0
175 198 0
175 198 0
175 198 0
174 198 0
172 196 0
174 197 0
173 197 0
174 197 0
173 196 0
173 196 0
173 196 0
174 197 0
173 197 0
174 197 0
172 196 0
174 198 0
172 196 0
172 197 0
174 197 0
173 197 0
172 196 0
173 197 0
175 198 0
170 195 0
174 198 0
173 196 0
173 197 0
173 197 0
173 196 0
174 197 0
172 196 0
173 196 0
174 197 0
174 197 0
174 197 0
172 196 0
174 198 0
174 197 0
176 198 0
173 197 0
174 197 0
174 198 0
174 198 0
172 196 0
174 197 0
172 196 0
173 196 0
173 197 0
172 196 0
173 196 0
174 197 0
174 197 0
174 197 0
175 198 0
175 198 0
173 196 0
171 195 0
175 198 0
174 198 0
174 197 0
174 197 0
175 198 0
172 196 0
173 197 0
174 197 0
174 197 0
174 197 0
175 198 0
174 198 0
174 197 0
173 197 0
174 197 0
174 197 0
175 198 0
176 198 0
174 198 0
173 197 0
173 197 0
171 195 0
175 198 0
173 196 0
172 196 0
174 197 0
172 196 0
173 197 0
173 196 0
174 197 0
174 198 0
174 197 0
172 196 0
175 198 0
174 198 0
173 197 0
175 198 0
175 198 0
175 198 0
174 197 0
172 196 0
175 198 0
174 197 0
175 198 0
175 198 0
172 196 0
175 198 0
172 196 0
173 197 0
174 197 0
175 198 0
174 197 0
173 197 0
174 197 0
173 196 0
174 197 0
173 196 0
172 196 0
174 197 0
173 197 0
175 198 0
173 197 0
174 197 0
175 198 0
175 198 0
175 198 0
175 198 0
175 198 0
174 197 0
173 196 0
175 198 0
173 197 0
174 198 0
173 197 0
176 199 0
174 198 0
174 197 0
175 198 0
174 198 0
173 197 0
173 197 0
174 197 0
174 197 0
173 197 0
175 197 0
174 197 0
175 198 0
174 197 0
175 198 0
175 198 0
173 197 0
173 197 0
176 198 0
173 197 0
175 198 0
174 197 0
175 198 0
174 198 0
172 196 0
176 199 0
172 196 0
175 198 0
175 198 0
175 198 0
175 198 0
174 198 0
174 198 0
174 198 0
173 197 0
175 198 0
174 198 0
174 197 0
175 198 0
174 198 0
173 197 0
175 198 0
174 197 0
174 198 0
174 197 0
173 197 0
175 198 0
174 198 0
173 197 0
175 198 0
174 197 0
176 199 0
173 197 0
174 197 0
175 198 0
175 198 0
174 198 0
175 198 0
174 198 0
175 198 0
175 198 0
175 198 0
173 197 0
173 197 0
176 198 0
172 196 0
173 197 0
175 198 0
174 198 0
173 197 0
173 196 0
174 197 0
174 198 0
175 198 0
172 197 0
174 198 0
174 198 0
175 198 0
174 197 0
173 197 0
174 198 0
175 198 0
174 198 0
173 197 0
175 198 0
175 198 0
175 198 0
175 198 0
173 197 0
175 198 0
174 197 0
174 198 0
173 197 0
175 198 0
173 197 0
174 198 0
174 198 0
176 199 0
174 198 0
172 196 0
174 198 0
172 197 0
175 198 0
174 198 0
174 197 0
175 198 0
175 198 0
174 198 0
176 199 0
174 198 0
176 198 0
172 196 0
173 197 0
174 198 0
173 196 0
174 197 0
174 198 0
174 198 0
175 198 0
172 197 0
173 197 0
174 198 0
174 198 0
176 198 0
174 198 0
173 197 0
174 197 0
176 199 0
173 197 0
174 198 0
175 198 0
174 198 0
175 198 0
173 197 0
177 199 0
173 197 0
174 197 0
173 197 0
173 197 0
173 197 0
174 198 0
173 197 0
175 198 0
174 198 0
173 197 0
173 197 0
174 197 0
174 197 0
174 198 0
173 197 0
172 196 0
175 198 0
173 197 0
172 196 0
174 197 0
176 199 0
174 197 0
174 197 0
174 198 0
175 198 0
176 198 0
175 198 0
174 197 0
176 198 0
175 198 0
174 197 0
174 198 0
175 198 0
174 197 0
173 197 0
174 197 0
175 198 0
174 197 0
173 197 0
173 197 0
174 197 0
174 197 0
175 198 0
173 197 0
175 198 0
174 198 0
174 198 0
173 197 0
175 197 0
174 198 0
174 197 0
175 198 0
174 197 0
174 197 0
174 197 0
174 197 0
174 198 0
172 196 0
172 197 0
175 198 0
175 198 0
174 197 0
175 198 0
173 197 0
175 198 0
174 197 0
176 198 0
175 198 0
174 197 0
175 197 0
174 197 0
173 196 0
175 198 0
173 197 0
175 198 0
175 198 0
173 196 0
173 197 0
174 198 0
174 197 0
176 198 0
173 196 0
173 197 0
174 197 0
176 198 0
174 197 0
174 198 0
174 197 0
173 196 0
173 196 0
173 197 0
174 197 0
174 197 0
174 197 0
173 197 0
174 197 0
173 197 0
174 197 0
173 197 0
174 197 0
174 197 0
173 197 0
174 198 0
172 196 0
173 197 0
173 196 0
175 198 0
172 195 0
173 197 0
173 197 0
174 197 0
173 197 0
174 198 0
174 197 0
175 198 0
171 194 0
172 196 0
175 198 0
174 198 0
173 197 0
175 198 0
172 196 0
173 197 0
171 194 0
172 195 0
174 198 0
173 196 0
174 197 0
173 196 0
169 192 0
176 199 0
172 196 0
174 197 0
172 196 0
173 197 0
174 198 0
175 198 0
174 197 0
173 196 0
174 197 0
173 196 0
174 198 0
174 197 0
175 198 0
175 198 0
174 198 0
174 197 0
173 197 0
174 198 0
174 197 0
174 197 0
174 197 0
172 196 0
175 198 0
174 197 0
175 198 0
173 197 0
173 197 0
174 197 0
175 198 0
174 197 0
173 197 0
173 197 0
173 197 0
173 197 0
175 198 0
173 196 0
174 197 0
174 197 0
173 197 0
174 198 0
173 197 0
174 197 0
173 197 0
174 197 0
172 197 0
173 196 0
174 197 0
173 197 0
174 198 0
173 197 0
174 197 0
173 197 0
174 197 0
174 197 0
173 197 0
174 198 0
173 196 0
174 197 0
176 198 0
173 196 0
173 197 0
173 196 0
175 198 0
176 198 0
175 198 0
172 196 0
172 196 0
174 197 0
174 197 0
175 198 0
174 197 0
173 197 0
175 198 0
175 198 0
173 197 0
173 197 0
175 198 0
174 197 0
175 198 0
175 198 0
172 196 0
173 197 0
174 198 0
176 198 0
173 196 0
172 197 0
175 198 0
174 197 0
173 197 0
173 197 0
174 197 0
174 197 0
172 196 0
174 197 0
174 198 0
173 197 0
175 198 0
171 195 0
174 197 0
176 199 0
172 196 0
174 197 0
173 197 0
174 198 0
173 197 0
174 197 0
173 197 0
174 197 0
175 198 0
174 198 0
174 197 0
172 196 0
174 198 0
174 197 0
173 197 0
174 198 0
174 197 0
174 197 0
174 198 0
175 198 0
174 197 0
173 197 0
174 198 0
173 196 0
173 197 0
173 196 0
173 197 0
174 198 0
173 197 0
174 198 0
174 198 0
173 197 0
173 197 0
173 197 0
175 198 0
173 197 0
173 196 0
175 198 0
174 197 0
174 197 0
175 198 0
174 198 0
174 198 0
174 198 0
173 196 0
173 197 0
174 198 0
175 198 0
173 197 0
173 197 0
174 198 0
172 196 0
174 197 0
175 198 0
172 197 0
174 198 0
176 198 0
174 198 0
173 197 0
173 197 0
174 197 0
174 198 0
174 197 0
174 198 0
174 197 0
174 198 0
174 197 0
174 197 0
175 198 0
175 198 0
174 197 0
174 198 0
173 196 0
174 198 0
173 197 0
173 197 0
174 198 0
174 198 0
173 197 0
174 198 0
175 198 0
174 198 0
175 198 0
175 198 0
175 198 0
174 198 0
174 198 0
174 198 0
175 198 0
174 198 0
174 197 0
175 198 0
175 198 0
175 198 0
175 198 0
175 198 0
176 198 0
174 198 0
174 198 0
175 198 0
174 197 0
174 198 0
175 198 0
174 198 0
173 197 0
175 198 0
174 198 0
174 197 0
175 198 0
175 198 0
173 196 0
174 198 0
175 198 0
175 198 0
173 196 0
173 197 0
174 197 0
174 198 0
175 198 0
173 197 0
175 198 0
175 198 0
174 197 0
173 197 0
176 199 0
174 197 0
175 198 0
173 197 0
175 198 0
173 197 0
176 199 0
174 197 0
174 197 0
173 197 0
175 198 0
175 198 0
175 198 0
175 198 0
174 198 0
173 197 0
174 198 0
175 198 0
174 198 0
172 196 0
174 197 0
174 198 0
174 197 0
173 197 0
175 198 0
176 198 0
174 197 0
174 198 0
173 197 0
175 198 0
173 197 0
174 198 0
174 198 0
173 197 0
174 198 0
174 197 0
174 198 0
174 198 0
175 198 0
172 197 0
174 198 0
174 197 0
173 197 0
173 197 0
175 198 0
175 198 0
173 197 0
174 198 0
174 198 0
173 197 0
173 197 0
175 198 0
176 198 0
176 199 0
172 196 0
173 197 0
174 198 0
173 197 0
173 197 0
174 198 0
175 198 0
174 198 0
174 197 0
173 197 0
174 197 0
173 197 0
176 199 0
176 199 0
174 198 0
175 198 0
175 198 0
174 197 0
173 197 0
173 197 0
173 197 0
175 198 0
176 199 0
172 196 0
174 198 0
175 198 0
174 198 0
172 196 0
175 198 0
174 198 0
172 196 0
174 198 0
174 198 0
175 198 0
174 197 0
174 198 0
172 195 0
174 197 0
174 197 0
174 198 0
173 197 0
174 197 0
172 196 0
172 196 0
174 197 0
175 197 0
173 197 0
175 198 0
174 197 0
174 197 0
172 196 0
174 197 0
172 196 0
172 195 0
175 198 0
174 197 0
172 196 0
173 197 0
173 197 0
174 198 0
172 197 0
172 196 0
176 199 0
173 196 0
173 196 0
174 197 0
173 197 0
175 198 0
172 196 0
174 198 0
173 196 0
173 197 0
175 198 0
171 195 0
174 197 0
174 197 0
171 195 0
172 195 0
175 198 0
174 197 0
173 196 0
169 194 0
171 194 0
174 197 0
174 197 0
175 198 0
171 194 0
173 197 0
172 196 0
172 196 0
173 196 0
173 196 0
173 197 0
173 196 0
173 197 0
174 197 0
174 197 0
171 194 0
174 198 0
173 196 0
174 198 0
174 197 0
173 197 0
174 198 0
175 198 0
173 197 0
174 197 0
174 197 0
175 198 0
173 197 0
175 198 0
172 196 0
173 196 0
173 196 0
173 197 0
171 195 0
172 197 0
174 197 0
173 196 0
175 198 0
174 197 0
174 196 0
172 196 0
174 197 0
174 197 0
171 195 0
174 197 0
173 196 0
174 197 0
173 197 0
174 198 0
174 197 0
173 196 0
173 196 0
175 198 0
174 197 0
175 198 0
173 197 0
174 197 0
172 196 0
177 199 0
174 197 0
173 197 0
174 198 0
175 198 0
175 198 0
173 197 0
173 197 0
174 198 0
173 196 0
174 196 0
174 197 0
173 197 0
174 197 0
174 198 0
171 195 0
174 197 0
175 198 0
171 195 0
174 197 0
174 198 0
172 196 0
172 196 0
173 196 0
175 198 0
172 196 0
175 197 0
174 198 0
175 198 0
175 198 0
174 197 0
173 197 0
173 197 0
175 197 0
174 198 0
176 198 0
172 197 0
174 198 0
175 198 0
175 198 0
175 198 0
172 196 0
173 197 0
174 198 0
174 197 0
175 198 0
176 198 0
174 197 0
172 196 0
172 197 0
174 198 0
174 197 0
173 196 0
174 197 0
173 197 0
175 198 0
174 198 0
175 198 0
173 197 0
174 197 0
173 197 0
176 198 0
174 197 0
175 198 0
174 197 0
174 197 0
171 196 0
174 198 0
173 197 0
175 198 0
173 197 0
175 197 0
173 197 0
173 196 0
174 198 0
175 198 0
174 198 0
174 198 0
175 198 0
174 197 0
173 196 0
174 198 0
173 197 0
172 195 0
174 198 0
174 198 0
174 197 0
176 199 0
174 197 0
174 197 0
173 197 0
173 196 0
175 198 0
175 198 0
174 198 0
174 197 0
174 197 0
173 197 0
175 198 0
174 197 0
175 197 0
175 198 0
176 199 0
174 198 0
173 197 0
173 197 0
175 197 0
175 198 0
173 197 0
173 197 0
174 198 0
174 197 0
175 198 0
175 198 0
175 198 0
174 198 0
173 196 0
175 198 0
173 197 0
174 198 0
174 198 0
176 199 0
174 198 0
174 198 0
175 198 0
175 198 0
174 198 0
174 198 0
176 199 0
174 197 0
174 198 0
173 197 0
175 198 0
174 198 0
175 198 0
174 198 0
173 196 0
174 197 0
174 198 0
174 197 0
175 198 0
173 197 0
175 198 0
175 198 0
175 198 0
173 197 0
174 198 0
175 198 0
174 197 0
175 198 0
173 197 0
175 198 0
175 198 0
175 198 0
172 197 0
175 198 0
174 197 0
174 197 0
173 197 0
174 197 0
174 198 0
172 196 0
173 197 0
174 198 0
176 199 0
175 198 0
175 198 0
175 198 0
174 198 0
174 197 0
173 197 0
175 198 0
175 198 0
175 198 0
175 198 0
174 198 0
173 197 0
175 198 0
175 198 0
175 198 0
174 198 0
174 198 0
173 197 0
175 198 0
173 197 0
174 198 0
176 199 0
174 198 0
172 197 0
174 198 0
176 199 0
173 197 0
174 197 0
174 198 0
175 198 0
173 197 0
174 197 0
175 198 0
175 198 0
174 198 0
174 197 0
174 198 0
174 197 0
176 199 0
175 198 0
175 198 0
173 197 0
175 198 0
175 198 0
176 198 0
175 198 0
175 198 0
174 197 0
175 198 0
174 198 0
172 196 0
173 197 0
174 198 0
173 197 0
173 197 0
172 197 0
174 198 0
173 197 0
175 198 0
173 197 0
174 198 0
174 197 0
174 198 0
174 198 0
175 198 0
174 197 0
175 198 0
174 198 0
175 198 0
174 197 0
174 198 0
174 198 0
173 197 0
174 198 0
174 197 0
175 198 0
175 198 0
173 197 0
173 197 0
174 198 0
174 198 0
174 197 0
173 197 0
173 197 0
176 199 0
173 197 0
173 197 0
175 198 0
175 198 0
174 197 0
175 198 0
172 196 0
174 198 0
175 197 0
173 197 0
172 196 0
175 198 0
175 198 0
174 197 0
175 198 0
174 198 0
173 197 0
172 197 0
173 197 0
173 197 0
175 198 0
176 198 0
175 198 0
174 197 0
175 198 0
176 199 0
175 198 0
175 198 0
173 196 0
174 197 0
175 198 0
173 197 0
176 199 0
172 197 0
173 197 0
174 198 0
174 198 0
175 198 0
173 196 0
174 197 0
175 198 0
174 198 0
175 198 0
174 197 0
175 198 0
173 196 0
172 195 0
173 197 0
173 197 0
174 197 0
175 198 0
174 198 0
172 196 0
175 198 0
173 197 0
173 197 0
174 198 0
173 196 0
176 198 0
175 198 0
172 197 0
173 197 0
174 197 0
173 197 0
174 197 0
172 196 0
173 197 0
173 197 0
174 197 0
175 198 0
173 197 0
173 197 0
176 198 0
175 198 0
173 196 0
173 196 0
174 197 0
174 197 0
174 198 0
174 197 0
174 198 0
174 197 0
173 196 0
175 198 0
171 195 0
174 197 0
175 198 0
172 196 0
174 197 0
175 198 0
174 197 0
176 198 0
174 197 0
173 197 0
175 198 0
174 197 0
173 196 0
174 197 0
174 197 0
174 198 0
172 196 0
172 196 0
173 197 0
173 196 0
173 195 0
172 195 0
174 197 0
172 196 0
173 197 0
174 197 0
173 197 0
173 197 0
172 196 0
173 196 0
175 198 0
172 196 0
173 196 0
172 196 0
173 196 0
172 195 0
173 197 0
172 195 0
173 197 0
173 196 0
172 196 0
174 197 0
174 197 0
174 198 0
174 198 0
173 197 0
174 196 0
172 196 0
173 197 0
174 197 0
171 195 0
172 196 0
171 195 0
174 197 0
174 197 0
172 196 0
172 196 0
175 198 0
173 196 0
174 197 0
174 197 0
173 196 0
174 197 0
173 197 0
174 198 0
173 196 0
175 198 0
174 198 0
174 197 0
174 197 0
173 196 0
173 196 0
172 196 0
175 198 0
174 197 0
173 196 0
173 196 0
173 197 0
173 197 0
173 197 0
173 196 0
176 198 0
175 198 0
176 198 0
174 196 0
174 197 0
172 197 0
173 196 0
175 197 0
174 197 0
174 197 0
173 197 0
175 198 0
174 197 0
173 197 0
174 197 0
174 197 0
174 197 0
174 197 0
175 198 0
171 196 0
173 196 0
173 197 0
173 197 0
174 197 0
175 198 0
173 196 0
175 198 0
175 198 0
174 197 0
174 198 0
172 197 0
172 196 0
173 196 0
172 196 0
173 197 0
175 198 0
174 198 0
174 197 0
173 196 0
174 198 0
175 198 0
173 197 0
175 198 0
175 198 0
174 197 0
172 196 0
175 197 0
173 197 0
174 197 0
173 196 0
173 197 0
175 197 0
174 198 0
174 198 0
173 197 0
173 197 0
175 197 0
172 195 0
174 197 0
172 197 0
172 196 0
176 199 0
176 199 0
174 197 0
173 197 0
172 196 0
175 198 0
172 196 0
172 196 0
175 198 0
175 198 0
173 196 0
173 196 0
175 198 0
176 199 0
175 198 0
175 198 0
173 196 0
173 197 0
176 198 0
174 197 0
176 199 0
174 198 0
174 198 0
174 198 0
175 198 0
173 197 0
174 198 0
175 198 0
174 197 0
175 198 0
174 197 0
175 198 0
175 198 0
174 198 0
176 198 0
175 198 0
173 197 0
175 198 0
174 197 0
175 198 0
174 197 0
175 198 0
175 198 0
174 198 0
175 198 0
173 197 0
174 198 0
173 197 0
175 198 0
175 198 0
174 198 0
173 197 0
174 198 0
173 196 0
174 198 0
173 196 0
175 198 0
175 198 0
175 198 0
175 198 0
176 198 0
173 196 0
174 198 0
174 198 0
175 198 0
173 197 0
173 197 0
175 198 0
175 198 0
174 198 0
175 198 0
174 197 0
175 198 0
174 198 0
175 198 0
174 197 0
175 198 0
174 198 0
175 198 0
175 198 0
171 194 0
175 198 0
176 199 0
174 198 0
173 197 0
175 198 0
175 198 0
174 197 0
174 197 0
175 198 0
174 198 0
174 198 0
175 198 0
175 198 0
174 198 0
174 197 0
173 196 0
174 198 0
175 198 0
174 197 0
174 197 0
174 198 0
174 198 0
176 199 0
174 197 0
174 198 0
175 198 0
175 198 0
174 198 0
174 198 0
173 197 0
173 197 0
176 199 0
173 197 0
176 199 0
175 198 0
174 198 0
176 198 0
174 198 0
174 197 0
175 198 0
174 197 0
176 198 0
174 198 0
175 198 0
175 198 0
173 197 0
173 197 0
173 197 0
174 198 0
173 197 0
172 196 0
174 198 0
174 198 0
174 197 0
173 197 0
174 197 0
172 197 0
175 198 0
175 198 0
175 198 0
174 198 0
173 197 0
173 197 0
174 198 0
175 198 0
174 198 0
175 198 0
174 198 0
175 198 0
172 196 0
174 198 0
173 197 0
174 198 0
174 198 0
174 198 0
174 197 0
175 198 0
175 198 0
173 197 0
174 197 0
175 198 0
175 198 0
175 198 0
173 197 0
173 197 0
172 197 0
174 197 0
174 198 0
175 198 0
173 197 0
174 197 0
173 197 0
173 197 0
174 198 0
175 198 0
175 198 0
175 198 0
176 198 0
175 198 0
172 196 0
175 197 0
172 196 0
174 197 0
174 197 0
175 198 0
175 198 0
176 199 0
173 197 0
174 197 0
174 198 0
174 197 0
174 198 0
175 198 0
174 197 0
173 197 0
174 198 0
174 197 0
174 197 0
173 196 0
174 197 0
174 198 0
173 197 0
175 198 0
173 196 0
173 197 0
175 198 0
173 197 0
173 197 0
175 198 0
176 198 0
174 197 0
175 198 0
174 197 0
172 196 0
171 196 0
176 199 0
175 198 0
173 197 0
173 196 0
174 198 0
174 197 0
173 197 0
172 196 0
173 197 0
173 197 0
173 196 0
173 197 0
174 197 0
173 197 0
174 197 0
173 197 0
175 198 0
174 198 0
175 198 0
174 198 0
174 198 0
174 196 0
174 198 0
171 195 0
175 198 0
175 198 0
172 196 0
173 197 0
175 198 0
174 196 0
175 198 0
173 196 0
173 196 0
175 198 0
173 197 0
174 198 0
172 196 0
175 198 0
173 197 0
173 196 0
175 198 0
173 197 0
172 195 0
174 197 0
175 198 0
173 197 0
175 198 0
173 196 0
175 198 0
174 198 0
173 196 0
174 198 0
173 197 0
175 198 0
175 198 0
174 198 0
174 197 0
172 195 0
174 198 0
172 197 0
173 196 0
174 196 0
173 197 0
172 196 0
174 197 0
173 197 0
174 197 0
173 197 0
173 197 0
173 196 0
175 198 0
173 196 0
173 196 0
174 197 0
171 195 0
172 196 0
172 195 0
171 195 0
171 194 0
173 196 0
175 198 0
170 195 0
172 197 0
172 196 0
173 197 0
173 197 0
174 197 0
172 196 0
174 197 0
173 196 0
174 198 0
174 197 0
173 196 0
173 196 0
172 196 0
175 198 0
174 198 0
173 196 0
172 196 0
173 197 0
173 196 0
174 198 0
172 196 0
174 197 0
174 198 0
172 196 0
175 198 0
173 197 0
174 198 0
175 198 0
174 197 0
174 197 0
171 196 0
172 197 0
175 198 0
174 197 0
172 197 0
172 196 0
173 197 0
175 198 0
174 197 0
175 197 0
174 197 0
174 197 0
173 197 0
171 196 0
175 198 0
175 198 0
175 198 0
173 197 0
174 197 0
175 198 0
173 197 0
173 197 0
173 197 0
174 198 0
174 197 0
174 197 0
173 197 0
173 197 0
173 197 0
172 195 0
173 197 0
174 197 0
173 197 0
174 197 0
174 197 0
173 196 0
173 196 0
174 198 0
176 199 0
175 198 0
173 196 0
171 195 0
172 195 0
174 197 0
174 198 0
173 197 0
174 198 0
174 198 0
174 198 0
174 198 0
175 198 0
173 197 0
174 198 0
174 198 0
174 198 0
172 196 0
174 197 0
174 197 0
174 198 0
174 198 0
174 198 0
175 198 0
175 198 0
176 199 0
175 198 0
174 196 0
176 198 0
175 198 0
173 197 0
173 197 0
174 198 0
174 198 0
175 198 0
175 198 0
172 196 0
174 197 0
174 197 0
173 196 0
174 198 0
175 198 0
175 198 0
174 197 0
175 198 0
175 198 0
174 198 0
176 199 0
175 198 0
176 198 0
175 198 0
174 197 0
174 198 0
174 197 0
175 198 0
174 197 0
175 198 0
176 199 0
173 197 0
175 198 0
174 198 0
174 197 0
173 197 0
173 196 0
173 197 0
174 197 0
172 197 0
174 198 0
174 197 0
174 198 0
176 198 0
174 197 0
174 197 0
174 197 0
174 197 0
174 197 0
174 197 0
173 197 0
175 198 0
173 197 0
174 198 0
174 198 0
173 197 0
174 197 0
175 198 0
173 197 0
174 198 0
174 198 0
175 198 0
174 198 0
174 197 0
174 198 0
174 198 0
174 197 0
175 198 0
174 197 0
176 199 0
175 198 0
175 198 0
175 198 0
174 197 0
173 196 0
173 197 0
173 197 0
177 199 0
173 197 0
173 197 0
175 198 0
175 198 0
174 197 0
174 197 0
177 199 0
173 196 0
175 198 0
174 198 0
173 197 0
172 196 0
